(G-CODE GENERATED BY FLATCAM v8.97 - www.flatcam.org - Version Date: 2019/09/27)

(Name: Corte contorno)
(Type: G-code from Geometry)
(Units: MM)

(Created on Monday, 03 May 2021 at 15:20)

(TOOL DIAMETER: 2.8 mm)
(Feedrate: 450.0 mm/min)
(Feedrate_Z: 600.0 mm/min)
(Feedrate rapids 79.9998 mm/min)

(Z_Cut: -1.65 mm)
(DepthPerCut: 0.55 mm <=>3 passes)
(Z_Move: 5.0 mm)
(Z Toolchange: 12.7 mm)
(X,Y Toolchange: 0.0000, 0.0000 mm)
(Z Start: None mm)
(Z End: 90.0 mm)
(Steps per circle: 128)
(Postprocessor Geometry: default)

(X range:   -1.5271 ...   86.0967  mm)
(Y range:   -1.5271 ...   51.5311  mm)

(Spindle Speed: 12000 RPM)

G21
G90
G94

G01 F450.00
G00 Z5.0000

M03 S12000
G00 X42.3457 Y1.5164
G01 F600.00
G01 Z-0.5500
G01 F450.00
G01 X42.3449 Y16.4753
G01 X42.2240 Y16.4753
G01 X42.2249 Y1.5024
G01 X42.2240 Y1.4288
G01 X42.2208 Y1.3458
G01 X42.2176 Y1.2922
G01 X42.2154 Y1.2629
G01 X42.2108 Y1.2113
G01 X42.2051 Y1.1570
G01 X42.2016 Y1.1278
G01 X42.1933 Y1.0659
G01 X42.1845 Y1.0097
G01 X42.1788 Y0.9763
G01 X42.1683 Y0.9199
G01 X42.1556 Y0.8583
G01 X42.1490 Y0.8291
G01 X42.1344 Y0.7678
G01 X42.1191 Y0.7091
G01 X42.1040 Y0.6556
G01 X42.0955 Y0.6270
G01 X42.0764 Y0.5659
G01 X42.0542 Y0.5003
G01 X42.0350 Y0.4472
G01 X42.0241 Y0.4183
G01 X42.0017 Y0.3615
G01 X41.9773 Y0.3033
G01 X41.9664 Y0.2783
G01 X41.9426 Y0.2257
G01 X41.9154 Y0.1688
G01 X41.9024 Y0.1428
G01 X41.8739 Y0.0874
G01 X41.8446 Y0.0334
G01 X41.8167 Y-0.0158
G01 X41.7984 Y-0.0470
G01 X41.7684 Y-0.0963
G01 X41.7344 Y-0.1496
G01 X41.7186 Y-0.1735
G01 X41.6883 Y-0.2183
G01 X41.6536 Y-0.2676
G01 X41.6356 Y-0.2923
G01 X41.5973 Y-0.3432
G01 X41.5588 Y-0.3922
G01 X41.5222 Y-0.4368
G01 X41.5046 Y-0.4578
G01 X41.4638 Y-0.5048
G01 X41.4230 Y-0.5500
G01 X41.4011 Y-0.5735
G01 X41.3615 Y-0.6148
G01 X41.3126 Y-0.6636
G01 X41.2676 Y-0.7066
G01 X41.2475 Y-0.7253
G01 X41.2039 Y-0.7647
G01 X41.1563 Y-0.8059
G01 X41.1086 Y-0.8455
G01 X41.0857 Y-0.8640
G01 X41.0380 Y-0.9013
G01 X40.9945 Y-0.9340
G01 X40.9683 Y-0.9531
G01 X40.9185 Y-0.9882
G01 X40.8737 Y-1.0185
G01 X40.8459 Y-1.0369
G01 X40.7952 Y-1.0690
G01 X40.7428 Y-1.1008
G01 X40.6864 Y-1.1335
G01 X40.6597 Y-1.1485
G01 X40.6060 Y-1.1773
G01 X40.5497 Y-1.2062
G01 X40.4706 Y-1.2443
G01 X40.4134 Y-1.2700
G01 X40.3574 Y-1.2938
G01 X40.3317 Y-1.3044
G01 X40.2733 Y-1.3274
G01 X40.2046 Y-1.3525
G01 X40.1346 Y-1.3763
G01 X40.0645 Y-1.3981
G01 X40.0049 Y-1.4153
G01 X39.9401 Y-1.4324
G01 X39.9024 Y-1.4417
G01 X39.8410 Y-1.4557
G01 X39.7637 Y-1.4714
G01 X39.7055 Y-1.4820
G01 X39.6346 Y-1.4931
G01 X39.5625 Y-1.5029
G01 X39.4889 Y-1.5108
G01 X39.4179 Y-1.5169
G01 X39.3453 Y-1.5212
G01 X39.2737 Y-1.5239
G01 X39.2057 Y-1.5248
G01 X1.5013 Y-1.5271
G01 X1.4190 Y-1.5260
G01 X1.3653 Y-1.5240
G01 X1.3361 Y-1.5226
G01 X1.2793 Y-1.5190
G01 X1.2180 Y-1.5138
G01 X1.1354 Y-1.5049
G01 X1.0735 Y-1.4967
G01 X1.0444 Y-1.4924
G01 X0.9905 Y-1.4837
G01 X0.9307 Y-1.4728
G01 X0.8485 Y-1.4559
G01 X0.7667 Y-1.4366
G01 X0.7080 Y-1.4213
G01 X0.6545 Y-1.4062
G01 X0.6258 Y-1.3977
G01 X0.5676 Y-1.3795
G01 X0.4882 Y-1.3526
G01 X0.4375 Y-1.3341
G01 X0.4087 Y-1.3230
G01 X0.3577 Y-1.3028
G01 X0.2948 Y-1.2763
G01 X0.2164 Y-1.2409
G01 X0.1677 Y-1.2176
G01 X0.1417 Y-1.2046
G01 X0.0931 Y-1.1796
G01 X0.0398 Y-1.1510
G01 X-0.0338 Y-1.1090
G01 X-0.0868 Y-1.0772
G01 X-0.1129 Y-1.0609
G01 X-0.1604 Y-1.0303
G01 X-0.2047 Y-1.0005
G01 X-0.2256 Y-0.9862
G01 X-0.2761 Y-0.9505
G01 X-0.3442 Y-0.8995
G01 X-0.3862 Y-0.8667
G01 X-0.4099 Y-0.8475
G01 X-0.4527 Y-0.8121
G01 X-0.4981 Y-0.7729
G01 X-0.5607 Y-0.7164
G01 X-0.6072 Y-0.6722
G01 X-0.6285 Y-0.6512
G01 X-0.6666 Y-0.6128
G01 X-0.7075 Y-0.5700
G01 X-0.7658 Y-0.5061
G01 X-0.8021 Y-0.4642
G01 X-0.8236 Y-0.4387
G01 X-0.8596 Y-0.3947
G01 X-0.8976 Y-0.3464
G01 X-0.9486 Y-0.2783
G01 X-0.9807 Y-0.2330
G01 X-0.9993 Y-0.2060
G01 X-1.0253 Y-0.1675
G01 X-1.0433 Y-0.1398
G01 X-1.0714 Y-0.0952
G01 X-1.1080 Y-0.0349
G01 X-1.1392 Y0.0194
G01 X-1.1539 Y0.0462
G01 X-1.1797 Y0.0943
G01 X-1.2073 Y0.1481
G01 X-1.2454 Y0.2272
G01 X-1.2681 Y0.2776
G01 X-1.2808 Y0.3070
G01 X-1.3024 Y0.3584
G01 X-1.3252 Y0.4160
G01 X-1.3545 Y0.4958
G01 X-1.3814 Y0.5758
G01 X-1.3992 Y0.6333
G01 X-1.4164 Y0.6929
G01 X-1.4244 Y0.7226
G01 X-1.4386 Y0.7781
G01 X-1.4527 Y0.8385
G01 X-1.4584 Y0.8646
G01 X-1.4695 Y0.9185
G01 X-1.4808 Y0.9792
G01 X-1.4862 Y1.0114
G01 X-1.4942 Y1.0632
G01 X-1.5051 Y1.1449
G01 X-1.5117 Y1.2061
G01 X-1.5165 Y1.2605
G01 X-1.5189 Y1.2933
G01 X-1.5223 Y1.3525
G01 X-1.5253 Y1.4373
G01 X-1.5260 Y1.4998
G01 X-1.5271 Y20.6899
G01 X-1.5198 Y21.3134
G01 X-1.4984 Y21.9216
G01 X-1.4967 Y21.9574
G01 X-1.4611 Y22.5619
G01 X-1.4111 Y23.1684
G01 X-1.4077 Y23.2042
G01 X-1.3436 Y23.8064
G01 X-1.2651 Y24.4099
G01 X-1.2600 Y24.4454
G01 X-1.1671 Y25.0468
G01 X-1.0608 Y25.6429
G01 X-1.0540 Y25.6785
G01 X-0.9328 Y26.2746
G01 X-0.7986 Y26.8650
G01 X-0.7902 Y26.9000
G01 X-0.6411 Y27.4900
G01 X-0.4769 Y28.0814
G01 X-0.2981 Y28.6718
G01 X-0.2873 Y28.7060
G01 X-0.0978 Y29.2811
G01 X0.1059 Y29.8545
G01 X0.1183 Y29.8882
G01 X0.3346 Y30.4539
G01 X0.5652 Y31.0172
G01 X0.5792 Y31.0501
G01 X0.8231 Y31.6077
G01 X1.0787 Y32.1567
G01 X1.0943 Y32.1892
G01 X1.3642 Y32.7344
G01 X1.6452 Y33.2706
G01 X1.6624 Y33.3025
G01 X1.9577 Y33.8345
G01 X2.2681 Y34.3642
G01 X2.6016 Y34.9041
G01 X12.2583 Y50.1226
G01 X12.2924 Y50.1752
G01 X12.3400 Y50.2447
G01 X12.3842 Y50.3058
G01 X12.4299 Y50.3658
G01 X12.4638 Y50.4083
G01 X12.4840 Y50.4329
G01 X12.5235 Y50.4795
G01 X12.5592 Y50.5201
G01 X12.5806 Y50.5438
G01 X12.6121 Y50.5776
G01 X12.6344 Y50.6010
G01 X12.6733 Y50.6408
G01 X12.7281 Y50.6942
G01 X12.7842 Y50.7461
G01 X12.8300 Y50.7867
G01 X12.8507 Y50.8045
G01 X12.8865 Y50.8347
G01 X12.9129 Y50.8562
G01 X12.9544 Y50.8891
G01 X13.0024 Y50.9258
G01 X13.0298 Y50.9459
G01 X13.0721 Y50.9763
G01 X13.1348 Y51.0193
G01 X13.1979 Y51.0602
G01 X13.2685 Y51.1034
G01 X13.3233 Y51.1352
G01 X13.3771 Y51.1650
G01 X13.4534 Y51.2048
G01 X13.5055 Y51.2302
G01 X13.5374 Y51.2453
G01 X13.5900 Y51.2692
G01 X13.6402 Y51.2908
G01 X13.6670 Y51.3020
G01 X13.7249 Y51.3250
G01 X13.7857 Y51.3477
G01 X13.8115 Y51.3568
G01 X13.8658 Y51.3754
G01 X13.9264 Y51.3947
G01 X14.0090 Y51.4187
G01 X14.0679 Y51.4344
G01 X14.0972 Y51.4417
G01 X14.1532 Y51.4548
G01 X14.2150 Y51.4679
G01 X14.2979 Y51.4834
G01 X14.3587 Y51.4934
G01 X14.3906 Y51.4980
G01 X14.4452 Y51.5053
G01 X14.5067 Y51.5122
G01 X14.5384 Y51.5152
G01 X14.5931 Y51.5197
G01 X14.6547 Y51.5236
G01 X14.6867 Y51.5251
G01 X14.7414 Y51.5269
G01 X14.8046 Y51.5278
G01 X69.7508 Y51.5311
G01 X69.8362 Y51.5299
G01 X69.8912 Y51.5278
G01 X69.9200 Y51.5263
G01 X69.9748 Y51.5227
G01 X70.0362 Y51.5176
G01 X70.1199 Y51.5085
G01 X70.1947 Y51.4984
G01 X70.2480 Y51.4899
G01 X70.2797 Y51.4845
G01 X70.3406 Y51.4730
G01 X70.3947 Y51.4617
G01 X70.4235 Y51.4554
G01 X70.4756 Y51.4430
G01 X70.5459 Y51.4248
G01 X70.6088 Y51.4070
G01 X70.6476 Y51.3952
G01 X70.6909 Y51.3815
G01 X70.7188 Y51.3721
G01 X70.7794 Y51.3510
G01 X70.8481 Y51.3252
G01 X70.9171 Y51.2975
G01 X70.9861 Y51.2676
G01 X71.0450 Y51.2405
G01 X71.1135 Y51.2071
G01 X71.1771 Y51.1740
G01 X71.2401 Y51.1394
G01 X71.3034 Y51.1027
G01 X71.3669 Y51.0637
G01 X71.4235 Y51.0270
G01 X71.4781 Y50.9899
G01 X71.5353 Y50.9492
G01 X71.5680 Y50.9250
G01 X71.6193 Y50.8857
G01 X71.6793 Y50.8374
G01 X71.7335 Y50.7914
G01 X71.7885 Y50.7427
G01 X71.8382 Y50.6965
G01 X71.8896 Y50.6463
G01 X71.9399 Y50.5949
G01 X71.9900 Y50.5412
G01 X72.0406 Y50.4842
G01 X72.0787 Y50.4391
G01 X72.0961 Y50.4181
G01 X72.1294 Y50.3765
G01 X72.1686 Y50.3255
G01 X72.1934 Y50.2922
G01 X72.2335 Y50.2360
G01 X72.2663 Y50.1881
G01 X72.3056 Y50.1280
G01 X81.9652 Y34.9087
G01 X82.2845 Y34.3925
G01 X82.3031 Y34.3616
G01 X82.6010 Y33.8534
G01 X82.6188 Y33.8222
G01 X82.9140 Y33.2901
G01 X83.1953 Y32.7539
G01 X83.2117 Y32.7217
G01 X83.4801 Y32.1790
G01 X83.7453 Y31.6099
G01 X83.9881 Y31.0550
G01 X84.0022 Y31.0220
G01 X84.2327 Y30.4588
G01 X84.4491 Y29.8932
G01 X84.4616 Y29.8595
G01 X84.6644 Y29.2889
G01 X84.8608 Y28.6925
G01 X85.0367 Y28.1130
G01 X85.0467 Y28.0786
G01 X85.2095 Y27.4923
G01 X85.3579 Y26.9052
G01 X85.3663 Y26.8702
G01 X85.5007 Y26.2796
G01 X85.6251 Y25.6672
G01 X85.7356 Y25.0490
G01 X85.8281 Y24.4506
G01 X85.8332 Y24.4148
G01 X85.9113 Y23.8144
G01 X85.9759 Y23.2095
G01 X85.9793 Y23.1737
G01 X86.0285 Y22.5785
G01 X86.0651 Y21.9627
G01 X86.0668 Y21.9266
G01 X86.0882 Y21.3185
G01 X86.0955 Y20.7034
G01 X86.0967 Y1.5049
G01 X86.0959 Y1.4344
G01 X86.0936 Y1.3689
G01 X86.0888 Y1.2860
G01 X86.0824 Y1.2110
G01 X86.0745 Y1.1390
G01 X86.0633 Y1.0566
G01 X86.0519 Y0.9862
G01 X86.0424 Y0.9342
G01 X86.0366 Y0.9050
G01 X86.0274 Y0.8606
G01 X86.0208 Y0.8316
G01 X86.0088 Y0.7808
G01 X85.9951 Y0.7275
G01 X85.9879 Y0.7009
G01 X85.9733 Y0.6495
G01 X85.9516 Y0.5789
G01 X85.9260 Y0.5028
G01 X85.9004 Y0.4325
G01 X85.8735 Y0.3640
G01 X85.8447 Y0.2957
G01 X85.8144 Y0.2282
G01 X85.7780 Y0.1528
G01 X85.7457 Y0.0899
G01 X85.7206 Y0.0435
G01 X85.7065 Y0.0182
G01 X85.6802 Y-0.0277
G01 X85.6515 Y-0.0755
G01 X85.6354 Y-0.1015
G01 X85.6110 Y-0.1398
G01 X85.5952 Y-0.1639
G01 X85.5660 Y-0.2073
G01 X85.5201 Y-0.2725
G01 X85.4759 Y-0.3318
G01 X85.4306 Y-0.3897
G01 X85.3817 Y-0.4491
G01 X85.3306 Y-0.5079
G01 X85.2794 Y-0.5642
G01 X85.2270 Y-0.6186
G01 X85.1716 Y-0.6734
G01 X85.1313 Y-0.7117
G01 X85.0925 Y-0.7472
G01 X85.0685 Y-0.7686
G01 X85.0279 Y-0.8035
G01 X84.9804 Y-0.8430
G01 X84.9575 Y-0.8615
G01 X84.9159 Y-0.8941
G01 X84.8663 Y-0.9315
G01 X84.8401 Y-0.9507
G01 X84.7818 Y-0.9916
G01 X84.7260 Y-1.0290
G01 X84.6670 Y-1.0665
G01 X84.6072 Y-1.1028
G01 X84.5582 Y-1.1310
G01 X84.5234 Y-1.1503
G01 X84.4615 Y-1.1833
G01 X84.4110 Y-1.2090
G01 X84.3456 Y-1.2403
G01 X84.2786 Y-1.2704
G01 X84.2216 Y-1.2945
G01 X84.1622 Y-1.3182
G01 X84.1248 Y-1.3324
G01 X84.0665 Y-1.3535
G01 X84.0030 Y-1.3749
G01 X83.9363 Y-1.3956
G01 X83.8767 Y-1.4128
G01 X83.8119 Y-1.4299
G01 X83.7742 Y-1.4392
G01 X83.7128 Y-1.4532
G01 X83.6433 Y-1.4675
G01 X83.5773 Y-1.4795
G01 X83.5089 Y-1.4903
G01 X83.4378 Y-1.4999
G01 X83.3790 Y-1.5065
G01 X83.3452 Y-1.5098
G01 X83.2765 Y-1.5153
G01 X83.2146 Y-1.5188
G01 X83.1324 Y-1.5217
G01 X83.0698 Y-1.5224
G01 X45.3730 Y-1.5246
G01 X45.2973 Y-1.5236
G01 X45.2132 Y-1.5203
G01 X45.1491 Y-1.5162
G01 X45.0748 Y-1.5099
G01 X45.0012 Y-1.5016
G01 X44.9269 Y-1.4916
G01 X44.8536 Y-1.4797
G01 X44.7819 Y-1.4663
G01 X44.7085 Y-1.4508
G01 X44.6355 Y-1.4334
G01 X44.5630 Y-1.4142
G01 X44.4924 Y-1.3937
G01 X44.4216 Y-1.3712
G01 X44.3544 Y-1.3481
G01 X44.2850 Y-1.3223
G01 X44.2159 Y-1.2947
G01 X44.1481 Y-1.2657
G01 X44.0874 Y-1.2381
G01 X44.0134 Y-1.2021
G01 X43.9481 Y-1.1683
G01 X43.8822 Y-1.1321
G01 X43.8259 Y-1.0995
G01 X43.7616 Y-1.0602
G01 X43.6994 Y-1.0200
G01 X43.6379 Y-0.9781
G01 X43.5850 Y-0.9401
G01 X43.5614 Y-0.9228
G01 X43.5251 Y-0.8952
G01 X43.4949 Y-0.8716
G01 X43.4450 Y-0.8313
G01 X43.4039 Y-0.7967
G01 X43.3816 Y-0.7774
G01 X43.3322 Y-0.7334
G01 X43.2791 Y-0.6837
G01 X43.2311 Y-0.6368
G01 X43.1735 Y-0.5774
G01 X43.1299 Y-0.5304
G01 X43.0800 Y-0.4741
G01 X43.0310 Y-0.4157
G01 X42.9850 Y-0.3581
G01 X42.9401 Y-0.2989
G01 X42.8978 Y-0.2404
G01 X42.8569 Y-0.1809
G01 X42.8156 Y-0.1174
G01 X42.7773 Y-0.0554
G01 X42.7392 Y0.0101
G01 X42.7040 Y0.0741
G01 X42.6703 Y0.1388
G01 X42.6370 Y0.2068
G01 X42.6057 Y0.2751
G01 X42.5769 Y0.3421
G01 X42.5523 Y0.4032
G01 X42.5259 Y0.4736
G01 X42.5048 Y0.5342
G01 X42.4924 Y0.5716
G01 X42.4786 Y0.6153
G01 X42.4699 Y0.6443
G01 X42.4526 Y0.7051
G01 X42.4340 Y0.7768
G01 X42.4176 Y0.8469
G01 X42.4062 Y0.8999
G01 X42.3999 Y0.9320
G01 X42.3888 Y0.9936
G01 X42.3767 Y1.0697
G01 X42.3673 Y1.1413
G01 X42.3591 Y1.2174
G01 X42.3532 Y1.2890
G01 X42.3488 Y1.3654
G01 X42.3464 Y1.4374
G01 X42.3458 Y1.4818
G01 X42.3457 Y1.5164
G00 X42.3457 Y1.5164
G01 F600.00
G01 Z-1.1000
G01 F450.00
G01 X42.3449 Y16.4753
G01 X42.2240 Y16.4753
G01 X42.2249 Y1.5024
G01 X42.2240 Y1.4288
G01 X42.2208 Y1.3458
G01 X42.2176 Y1.2922
G01 X42.2154 Y1.2629
G01 X42.2108 Y1.2113
G01 X42.2051 Y1.1570
G01 X42.2016 Y1.1278
G01 X42.1933 Y1.0659
G01 X42.1845 Y1.0097
G01 X42.1788 Y0.9763
G01 X42.1683 Y0.9199
G01 X42.1556 Y0.8583
G01 X42.1490 Y0.8291
G01 X42.1344 Y0.7678
G01 X42.1191 Y0.7091
G01 X42.1040 Y0.6556
G01 X42.0955 Y0.6270
G01 X42.0764 Y0.5659
G01 X42.0542 Y0.5003
G01 X42.0350 Y0.4472
G01 X42.0241 Y0.4183
G01 X42.0017 Y0.3615
G01 X41.9773 Y0.3033
G01 X41.9664 Y0.2783
G01 X41.9426 Y0.2257
G01 X41.9154 Y0.1688
G01 X41.9024 Y0.1428
G01 X41.8739 Y0.0874
G01 X41.8446 Y0.0334
G01 X41.8167 Y-0.0158
G01 X41.7984 Y-0.0470
G01 X41.7684 Y-0.0963
G01 X41.7344 Y-0.1496
G01 X41.7186 Y-0.1735
G01 X41.6883 Y-0.2183
G01 X41.6536 Y-0.2676
G01 X41.6356 Y-0.2923
G01 X41.5973 Y-0.3432
G01 X41.5588 Y-0.3922
G01 X41.5222 Y-0.4368
G01 X41.5046 Y-0.4578
G01 X41.4638 Y-0.5048
G01 X41.4230 Y-0.5500
G01 X41.4011 Y-0.5735
G01 X41.3615 Y-0.6148
G01 X41.3126 Y-0.6636
G01 X41.2676 Y-0.7066
G01 X41.2475 Y-0.7253
G01 X41.2039 Y-0.7647
G01 X41.1563 Y-0.8059
G01 X41.1086 Y-0.8455
G01 X41.0857 Y-0.8640
G01 X41.0380 Y-0.9013
G01 X40.9945 Y-0.9340
G01 X40.9683 Y-0.9531
G01 X40.9185 Y-0.9882
G01 X40.8737 Y-1.0185
G01 X40.8459 Y-1.0369
G01 X40.7952 Y-1.0690
G01 X40.7428 Y-1.1008
G01 X40.6864 Y-1.1335
G01 X40.6597 Y-1.1485
G01 X40.6060 Y-1.1773
G01 X40.5497 Y-1.2062
G01 X40.4706 Y-1.2443
G01 X40.4134 Y-1.2700
G01 X40.3574 Y-1.2938
G01 X40.3317 Y-1.3044
G01 X40.2733 Y-1.3274
G01 X40.2046 Y-1.3525
G01 X40.1346 Y-1.3763
G01 X40.0645 Y-1.3981
G01 X40.0049 Y-1.4153
G01 X39.9401 Y-1.4324
G01 X39.9024 Y-1.4417
G01 X39.8410 Y-1.4557
G01 X39.7637 Y-1.4714
G01 X39.7055 Y-1.4820
G01 X39.6346 Y-1.4931
G01 X39.5625 Y-1.5029
G01 X39.4889 Y-1.5108
G01 X39.4179 Y-1.5169
G01 X39.3453 Y-1.5212
G01 X39.2737 Y-1.5239
G01 X39.2057 Y-1.5248
G01 X1.5013 Y-1.5271
G01 X1.4190 Y-1.5260
G01 X1.3653 Y-1.5240
G01 X1.3361 Y-1.5226
G01 X1.2793 Y-1.5190
G01 X1.2180 Y-1.5138
G01 X1.1354 Y-1.5049
G01 X1.0735 Y-1.4967
G01 X1.0444 Y-1.4924
G01 X0.9905 Y-1.4837
G01 X0.9307 Y-1.4728
G01 X0.8485 Y-1.4559
G01 X0.7667 Y-1.4366
G01 X0.7080 Y-1.4213
G01 X0.6545 Y-1.4062
G01 X0.6258 Y-1.3977
G01 X0.5676 Y-1.3795
G01 X0.4882 Y-1.3526
G01 X0.4375 Y-1.3341
G01 X0.4087 Y-1.3230
G01 X0.3577 Y-1.3028
G01 X0.2948 Y-1.2763
G01 X0.2164 Y-1.2409
G01 X0.1677 Y-1.2176
G01 X0.1417 Y-1.2046
G01 X0.0931 Y-1.1796
G01 X0.0398 Y-1.1510
G01 X-0.0338 Y-1.1090
G01 X-0.0868 Y-1.0772
G01 X-0.1129 Y-1.0609
G01 X-0.1604 Y-1.0303
G01 X-0.2047 Y-1.0005
G01 X-0.2256 Y-0.9862
G01 X-0.2761 Y-0.9505
G01 X-0.3442 Y-0.8995
G01 X-0.3862 Y-0.8667
G01 X-0.4099 Y-0.8475
G01 X-0.4527 Y-0.8121
G01 X-0.4981 Y-0.7729
G01 X-0.5607 Y-0.7164
G01 X-0.6072 Y-0.6722
G01 X-0.6285 Y-0.6512
G01 X-0.6666 Y-0.6128
G01 X-0.7075 Y-0.5700
G01 X-0.7658 Y-0.5061
G01 X-0.8021 Y-0.4642
G01 X-0.8236 Y-0.4387
G01 X-0.8596 Y-0.3947
G01 X-0.8976 Y-0.3464
G01 X-0.9486 Y-0.2783
G01 X-0.9807 Y-0.2330
G01 X-0.9993 Y-0.2060
G01 X-1.0253 Y-0.1675
G01 X-1.0433 Y-0.1398
G01 X-1.0714 Y-0.0952
G01 X-1.1080 Y-0.0349
G01 X-1.1392 Y0.0194
G01 X-1.1539 Y0.0462
G01 X-1.1797 Y0.0943
G01 X-1.2073 Y0.1481
G01 X-1.2454 Y0.2272
G01 X-1.2681 Y0.2776
G01 X-1.2808 Y0.3070
G01 X-1.3024 Y0.3584
G01 X-1.3252 Y0.4160
G01 X-1.3545 Y0.4958
G01 X-1.3814 Y0.5758
G01 X-1.3992 Y0.6333
G01 X-1.4164 Y0.6929
G01 X-1.4244 Y0.7226
G01 X-1.4386 Y0.7781
G01 X-1.4527 Y0.8385
G01 X-1.4584 Y0.8646
G01 X-1.4695 Y0.9185
G01 X-1.4808 Y0.9792
G01 X-1.4862 Y1.0114
G01 X-1.4942 Y1.0632
G01 X-1.5051 Y1.1449
G01 X-1.5117 Y1.2061
G01 X-1.5165 Y1.2605
G01 X-1.5189 Y1.2933
G01 X-1.5223 Y1.3525
G01 X-1.5253 Y1.4373
G01 X-1.5260 Y1.4998
G01 X-1.5271 Y20.6899
G01 X-1.5198 Y21.3134
G01 X-1.4984 Y21.9216
G01 X-1.4967 Y21.9574
G01 X-1.4611 Y22.5619
G01 X-1.4111 Y23.1684
G01 X-1.4077 Y23.2042
G01 X-1.3436 Y23.8064
G01 X-1.2651 Y24.4099
G01 X-1.2600 Y24.4454
G01 X-1.1671 Y25.0468
G01 X-1.0608 Y25.6429
G01 X-1.0540 Y25.6785
G01 X-0.9328 Y26.2746
G01 X-0.7986 Y26.8650
G01 X-0.7902 Y26.9000
G01 X-0.6411 Y27.4900
G01 X-0.4769 Y28.0814
G01 X-0.2981 Y28.6718
G01 X-0.2873 Y28.7060
G01 X-0.0978 Y29.2811
G01 X0.1059 Y29.8545
G01 X0.1183 Y29.8882
G01 X0.3346 Y30.4539
G01 X0.5652 Y31.0172
G01 X0.5792 Y31.0501
G01 X0.8231 Y31.6077
G01 X1.0787 Y32.1567
G01 X1.0943 Y32.1892
G01 X1.3642 Y32.7344
G01 X1.6452 Y33.2706
G01 X1.6624 Y33.3025
G01 X1.9577 Y33.8345
G01 X2.2681 Y34.3642
G01 X2.6016 Y34.9041
G01 X12.2583 Y50.1226
G01 X12.2924 Y50.1752
G01 X12.3400 Y50.2447
G01 X12.3842 Y50.3058
G01 X12.4299 Y50.3658
G01 X12.4638 Y50.4083
G01 X12.4840 Y50.4329
G01 X12.5235 Y50.4795
G01 X12.5592 Y50.5201
G01 X12.5806 Y50.5438
G01 X12.6121 Y50.5776
G01 X12.6344 Y50.6010
G01 X12.6733 Y50.6408
G01 X12.7281 Y50.6942
G01 X12.7842 Y50.7461
G01 X12.8300 Y50.7867
G01 X12.8507 Y50.8045
G01 X12.8865 Y50.8347
G01 X12.9129 Y50.8562
G01 X12.9544 Y50.8891
G01 X13.0024 Y50.9258
G01 X13.0298 Y50.9459
G01 X13.0721 Y50.9763
G01 X13.1348 Y51.0193
G01 X13.1979 Y51.0602
G01 X13.2685 Y51.1034
G01 X13.3233 Y51.1352
G01 X13.3771 Y51.1650
G01 X13.4534 Y51.2048
G01 X13.5055 Y51.2302
G01 X13.5374 Y51.2453
G01 X13.5900 Y51.2692
G01 X13.6402 Y51.2908
G01 X13.6670 Y51.3020
G01 X13.7249 Y51.3250
G01 X13.7857 Y51.3477
G01 X13.8115 Y51.3568
G01 X13.8658 Y51.3754
G01 X13.9264 Y51.3947
G01 X14.0090 Y51.4187
G01 X14.0679 Y51.4344
G01 X14.0972 Y51.4417
G01 X14.1532 Y51.4548
G01 X14.2150 Y51.4679
G01 X14.2979 Y51.4834
G01 X14.3587 Y51.4934
G01 X14.3906 Y51.4980
G01 X14.4452 Y51.5053
G01 X14.5067 Y51.5122
G01 X14.5384 Y51.5152
G01 X14.5931 Y51.5197
G01 X14.6547 Y51.5236
G01 X14.6867 Y51.5251
G01 X14.7414 Y51.5269
G01 X14.8046 Y51.5278
G01 X69.7508 Y51.5311
G01 X69.8362 Y51.5299
G01 X69.8912 Y51.5278
G01 X69.9200 Y51.5263
G01 X69.9748 Y51.5227
G01 X70.0362 Y51.5176
G01 X70.1199 Y51.5085
G01 X70.1947 Y51.4984
G01 X70.2480 Y51.4899
G01 X70.2797 Y51.4845
G01 X70.3406 Y51.4730
G01 X70.3947 Y51.4617
G01 X70.4235 Y51.4554
G01 X70.4756 Y51.4430
G01 X70.5459 Y51.4248
G01 X70.6088 Y51.4070
G01 X70.6476 Y51.3952
G01 X70.6909 Y51.3815
G01 X70.7188 Y51.3721
G01 X70.7794 Y51.3510
G01 X70.8481 Y51.3252
G01 X70.9171 Y51.2975
G01 X70.9861 Y51.2676
G01 X71.0450 Y51.2405
G01 X71.1135 Y51.2071
G01 X71.1771 Y51.1740
G01 X71.2401 Y51.1394
G01 X71.3034 Y51.1027
G01 X71.3669 Y51.0637
G01 X71.4235 Y51.0270
G01 X71.4781 Y50.9899
G01 X71.5353 Y50.9492
G01 X71.5680 Y50.9250
G01 X71.6193 Y50.8857
G01 X71.6793 Y50.8374
G01 X71.7335 Y50.7914
G01 X71.7885 Y50.7427
G01 X71.8382 Y50.6965
G01 X71.8896 Y50.6463
G01 X71.9399 Y50.5949
G01 X71.9900 Y50.5412
G01 X72.0406 Y50.4842
G01 X72.0787 Y50.4391
G01 X72.0961 Y50.4181
G01 X72.1294 Y50.3765
G01 X72.1686 Y50.3255
G01 X72.1934 Y50.2922
G01 X72.2335 Y50.2360
G01 X72.2663 Y50.1881
G01 X72.3056 Y50.1280
G01 X81.9652 Y34.9087
G01 X82.2845 Y34.3925
G01 X82.3031 Y34.3616
G01 X82.6010 Y33.8534
G01 X82.6188 Y33.8222
G01 X82.9140 Y33.2901
G01 X83.1953 Y32.7539
G01 X83.2117 Y32.7217
G01 X83.4801 Y32.1790
G01 X83.7453 Y31.6099
G01 X83.9881 Y31.0550
G01 X84.0022 Y31.0220
G01 X84.2327 Y30.4588
G01 X84.4491 Y29.8932
G01 X84.4616 Y29.8595
G01 X84.6644 Y29.2889
G01 X84.8608 Y28.6925
G01 X85.0367 Y28.1130
G01 X85.0467 Y28.0786
G01 X85.2095 Y27.4923
G01 X85.3579 Y26.9052
G01 X85.3663 Y26.8702
G01 X85.5007 Y26.2796
G01 X85.6251 Y25.6672
G01 X85.7356 Y25.0490
G01 X85.8281 Y24.4506
G01 X85.8332 Y24.4148
G01 X85.9113 Y23.8144
G01 X85.9759 Y23.2095
G01 X85.9793 Y23.1737
G01 X86.0285 Y22.5785
G01 X86.0651 Y21.9627
G01 X86.0668 Y21.9266
G01 X86.0882 Y21.3185
G01 X86.0955 Y20.7034
G01 X86.0967 Y1.5049
G01 X86.0959 Y1.4344
G01 X86.0936 Y1.3689
G01 X86.0888 Y1.2860
G01 X86.0824 Y1.2110
G01 X86.0745 Y1.1390
G01 X86.0633 Y1.0566
G01 X86.0519 Y0.9862
G01 X86.0424 Y0.9342
G01 X86.0366 Y0.9050
G01 X86.0274 Y0.8606
G01 X86.0208 Y0.8316
G01 X86.0088 Y0.7808
G01 X85.9951 Y0.7275
G01 X85.9879 Y0.7009
G01 X85.9733 Y0.6495
G01 X85.9516 Y0.5789
G01 X85.9260 Y0.5028
G01 X85.9004 Y0.4325
G01 X85.8735 Y0.3640
G01 X85.8447 Y0.2957
G01 X85.8144 Y0.2282
G01 X85.7780 Y0.1528
G01 X85.7457 Y0.0899
G01 X85.7206 Y0.0435
G01 X85.7065 Y0.0182
G01 X85.6802 Y-0.0277
G01 X85.6515 Y-0.0755
G01 X85.6354 Y-0.1015
G01 X85.6110 Y-0.1398
G01 X85.5952 Y-0.1639
G01 X85.5660 Y-0.2073
G01 X85.5201 Y-0.2725
G01 X85.4759 Y-0.3318
G01 X85.4306 Y-0.3897
G01 X85.3817 Y-0.4491
G01 X85.3306 Y-0.5079
G01 X85.2794 Y-0.5642
G01 X85.2270 Y-0.6186
G01 X85.1716 Y-0.6734
G01 X85.1313 Y-0.7117
G01 X85.0925 Y-0.7472
G01 X85.0685 Y-0.7686
G01 X85.0279 Y-0.8035
G01 X84.9804 Y-0.8430
G01 X84.9575 Y-0.8615
G01 X84.9159 Y-0.8941
G01 X84.8663 Y-0.9315
G01 X84.8401 Y-0.9507
G01 X84.7818 Y-0.9916
G01 X84.7260 Y-1.0290
G01 X84.6670 Y-1.0665
G01 X84.6072 Y-1.1028
G01 X84.5582 Y-1.1310
G01 X84.5234 Y-1.1503
G01 X84.4615 Y-1.1833
G01 X84.4110 Y-1.2090
G01 X84.3456 Y-1.2403
G01 X84.2786 Y-1.2704
G01 X84.2216 Y-1.2945
G01 X84.1622 Y-1.3182
G01 X84.1248 Y-1.3324
G01 X84.0665 Y-1.3535
G01 X84.0030 Y-1.3749
G01 X83.9363 Y-1.3956
G01 X83.8767 Y-1.4128
G01 X83.8119 Y-1.4299
G01 X83.7742 Y-1.4392
G01 X83.7128 Y-1.4532
G01 X83.6433 Y-1.4675
G01 X83.5773 Y-1.4795
G01 X83.5089 Y-1.4903
G01 X83.4378 Y-1.4999
G01 X83.3790 Y-1.5065
G01 X83.3452 Y-1.5098
G01 X83.2765 Y-1.5153
G01 X83.2146 Y-1.5188
G01 X83.1324 Y-1.5217
G01 X83.0698 Y-1.5224
G01 X45.3730 Y-1.5246
G01 X45.2973 Y-1.5236
G01 X45.2132 Y-1.5203
G01 X45.1491 Y-1.5162
G01 X45.0748 Y-1.5099
G01 X45.0012 Y-1.5016
G01 X44.9269 Y-1.4916
G01 X44.8536 Y-1.4797
G01 X44.7819 Y-1.4663
G01 X44.7085 Y-1.4508
G01 X44.6355 Y-1.4334
G01 X44.5630 Y-1.4142
G01 X44.4924 Y-1.3937
G01 X44.4216 Y-1.3712
G01 X44.3544 Y-1.3481
G01 X44.2850 Y-1.3223
G01 X44.2159 Y-1.2947
G01 X44.1481 Y-1.2657
G01 X44.0874 Y-1.2381
G01 X44.0134 Y-1.2021
G01 X43.9481 Y-1.1683
G01 X43.8822 Y-1.1321
G01 X43.8259 Y-1.0995
G01 X43.7616 Y-1.0602
G01 X43.6994 Y-1.0200
G01 X43.6379 Y-0.9781
G01 X43.5850 Y-0.9401
G01 X43.5614 Y-0.9228
G01 X43.5251 Y-0.8952
G01 X43.4949 Y-0.8716
G01 X43.4450 Y-0.8313
G01 X43.4039 Y-0.7967
G01 X43.3816 Y-0.7774
G01 X43.3322 Y-0.7334
G01 X43.2791 Y-0.6837
G01 X43.2311 Y-0.6368
G01 X43.1735 Y-0.5774
G01 X43.1299 Y-0.5304
G01 X43.0800 Y-0.4741
G01 X43.0310 Y-0.4157
G01 X42.9850 Y-0.3581
G01 X42.9401 Y-0.2989
G01 X42.8978 Y-0.2404
G01 X42.8569 Y-0.1809
G01 X42.8156 Y-0.1174
G01 X42.7773 Y-0.0554
G01 X42.7392 Y0.0101
G01 X42.7040 Y0.0741
G01 X42.6703 Y0.1388
G01 X42.6370 Y0.2068
G01 X42.6057 Y0.2751
G01 X42.5769 Y0.3421
G01 X42.5523 Y0.4032
G01 X42.5259 Y0.4736
G01 X42.5048 Y0.5342
G01 X42.4924 Y0.5716
G01 X42.4786 Y0.6153
G01 X42.4699 Y0.6443
G01 X42.4526 Y0.7051
G01 X42.4340 Y0.7768
G01 X42.4176 Y0.8469
G01 X42.4062 Y0.8999
G01 X42.3999 Y0.9320
G01 X42.3888 Y0.9936
G01 X42.3767 Y1.0697
G01 X42.3673 Y1.1413
G01 X42.3591 Y1.2174
G01 X42.3532 Y1.2890
G01 X42.3488 Y1.3654
G01 X42.3464 Y1.4374
G01 X42.3458 Y1.4818
G01 X42.3457 Y1.5164
G00 X42.3457 Y1.5164
G01 F600.00
G01 Z-1.6500
G01 F450.00
G01 X42.3449 Y16.4753
G01 X42.2240 Y16.4753
G01 X42.2249 Y1.5024
G01 X42.2240 Y1.4288
G01 X42.2208 Y1.3458
G01 X42.2176 Y1.2922
G01 X42.2154 Y1.2629
G01 X42.2108 Y1.2113
G01 X42.2051 Y1.1570
G01 X42.2016 Y1.1278
G01 X42.1933 Y1.0659
G01 X42.1845 Y1.0097
G01 X42.1788 Y0.9763
G01 X42.1683 Y0.9199
G01 X42.1556 Y0.8583
G01 X42.1490 Y0.8291
G01 X42.1344 Y0.7678
G01 X42.1191 Y0.7091
G01 X42.1040 Y0.6556
G01 X42.0955 Y0.6270
G01 X42.0764 Y0.5659
G01 X42.0542 Y0.5003
G01 X42.0350 Y0.4472
G01 X42.0241 Y0.4183
G01 X42.0017 Y0.3615
G01 X41.9773 Y0.3033
G01 X41.9664 Y0.2783
G01 X41.9426 Y0.2257
G01 X41.9154 Y0.1688
G01 X41.9024 Y0.1428
G01 X41.8739 Y0.0874
G01 X41.8446 Y0.0334
G01 X41.8167 Y-0.0158
G01 X41.7984 Y-0.0470
G01 X41.7684 Y-0.0963
G01 X41.7344 Y-0.1496
G01 X41.7186 Y-0.1735
G01 X41.6883 Y-0.2183
G01 X41.6536 Y-0.2676
G01 X41.6356 Y-0.2923
G01 X41.5973 Y-0.3432
G01 X41.5588 Y-0.3922
G01 X41.5222 Y-0.4368
G01 X41.5046 Y-0.4578
G01 X41.4638 Y-0.5048
G01 X41.4230 Y-0.5500
G01 X41.4011 Y-0.5735
G01 X41.3615 Y-0.6148
G01 X41.3126 Y-0.6636
G01 X41.2676 Y-0.7066
G01 X41.2475 Y-0.7253
G01 X41.2039 Y-0.7647
G01 X41.1563 Y-0.8059
G01 X41.1086 Y-0.8455
G01 X41.0857 Y-0.8640
G01 X41.0380 Y-0.9013
G01 X40.9945 Y-0.9340
G01 X40.9683 Y-0.9531
G01 X40.9185 Y-0.9882
G01 X40.8737 Y-1.0185
G01 X40.8459 Y-1.0369
G01 X40.7952 Y-1.0690
G01 X40.7428 Y-1.1008
G01 X40.6864 Y-1.1335
G01 X40.6597 Y-1.1485
G01 X40.6060 Y-1.1773
G01 X40.5497 Y-1.2062
G01 X40.4706 Y-1.2443
G01 X40.4134 Y-1.2700
G01 X40.3574 Y-1.2938
G01 X40.3317 Y-1.3044
G01 X40.2733 Y-1.3274
G01 X40.2046 Y-1.3525
G01 X40.1346 Y-1.3763
G01 X40.0645 Y-1.3981
G01 X40.0049 Y-1.4153
G01 X39.9401 Y-1.4324
G01 X39.9024 Y-1.4417
G01 X39.8410 Y-1.4557
G01 X39.7637 Y-1.4714
G01 X39.7055 Y-1.4820
G01 X39.6346 Y-1.4931
G01 X39.5625 Y-1.5029
G01 X39.4889 Y-1.5108
G01 X39.4179 Y-1.5169
G01 X39.3453 Y-1.5212
G01 X39.2737 Y-1.5239
G01 X39.2057 Y-1.5248
G01 X1.5013 Y-1.5271
G01 X1.4190 Y-1.5260
G01 X1.3653 Y-1.5240
G01 X1.3361 Y-1.5226
G01 X1.2793 Y-1.5190
G01 X1.2180 Y-1.5138
G01 X1.1354 Y-1.5049
G01 X1.0735 Y-1.4967
G01 X1.0444 Y-1.4924
G01 X0.9905 Y-1.4837
G01 X0.9307 Y-1.4728
G01 X0.8485 Y-1.4559
G01 X0.7667 Y-1.4366
G01 X0.7080 Y-1.4213
G01 X0.6545 Y-1.4062
G01 X0.6258 Y-1.3977
G01 X0.5676 Y-1.3795
G01 X0.4882 Y-1.3526
G01 X0.4375 Y-1.3341
G01 X0.4087 Y-1.3230
G01 X0.3577 Y-1.3028
G01 X0.2948 Y-1.2763
G01 X0.2164 Y-1.2409
G01 X0.1677 Y-1.2176
G01 X0.1417 Y-1.2046
G01 X0.0931 Y-1.1796
G01 X0.0398 Y-1.1510
G01 X-0.0338 Y-1.1090
G01 X-0.0868 Y-1.0772
G01 X-0.1129 Y-1.0609
G01 X-0.1604 Y-1.0303
G01 X-0.2047 Y-1.0005
G01 X-0.2256 Y-0.9862
G01 X-0.2761 Y-0.9505
G01 X-0.3442 Y-0.8995
G01 X-0.3862 Y-0.8667
G01 X-0.4099 Y-0.8475
G01 X-0.4527 Y-0.8121
G01 X-0.4981 Y-0.7729
G01 X-0.5607 Y-0.7164
G01 X-0.6072 Y-0.6722
G01 X-0.6285 Y-0.6512
G01 X-0.6666 Y-0.6128
G01 X-0.7075 Y-0.5700
G01 X-0.7658 Y-0.5061
G01 X-0.8021 Y-0.4642
G01 X-0.8236 Y-0.4387
G01 X-0.8596 Y-0.3947
G01 X-0.8976 Y-0.3464
G01 X-0.9486 Y-0.2783
G01 X-0.9807 Y-0.2330
G01 X-0.9993 Y-0.2060
G01 X-1.0253 Y-0.1675
G01 X-1.0433 Y-0.1398
G01 X-1.0714 Y-0.0952
G01 X-1.1080 Y-0.0349
G01 X-1.1392 Y0.0194
G01 X-1.1539 Y0.0462
G01 X-1.1797 Y0.0943
G01 X-1.2073 Y0.1481
G01 X-1.2454 Y0.2272
G01 X-1.2681 Y0.2776
G01 X-1.2808 Y0.3070
G01 X-1.3024 Y0.3584
G01 X-1.3252 Y0.4160
G01 X-1.3545 Y0.4958
G01 X-1.3814 Y0.5758
G01 X-1.3992 Y0.6333
G01 X-1.4164 Y0.6929
G01 X-1.4244 Y0.7226
G01 X-1.4386 Y0.7781
G01 X-1.4527 Y0.8385
G01 X-1.4584 Y0.8646
G01 X-1.4695 Y0.9185
G01 X-1.4808 Y0.9792
G01 X-1.4862 Y1.0114
G01 X-1.4942 Y1.0632
G01 X-1.5051 Y1.1449
G01 X-1.5117 Y1.2061
G01 X-1.5165 Y1.2605
G01 X-1.5189 Y1.2933
G01 X-1.5223 Y1.3525
G01 X-1.5253 Y1.4373
G01 X-1.5260 Y1.4998
G01 X-1.5271 Y20.6899
G01 X-1.5198 Y21.3134
G01 X-1.4984 Y21.9216
G01 X-1.4967 Y21.9574
G01 X-1.4611 Y22.5619
G01 X-1.4111 Y23.1684
G01 X-1.4077 Y23.2042
G01 X-1.3436 Y23.8064
G01 X-1.2651 Y24.4099
G01 X-1.2600 Y24.4454
G01 X-1.1671 Y25.0468
G01 X-1.0608 Y25.6429
G01 X-1.0540 Y25.6785
G01 X-0.9328 Y26.2746
G01 X-0.7986 Y26.8650
G01 X-0.7902 Y26.9000
G01 X-0.6411 Y27.4900
G01 X-0.4769 Y28.0814
G01 X-0.2981 Y28.6718
G01 X-0.2873 Y28.7060
G01 X-0.0978 Y29.2811
G01 X0.1059 Y29.8545
G01 X0.1183 Y29.8882
G01 X0.3346 Y30.4539
G01 X0.5652 Y31.0172
G01 X0.5792 Y31.0501
G01 X0.8231 Y31.6077
G01 X1.0787 Y32.1567
G01 X1.0943 Y32.1892
G01 X1.3642 Y32.7344
G01 X1.6452 Y33.2706
G01 X1.6624 Y33.3025
G01 X1.9577 Y33.8345
G01 X2.2681 Y34.3642
G01 X2.6016 Y34.9041
G01 X12.2583 Y50.1226
G01 X12.2924 Y50.1752
G01 X12.3400 Y50.2447
G01 X12.3842 Y50.3058
G01 X12.4299 Y50.3658
G01 X12.4638 Y50.4083
G01 X12.4840 Y50.4329
G01 X12.5235 Y50.4795
G01 X12.5592 Y50.5201
G01 X12.5806 Y50.5438
G01 X12.6121 Y50.5776
G01 X12.6344 Y50.6010
G01 X12.6733 Y50.6408
G01 X12.7281 Y50.6942
G01 X12.7842 Y50.7461
G01 X12.8300 Y50.7867
G01 X12.8507 Y50.8045
G01 X12.8865 Y50.8347
G01 X12.9129 Y50.8562
G01 X12.9544 Y50.8891
G01 X13.0024 Y50.9258
G01 X13.0298 Y50.9459
G01 X13.0721 Y50.9763
G01 X13.1348 Y51.0193
G01 X13.1979 Y51.0602
G01 X13.2685 Y51.1034
G01 X13.3233 Y51.1352
G01 X13.3771 Y51.1650
G01 X13.4534 Y51.2048
G01 X13.5055 Y51.2302
G01 X13.5374 Y51.2453
G01 X13.5900 Y51.2692
G01 X13.6402 Y51.2908
G01 X13.6670 Y51.3020
G01 X13.7249 Y51.3250
G01 X13.7857 Y51.3477
G01 X13.8115 Y51.3568
G01 X13.8658 Y51.3754
G01 X13.9264 Y51.3947
G01 X14.0090 Y51.4187
G01 X14.0679 Y51.4344
G01 X14.0972 Y51.4417
G01 X14.1532 Y51.4548
G01 X14.2150 Y51.4679
G01 X14.2979 Y51.4834
G01 X14.3587 Y51.4934
G01 X14.3906 Y51.4980
G01 X14.4452 Y51.5053
G01 X14.5067 Y51.5122
G01 X14.5384 Y51.5152
G01 X14.5931 Y51.5197
G01 X14.6547 Y51.5236
G01 X14.6867 Y51.5251
G01 X14.7414 Y51.5269
G01 X14.8046 Y51.5278
G01 X69.7508 Y51.5311
G01 X69.8362 Y51.5299
G01 X69.8912 Y51.5278
G01 X69.9200 Y51.5263
G01 X69.9748 Y51.5227
G01 X70.0362 Y51.5176
G01 X70.1199 Y51.5085
G01 X70.1947 Y51.4984
G01 X70.2480 Y51.4899
G01 X70.2797 Y51.4845
G01 X70.3406 Y51.4730
G01 X70.3947 Y51.4617
G01 X70.4235 Y51.4554
G01 X70.4756 Y51.4430
G01 X70.5459 Y51.4248
G01 X70.6088 Y51.4070
G01 X70.6476 Y51.3952
G01 X70.6909 Y51.3815
G01 X70.7188 Y51.3721
G01 X70.7794 Y51.3510
G01 X70.8481 Y51.3252
G01 X70.9171 Y51.2975
G01 X70.9861 Y51.2676
G01 X71.0450 Y51.2405
G01 X71.1135 Y51.2071
G01 X71.1771 Y51.1740
G01 X71.2401 Y51.1394
G01 X71.3034 Y51.1027
G01 X71.3669 Y51.0637
G01 X71.4235 Y51.0270
G01 X71.4781 Y50.9899
G01 X71.5353 Y50.9492
G01 X71.5680 Y50.9250
G01 X71.6193 Y50.8857
G01 X71.6793 Y50.8374
G01 X71.7335 Y50.7914
G01 X71.7885 Y50.7427
G01 X71.8382 Y50.6965
G01 X71.8896 Y50.6463
G01 X71.9399 Y50.5949
G01 X71.9900 Y50.5412
G01 X72.0406 Y50.4842
G01 X72.0787 Y50.4391
G01 X72.0961 Y50.4181
G01 X72.1294 Y50.3765
G01 X72.1686 Y50.3255
G01 X72.1934 Y50.2922
G01 X72.2335 Y50.2360
G01 X72.2663 Y50.1881
G01 X72.3056 Y50.1280
G01 X81.9652 Y34.9087
G01 X82.2845 Y34.3925
G01 X82.3031 Y34.3616
G01 X82.6010 Y33.8534
G01 X82.6188 Y33.8222
G01 X82.9140 Y33.2901
G01 X83.1953 Y32.7539
G01 X83.2117 Y32.7217
G01 X83.4801 Y32.1790
G01 X83.7453 Y31.6099
G01 X83.9881 Y31.0550
G01 X84.0022 Y31.0220
G01 X84.2327 Y30.4588
G01 X84.4491 Y29.8932
G01 X84.4616 Y29.8595
G01 X84.6644 Y29.2889
G01 X84.8608 Y28.6925
G01 X85.0367 Y28.1130
G01 X85.0467 Y28.0786
G01 X85.2095 Y27.4923
G01 X85.3579 Y26.9052
G01 X85.3663 Y26.8702
G01 X85.5007 Y26.2796
G01 X85.6251 Y25.6672
G01 X85.7356 Y25.0490
G01 X85.8281 Y24.4506
G01 X85.8332 Y24.4148
G01 X85.9113 Y23.8144
G01 X85.9759 Y23.2095
G01 X85.9793 Y23.1737
G01 X86.0285 Y22.5785
G01 X86.0651 Y21.9627
G01 X86.0668 Y21.9266
G01 X86.0882 Y21.3185
G01 X86.0955 Y20.7034
G01 X86.0967 Y1.5049
G01 X86.0959 Y1.4344
G01 X86.0936 Y1.3689
G01 X86.0888 Y1.2860
G01 X86.0824 Y1.2110
G01 X86.0745 Y1.1390
G01 X86.0633 Y1.0566
G01 X86.0519 Y0.9862
G01 X86.0424 Y0.9342
G01 X86.0366 Y0.9050
G01 X86.0274 Y0.8606
G01 X86.0208 Y0.8316
G01 X86.0088 Y0.7808
G01 X85.9951 Y0.7275
G01 X85.9879 Y0.7009
G01 X85.9733 Y0.6495
G01 X85.9516 Y0.5789
G01 X85.9260 Y0.5028
G01 X85.9004 Y0.4325
G01 X85.8735 Y0.3640
G01 X85.8447 Y0.2957
G01 X85.8144 Y0.2282
G01 X85.7780 Y0.1528
G01 X85.7457 Y0.0899
G01 X85.7206 Y0.0435
G01 X85.7065 Y0.0182
G01 X85.6802 Y-0.0277
G01 X85.6515 Y-0.0755
G01 X85.6354 Y-0.1015
G01 X85.6110 Y-0.1398
G01 X85.5952 Y-0.1639
G01 X85.5660 Y-0.2073
G01 X85.5201 Y-0.2725
G01 X85.4759 Y-0.3318
G01 X85.4306 Y-0.3897
G01 X85.3817 Y-0.4491
G01 X85.3306 Y-0.5079
G01 X85.2794 Y-0.5642
G01 X85.2270 Y-0.6186
G01 X85.1716 Y-0.6734
G01 X85.1313 Y-0.7117
G01 X85.0925 Y-0.7472
G01 X85.0685 Y-0.7686
G01 X85.0279 Y-0.8035
G01 X84.9804 Y-0.8430
G01 X84.9575 Y-0.8615
G01 X84.9159 Y-0.8941
G01 X84.8663 Y-0.9315
G01 X84.8401 Y-0.9507
G01 X84.7818 Y-0.9916
G01 X84.7260 Y-1.0290
G01 X84.6670 Y-1.0665
G01 X84.6072 Y-1.1028
G01 X84.5582 Y-1.1310
G01 X84.5234 Y-1.1503
G01 X84.4615 Y-1.1833
G01 X84.4110 Y-1.2090
G01 X84.3456 Y-1.2403
G01 X84.2786 Y-1.2704
G01 X84.2216 Y-1.2945
G01 X84.1622 Y-1.3182
G01 X84.1248 Y-1.3324
G01 X84.0665 Y-1.3535
G01 X84.0030 Y-1.3749
G01 X83.9363 Y-1.3956
G01 X83.8767 Y-1.4128
G01 X83.8119 Y-1.4299
G01 X83.7742 Y-1.4392
G01 X83.7128 Y-1.4532
G01 X83.6433 Y-1.4675
G01 X83.5773 Y-1.4795
G01 X83.5089 Y-1.4903
G01 X83.4378 Y-1.4999
G01 X83.3790 Y-1.5065
G01 X83.3452 Y-1.5098
G01 X83.2765 Y-1.5153
G01 X83.2146 Y-1.5188
G01 X83.1324 Y-1.5217
G01 X83.0698 Y-1.5224
G01 X45.3730 Y-1.5246
G01 X45.2973 Y-1.5236
G01 X45.2132 Y-1.5203
G01 X45.1491 Y-1.5162
G01 X45.0748 Y-1.5099
G01 X45.0012 Y-1.5016
G01 X44.9269 Y-1.4916
G01 X44.8536 Y-1.4797
G01 X44.7819 Y-1.4663
G01 X44.7085 Y-1.4508
G01 X44.6355 Y-1.4334
G01 X44.5630 Y-1.4142
G01 X44.4924 Y-1.3937
G01 X44.4216 Y-1.3712
G01 X44.3544 Y-1.3481
G01 X44.2850 Y-1.3223
G01 X44.2159 Y-1.2947
G01 X44.1481 Y-1.2657
G01 X44.0874 Y-1.2381
G01 X44.0134 Y-1.2021
G01 X43.9481 Y-1.1683
G01 X43.8822 Y-1.1321
G01 X43.8259 Y-1.0995
G01 X43.7616 Y-1.0602
G01 X43.6994 Y-1.0200
G01 X43.6379 Y-0.9781
G01 X43.5850 Y-0.9401
G01 X43.5614 Y-0.9228
G01 X43.5251 Y-0.8952
G01 X43.4949 Y-0.8716
G01 X43.4450 Y-0.8313
G01 X43.4039 Y-0.7967
G01 X43.3816 Y-0.7774
G01 X43.3322 Y-0.7334
G01 X43.2791 Y-0.6837
G01 X43.2311 Y-0.6368
G01 X43.1735 Y-0.5774
G01 X43.1299 Y-0.5304
G01 X43.0800 Y-0.4741
G01 X43.0310 Y-0.4157
G01 X42.9850 Y-0.3581
G01 X42.9401 Y-0.2989
G01 X42.8978 Y-0.2404
G01 X42.8569 Y-0.1809
G01 X42.8156 Y-0.1174
G01 X42.7773 Y-0.0554
G01 X42.7392 Y0.0101
G01 X42.7040 Y0.0741
G01 X42.6703 Y0.1388
G01 X42.6370 Y0.2068
G01 X42.6057 Y0.2751
G01 X42.5769 Y0.3421
G01 X42.5523 Y0.4032
G01 X42.5259 Y0.4736
G01 X42.5048 Y0.5342
G01 X42.4924 Y0.5716
G01 X42.4786 Y0.6153
G01 X42.4699 Y0.6443
G01 X42.4526 Y0.7051
G01 X42.4340 Y0.7768
G01 X42.4176 Y0.8469
G01 X42.4062 Y0.8999
G01 X42.3999 Y0.9320
G01 X42.3888 Y0.9936
G01 X42.3767 Y1.0697
G01 X42.3673 Y1.1413
G01 X42.3591 Y1.2174
G01 X42.3532 Y1.2890
G01 X42.3488 Y1.3654
G01 X42.3464 Y1.4374
G01 X42.3458 Y1.4818
G01 X42.3457 Y1.5164
G00 Z5.0000
M05
G00 Z5.0000
G00 Z90.00
G00 X0.0 Y0.0

M02