(G-CODE GENERATED BY FLATCAM v8.97 - www.flatcam.org - Version Date: 2019/09/27)

(Name: Encaixes)
(Type: G-code from Geometry)
(Units: MM)

(Created on Monday, 03 May 2021 at 17:06)

(TOOL DIAMETER: 3.17 mm)
(Feedrate: 450.0 mm/min)
(Feedrate_Z: 650.0 mm/min)
(Feedrate rapids 79.9998 mm/min)

(Z_Cut: -1.65 mm)
(DepthPerCut: 0.55 mm <=>3 passes)
(Z_Move: 15.0 mm)
(Z Toolchange: 12.7 mm)
(X,Y Toolchange: 0.0000, 0.0000 mm)
(Z Start: None mm)
(Z End: 90.0 mm)
(Steps per circle: 128)
(Postprocessor Geometry: default)

(X range:       inf ...      -inf  mm)
(Y range:       inf ...      -inf  mm)

(Spindle Speed: 12000 RPM)

G21
G90
G94

G01 F450.00
G00 Z15.0000

M03 S12000
G00 X9.7508 Y12.1813
G01 F650.00
G01 Z-0.5500
G01 F450.00
G01 X9.8950 Y12.0651
G01 X10.1514 Y11.8684
G01 X10.4124 Y11.6779
G01 X10.6777 Y11.4937
G01 X10.9474 Y11.3159
G01 X11.2211 Y11.1445
G01 X11.4990 Y10.9798
G01 X11.7808 Y10.8215
G01 X12.0659 Y10.6702
G01 X12.3548 Y10.5257
G01 X12.6471 Y10.3880
G01 X12.9426 Y10.2574
G01 X13.2411 Y10.1338
G01 X13.5424 Y10.0173
G01 X13.8463 Y9.9081
G01 X14.1528 Y9.8062
G01 X14.4618 Y9.7115
G01 X14.7727 Y9.6242
G01 X15.0857 Y9.5444
G01 X15.4006 Y9.4720
G01 X15.7169 Y9.4071
G01 X16.0349 Y9.3498
G01 X16.3540 Y9.3001
G01 X16.6744 Y9.2580
G01 X16.8586 Y9.2382
G01 X16.8586 Y9.2841
G01 X16.6705 Y9.3046
G01 X16.3515 Y9.3468
G01 X16.0411 Y9.3952
G01 X15.7348 Y9.4504
G01 X15.4271 Y9.5132
G01 X15.3937 Y9.5204
G01 X15.0950 Y9.5892
G01 X14.7935 Y9.6661
G01 X14.4910 Y9.7507
G01 X14.4582 Y9.7603
G01 X14.1654 Y9.8502
G01 X13.8775 Y9.9459
G01 X13.8452 Y9.9570
G01 X13.5597 Y10.0597
G01 X13.2739 Y10.1701
G01 X13.2423 Y10.1827
G01 X12.9618 Y10.2990
G01 X12.6815 Y10.4229
G01 X12.6510 Y10.4368
G01 X12.3738 Y10.5675
G01 X12.1024 Y10.7031
G01 X12.0719 Y10.7188
G01 X11.8012 Y10.8626
G01 X11.5298 Y11.0149
G01 X11.2464 Y11.1829
G01 X10.9865 Y11.3453
G01 X10.9580 Y11.3637
G01 X10.6956 Y11.5370
G01 X10.4377 Y11.7162
G01 X10.1864 Y11.8995
G01 X9.9309 Y12.0952
G01 X9.7833 Y12.2138
G01 X9.7508 Y12.1813
G00 X9.7508 Y12.1813
G01 F650.00
G01 Z-1.1000
G01 F450.00
G01 X9.8950 Y12.0651
G01 X10.1514 Y11.8684
G01 X10.4124 Y11.6779
G01 X10.6777 Y11.4937
G01 X10.9474 Y11.3159
G01 X11.2211 Y11.1445
G01 X11.4990 Y10.9798
G01 X11.7808 Y10.8215
G01 X12.0659 Y10.6702
G01 X12.3548 Y10.5257
G01 X12.6471 Y10.3880
G01 X12.9426 Y10.2574
G01 X13.2411 Y10.1338
G01 X13.5424 Y10.0173
G01 X13.8463 Y9.9081
G01 X14.1528 Y9.8062
G01 X14.4618 Y9.7115
G01 X14.7727 Y9.6242
G01 X15.0857 Y9.5444
G01 X15.4006 Y9.4720
G01 X15.7169 Y9.4071
G01 X16.0349 Y9.3498
G01 X16.3540 Y9.3001
G01 X16.6744 Y9.2580
G01 X16.8586 Y9.2382
G01 X16.8586 Y9.2841
G01 X16.6705 Y9.3046
G01 X16.3515 Y9.3468
G01 X16.0411 Y9.3952
G01 X15.7348 Y9.4504
G01 X15.4271 Y9.5132
G01 X15.3937 Y9.5204
G01 X15.0950 Y9.5892
G01 X14.7935 Y9.6661
G01 X14.4910 Y9.7507
G01 X14.4582 Y9.7603
G01 X14.1654 Y9.8502
G01 X13.8775 Y9.9459
G01 X13.8452 Y9.9570
G01 X13.5597 Y10.0597
G01 X13.2739 Y10.1701
G01 X13.2423 Y10.1827
G01 X12.9618 Y10.2990
G01 X12.6815 Y10.4229
G01 X12.6510 Y10.4368
G01 X12.3738 Y10.5675
G01 X12.1024 Y10.7031
G01 X12.0719 Y10.7188
G01 X11.8012 Y10.8626
G01 X11.5298 Y11.0149
G01 X11.2464 Y11.1829
G01 X10.9865 Y11.3453
G01 X10.9580 Y11.3637
G01 X10.6956 Y11.5370
G01 X10.4377 Y11.7162
G01 X10.1864 Y11.8995
G01 X9.9309 Y12.0952
G01 X9.7833 Y12.2138
G01 X9.7508 Y12.1813
G00 X9.7508 Y12.1813
G01 F650.00
G01 Z-1.6500
G01 F450.00
G01 X9.8950 Y12.0651
G01 X10.1514 Y11.8684
G01 X10.4124 Y11.6779
G01 X10.6777 Y11.4937
G01 X10.9474 Y11.3159
G01 X11.2211 Y11.1445
G01 X11.4990 Y10.9798
G01 X11.7808 Y10.8215
G01 X12.0659 Y10.6702
G01 X12.3548 Y10.5257
G01 X12.6471 Y10.3880
G01 X12.9426 Y10.2574
G01 X13.2411 Y10.1338
G01 X13.5424 Y10.0173
G01 X13.8463 Y9.9081
G01 X14.1528 Y9.8062
G01 X14.4618 Y9.7115
G01 X14.7727 Y9.6242
G01 X15.0857 Y9.5444
G01 X15.4006 Y9.4720
G01 X15.7169 Y9.4071
G01 X16.0349 Y9.3498
G01 X16.3540 Y9.3001
G01 X16.6744 Y9.2580
G01 X16.8586 Y9.2382
G01 X16.8586 Y9.2841
G01 X16.6705 Y9.3046
G01 X16.3515 Y9.3468
G01 X16.0411 Y9.3952
G01 X15.7348 Y9.4504
G01 X15.4271 Y9.5132
G01 X15.3937 Y9.5204
G01 X15.0950 Y9.5892
G01 X14.7935 Y9.6661
G01 X14.4910 Y9.7507
G01 X14.4582 Y9.7603
G01 X14.1654 Y9.8502
G01 X13.8775 Y9.9459
G01 X13.8452 Y9.9570
G01 X13.5597 Y10.0597
G01 X13.2739 Y10.1701
G01 X13.2423 Y10.1827
G01 X12.9618 Y10.2990
G01 X12.6815 Y10.4229
G01 X12.6510 Y10.4368
G01 X12.3738 Y10.5675
G01 X12.1024 Y10.7031
G01 X12.0719 Y10.7188
G01 X11.8012 Y10.8626
G01 X11.5298 Y11.0149
G01 X11.2464 Y11.1829
G01 X10.9865 Y11.3453
G01 X10.9580 Y11.3637
G01 X10.6956 Y11.5370
G01 X10.4377 Y11.7162
G01 X10.1864 Y11.8995
G01 X9.9309 Y12.0952
G01 X9.7833 Y12.2138
G01 X9.7508 Y12.1813
G00 Z15.0000
G00 X4.8331 Y24.1605
G01 F650.00
G01 Z-0.5500
G01 F450.00
G01 X4.8588 Y24.3911
G01 X4.9008 Y24.7013
G01 X4.9059 Y24.7353
G01 X4.9576 Y25.0553
G01 X5.0163 Y25.3709
G01 X5.0817 Y25.6803
G01 X5.0893 Y25.7143
G01 X5.1643 Y26.0292
G01 X5.2462 Y26.3398
G01 X5.3341 Y26.6435
G01 X5.3443 Y26.6771
G01 X5.4388 Y26.9752
G01 X5.5413 Y27.2738
G01 X5.5533 Y27.3073
G01 X5.6635 Y27.6033
G01 X5.7823 Y27.9009
G01 X5.9100 Y28.1994
G01 X5.9240 Y28.2311
G01 X6.0557 Y28.5184
G01 X6.1928 Y28.7997
G01 X6.2088 Y28.8314
G01 X6.3529 Y29.1088
G01 X6.5049 Y29.3855
G01 X6.5184 Y29.4096
G01 X6.6800 Y29.6866
G01 X6.8454 Y29.9555
G01 X6.8643 Y29.9854
G01 X7.0413 Y30.2570
G01 X7.2245 Y30.5239
G01 X7.4171 Y30.7904
G01 X7.6181 Y31.0548
G01 X7.7628 Y31.2359
G01 X7.7305 Y31.2682
G01 X7.6143 Y31.1239
G01 X7.4176 Y30.8676
G01 X7.2271 Y30.6066
G01 X7.0429 Y30.3413
G01 X6.8651 Y30.0716
G01 X6.6937 Y29.7979
G01 X6.5290 Y29.5200
G01 X6.3707 Y29.2382
G01 X6.2194 Y28.9529
G01 X6.0748 Y28.6640
G01 X5.9371 Y28.3719
G01 X5.8065 Y28.0765
G01 X5.6830 Y27.7781
G01 X5.5665 Y27.4766
G01 X5.4572 Y27.1726
G01 X5.3552 Y26.8662
G01 X5.2606 Y26.5575
G01 X5.1734 Y26.2463
G01 X5.0934 Y25.9332
G01 X5.0211 Y25.6184
G01 X4.9562 Y25.3021
G01 X4.8989 Y24.9842
G01 X4.8492 Y24.6650
G01 X4.8071 Y24.3449
G01 X4.7873 Y24.1605
G01 X4.8331 Y24.1605
G00 X4.8331 Y24.1605
G01 F650.00
G01 Z-1.1000
G01 F450.00
G01 X4.8588 Y24.3911
G01 X4.9008 Y24.7013
G01 X4.9059 Y24.7353
G01 X4.9576 Y25.0553
G01 X5.0163 Y25.3709
G01 X5.0817 Y25.6803
G01 X5.0893 Y25.7143
G01 X5.1643 Y26.0292
G01 X5.2462 Y26.3398
G01 X5.3341 Y26.6435
G01 X5.3443 Y26.6771
G01 X5.4388 Y26.9752
G01 X5.5413 Y27.2738
G01 X5.5533 Y27.3073
G01 X5.6635 Y27.6033
G01 X5.7823 Y27.9009
G01 X5.9100 Y28.1994
G01 X5.9240 Y28.2311
G01 X6.0557 Y28.5184
G01 X6.1928 Y28.7997
G01 X6.2088 Y28.8314
G01 X6.3529 Y29.1088
G01 X6.5049 Y29.3855
G01 X6.5184 Y29.4096
G01 X6.6800 Y29.6866
G01 X6.8454 Y29.9555
G01 X6.8643 Y29.9854
G01 X7.0413 Y30.2570
G01 X7.2245 Y30.5239
G01 X7.4171 Y30.7904
G01 X7.6181 Y31.0548
G01 X7.7628 Y31.2359
G01 X7.7305 Y31.2682
G01 X7.6143 Y31.1239
G01 X7.4176 Y30.8676
G01 X7.2271 Y30.6066
G01 X7.0429 Y30.3413
G01 X6.8651 Y30.0716
G01 X6.6937 Y29.7979
G01 X6.5290 Y29.5200
G01 X6.3707 Y29.2382
G01 X6.2194 Y28.9529
G01 X6.0748 Y28.6640
G01 X5.9371 Y28.3719
G01 X5.8065 Y28.0765
G01 X5.6830 Y27.7781
G01 X5.5665 Y27.4766
G01 X5.4572 Y27.1726
G01 X5.3552 Y26.8662
G01 X5.2606 Y26.5575
G01 X5.1734 Y26.2463
G01 X5.0934 Y25.9332
G01 X5.0211 Y25.6184
G01 X4.9562 Y25.3021
G01 X4.8989 Y24.9842
G01 X4.8492 Y24.6650
G01 X4.8071 Y24.3449
G01 X4.7873 Y24.1605
G01 X4.8331 Y24.1605
G00 X4.8331 Y24.1605
G01 F650.00
G01 Z-1.6500
G01 F450.00
G01 X4.8588 Y24.3911
G01 X4.9008 Y24.7013
G01 X4.9059 Y24.7353
G01 X4.9576 Y25.0553
G01 X5.0163 Y25.3709
G01 X5.0817 Y25.6803
G01 X5.0893 Y25.7143
G01 X5.1643 Y26.0292
G01 X5.2462 Y26.3398
G01 X5.3341 Y26.6435
G01 X5.3443 Y26.6771
G01 X5.4388 Y26.9752
G01 X5.5413 Y27.2738
G01 X5.5533 Y27.3073
G01 X5.6635 Y27.6033
G01 X5.7823 Y27.9009
G01 X5.9100 Y28.1994
G01 X5.9240 Y28.2311
G01 X6.0557 Y28.5184
G01 X6.1928 Y28.7997
G01 X6.2088 Y28.8314
G01 X6.3529 Y29.1088
G01 X6.5049 Y29.3855
G01 X6.5184 Y29.4096
G01 X6.6800 Y29.6866
G01 X6.8454 Y29.9555
G01 X6.8643 Y29.9854
G01 X7.0413 Y30.2570
G01 X7.2245 Y30.5239
G01 X7.4171 Y30.7904
G01 X7.6181 Y31.0548
G01 X7.7628 Y31.2359
G01 X7.7305 Y31.2682
G01 X7.6143 Y31.1239
G01 X7.4176 Y30.8676
G01 X7.2271 Y30.6066
G01 X7.0429 Y30.3413
G01 X6.8651 Y30.0716
G01 X6.6937 Y29.7979
G01 X6.5290 Y29.5200
G01 X6.3707 Y29.2382
G01 X6.2194 Y28.9529
G01 X6.0748 Y28.6640
G01 X5.9371 Y28.3719
G01 X5.8065 Y28.0765
G01 X5.6830 Y27.7781
G01 X5.5665 Y27.4766
G01 X5.4572 Y27.1726
G01 X5.3552 Y26.8662
G01 X5.2606 Y26.5575
G01 X5.1734 Y26.2463
G01 X5.0934 Y25.9332
G01 X5.0211 Y25.6184
G01 X4.9562 Y25.3021
G01 X4.8989 Y24.9842
G01 X4.8492 Y24.6650
G01 X4.8071 Y24.3449
G01 X4.7873 Y24.1605
G01 X4.8331 Y24.1605
G00 Z15.0000
G00 X19.7096 Y36.1860
G01 F650.00
G01 Z-0.5500
G01 F450.00
G01 X19.9402 Y36.1603
G01 X20.2581 Y36.1172
G01 X20.5776 Y36.0661
G01 X20.6044 Y36.0615
G01 X20.9200 Y36.0028
G01 X21.2294 Y35.9374
G01 X21.2634 Y35.9298
G01 X21.5784 Y35.8548
G01 X21.8889 Y35.7729
G01 X22.1926 Y35.6850
G01 X22.2262 Y35.6748
G01 X22.5243 Y35.5803
G01 X22.8229 Y35.4778
G01 X22.8564 Y35.4658
G01 X23.1524 Y35.3556
G01 X23.4504 Y35.2366
G01 X23.7485 Y35.1091
G01 X23.7802 Y35.0951
G01 X24.0675 Y34.9634
G01 X24.3488 Y34.8263
G01 X24.3805 Y34.8103
G01 X24.6579 Y34.6662
G01 X24.9346 Y34.5142
G01 X24.9586 Y34.5007
G01 X25.2357 Y34.3391
G01 X25.5046 Y34.1737
G01 X25.5345 Y34.1548
G01 X25.8060 Y33.9778
G01 X26.0730 Y33.7946
G01 X26.3395 Y33.6020
G01 X26.6039 Y33.4010
G01 X26.7850 Y33.2562
G01 X26.8174 Y33.2887
G01 X26.6333 Y33.4360
G01 X26.3682 Y33.6377
G01 X26.0981 Y33.8328
G01 X25.8234 Y34.0213
G01 X25.5442 Y34.2029
G01 X25.2606 Y34.3776
G01 X24.9728 Y34.5453
G01 X24.6809 Y34.7059
G01 X24.3852 Y34.8593
G01 X24.0859 Y35.0054
G01 X23.7831 Y35.1439
G01 X23.4768 Y35.2752
G01 X23.1674 Y35.3989
G01 X22.8552 Y35.5149
G01 X22.5402 Y35.6233
G01 X22.2226 Y35.7238
G01 X21.9026 Y35.8166
G01 X21.5806 Y35.9015
G01 X21.2565 Y35.9784
G01 X20.9304 Y36.0473
G01 X20.6030 Y36.1083
G01 X20.2742 Y36.1611
G01 X19.9441 Y36.2059
G01 X19.7096 Y36.2319
G01 X19.7096 Y36.1860
G00 X19.7096 Y36.1860
G01 F650.00
G01 Z-1.1000
G01 F450.00
G01 X19.9402 Y36.1603
G01 X20.2581 Y36.1172
G01 X20.5776 Y36.0661
G01 X20.6044 Y36.0615
G01 X20.9200 Y36.0028
G01 X21.2294 Y35.9374
G01 X21.2634 Y35.9298
G01 X21.5784 Y35.8548
G01 X21.8889 Y35.7729
G01 X22.1926 Y35.6850
G01 X22.2262 Y35.6748
G01 X22.5243 Y35.5803
G01 X22.8229 Y35.4778
G01 X22.8564 Y35.4658
G01 X23.1524 Y35.3556
G01 X23.4504 Y35.2366
G01 X23.7485 Y35.1091
G01 X23.7802 Y35.0951
G01 X24.0675 Y34.9634
G01 X24.3488 Y34.8263
G01 X24.3805 Y34.8103
G01 X24.6579 Y34.6662
G01 X24.9346 Y34.5142
G01 X24.9586 Y34.5007
G01 X25.2357 Y34.3391
G01 X25.5046 Y34.1737
G01 X25.5345 Y34.1548
G01 X25.8060 Y33.9778
G01 X26.0730 Y33.7946
G01 X26.3395 Y33.6020
G01 X26.6039 Y33.4010
G01 X26.7850 Y33.2562
G01 X26.8174 Y33.2887
G01 X26.6333 Y33.4360
G01 X26.3682 Y33.6377
G01 X26.0981 Y33.8328
G01 X25.8234 Y34.0213
G01 X25.5442 Y34.2029
G01 X25.2606 Y34.3776
G01 X24.9728 Y34.5453
G01 X24.6809 Y34.7059
G01 X24.3852 Y34.8593
G01 X24.0859 Y35.0054
G01 X23.7831 Y35.1439
G01 X23.4768 Y35.2752
G01 X23.1674 Y35.3989
G01 X22.8552 Y35.5149
G01 X22.5402 Y35.6233
G01 X22.2226 Y35.7238
G01 X21.9026 Y35.8166
G01 X21.5806 Y35.9015
G01 X21.2565 Y35.9784
G01 X20.9304 Y36.0473
G01 X20.6030 Y36.1083
G01 X20.2742 Y36.1611
G01 X19.9441 Y36.2059
G01 X19.7096 Y36.2319
G01 X19.7096 Y36.1860
G00 X19.7096 Y36.1860
G01 F650.00
G01 Z-1.6500
G01 F450.00
G01 X19.9402 Y36.1603
G01 X20.2581 Y36.1172
G01 X20.5776 Y36.0661
G01 X20.6044 Y36.0615
G01 X20.9200 Y36.0028
G01 X21.2294 Y35.9374
G01 X21.2634 Y35.9298
G01 X21.5784 Y35.8548
G01 X21.8889 Y35.7729
G01 X22.1926 Y35.6850
G01 X22.2262 Y35.6748
G01 X22.5243 Y35.5803
G01 X22.8229 Y35.4778
G01 X22.8564 Y35.4658
G01 X23.1524 Y35.3556
G01 X23.4504 Y35.2366
G01 X23.7485 Y35.1091
G01 X23.7802 Y35.0951
G01 X24.0675 Y34.9634
G01 X24.3488 Y34.8263
G01 X24.3805 Y34.8103
G01 X24.6579 Y34.6662
G01 X24.9346 Y34.5142
G01 X24.9586 Y34.5007
G01 X25.2357 Y34.3391
G01 X25.5046 Y34.1737
G01 X25.5345 Y34.1548
G01 X25.8060 Y33.9778
G01 X26.0730 Y33.7946
G01 X26.3395 Y33.6020
G01 X26.6039 Y33.4010
G01 X26.7850 Y33.2562
G01 X26.8174 Y33.2887
G01 X26.6333 Y33.4360
G01 X26.3682 Y33.6377
G01 X26.0981 Y33.8328
G01 X25.8234 Y34.0213
G01 X25.5442 Y34.2029
G01 X25.2606 Y34.3776
G01 X24.9728 Y34.5453
G01 X24.6809 Y34.7059
G01 X24.3852 Y34.8593
G01 X24.0859 Y35.0054
G01 X23.7831 Y35.1439
G01 X23.4768 Y35.2752
G01 X23.1674 Y35.3989
G01 X22.8552 Y35.5149
G01 X22.5402 Y35.6233
G01 X22.2226 Y35.7238
G01 X21.9026 Y35.8166
G01 X21.5806 Y35.9015
G01 X21.2565 Y35.9784
G01 X20.9304 Y36.0473
G01 X20.6030 Y36.1083
G01 X20.2742 Y36.1611
G01 X19.9441 Y36.2059
G01 X19.7096 Y36.2319
G01 X19.7096 Y36.1860
G00 Z15.0000
G00 X28.8053 Y14.2341
G01 F650.00
G01 Z-0.5500
G01 F450.00
G01 X28.8377 Y14.2017
G01 X28.9539 Y14.3460
G01 X29.1506 Y14.6023
G01 X29.3411 Y14.8633
G01 X29.5253 Y15.1286
G01 X29.7031 Y15.3983
G01 X29.8745 Y15.6720
G01 X30.0392 Y15.9499
G01 X30.1975 Y16.2317
G01 X30.3488 Y16.5170
G01 X30.4934 Y16.8059
G01 X30.6311 Y17.0980
G01 X30.7617 Y17.3934
G01 X30.8852 Y17.6918
G01 X31.0017 Y17.9933
G01 X31.1110 Y18.2973
G01 X31.2130 Y18.6037
G01 X31.3076 Y18.9124
G01 X31.3948 Y19.2236
G01 X31.4748 Y19.5367
G01 X31.5471 Y19.8515
G01 X31.6120 Y20.1678
G01 X31.6693 Y20.4857
G01 X31.7190 Y20.8049
G01 X31.7611 Y21.1250
G01 X31.7809 Y21.3095
G01 X31.7351 Y21.3095
G01 X31.7094 Y21.0789
G01 X31.6647 Y20.7502
G01 X31.6126 Y20.4257
G01 X31.5534 Y20.1070
G01 X31.4865 Y19.7897
G01 X31.4789 Y19.7557
G01 X31.4058 Y19.4483
G01 X31.3241 Y19.1379
G01 X31.2341 Y18.8265
G01 X31.2239 Y18.7929
G01 X31.1294 Y18.4948
G01 X31.0269 Y18.1962
G01 X31.0149 Y18.1627
G01 X30.9058 Y17.8696
G01 X30.7888 Y17.5763
G01 X30.7784 Y17.5509
G01 X30.6519 Y17.2561
G01 X30.5206 Y16.9689
G01 X30.5056 Y16.9372
G01 X30.3682 Y16.6559
G01 X30.2226 Y16.3750
G01 X30.2064 Y16.3447
G01 X30.0538 Y16.0675
G01 X29.8921 Y15.7900
G01 X29.7228 Y15.5145
G01 X29.7039 Y15.4846
G01 X29.5314 Y15.2198
G01 X29.3499 Y14.9550
G01 X29.1606 Y14.6925
G01 X29.1445 Y14.6706
G01 X28.9501 Y14.4152
G01 X28.8053 Y14.2341
G00 X28.8053 Y14.2341
G01 F650.00
G01 Z-1.1000
G01 F450.00
G01 X28.8377 Y14.2017
G01 X28.9539 Y14.3460
G01 X29.1506 Y14.6023
G01 X29.3411 Y14.8633
G01 X29.5253 Y15.1286
G01 X29.7031 Y15.3983
G01 X29.8745 Y15.6720
G01 X30.0392 Y15.9499
G01 X30.1975 Y16.2317
G01 X30.3488 Y16.5170
G01 X30.4934 Y16.8059
G01 X30.6311 Y17.0980
G01 X30.7617 Y17.3934
G01 X30.8852 Y17.6918
G01 X31.0017 Y17.9933
G01 X31.1110 Y18.2973
G01 X31.2130 Y18.6037
G01 X31.3076 Y18.9124
G01 X31.3948 Y19.2236
G01 X31.4748 Y19.5367
G01 X31.5471 Y19.8515
G01 X31.6120 Y20.1678
G01 X31.6693 Y20.4857
G01 X31.7190 Y20.8049
G01 X31.7611 Y21.1250
G01 X31.7809 Y21.3095
G01 X31.7351 Y21.3095
G01 X31.7094 Y21.0789
G01 X31.6647 Y20.7502
G01 X31.6126 Y20.4257
G01 X31.5534 Y20.1070
G01 X31.4865 Y19.7897
G01 X31.4789 Y19.7557
G01 X31.4058 Y19.4483
G01 X31.3241 Y19.1379
G01 X31.2341 Y18.8265
G01 X31.2239 Y18.7929
G01 X31.1294 Y18.4948
G01 X31.0269 Y18.1962
G01 X31.0149 Y18.1627
G01 X30.9058 Y17.8696
G01 X30.7888 Y17.5763
G01 X30.7784 Y17.5509
G01 X30.6519 Y17.2561
G01 X30.5206 Y16.9689
G01 X30.5056 Y16.9372
G01 X30.3682 Y16.6559
G01 X30.2226 Y16.3750
G01 X30.2064 Y16.3447
G01 X30.0538 Y16.0675
G01 X29.8921 Y15.7900
G01 X29.7228 Y15.5145
G01 X29.7039 Y15.4846
G01 X29.5314 Y15.2198
G01 X29.3499 Y14.9550
G01 X29.1606 Y14.6925
G01 X29.1445 Y14.6706
G01 X28.9501 Y14.4152
G01 X28.8053 Y14.2341
G00 X28.8053 Y14.2341
G01 F650.00
G01 Z-1.6500
G01 F450.00
G01 X28.8377 Y14.2017
G01 X28.9539 Y14.3460
G01 X29.1506 Y14.6023
G01 X29.3411 Y14.8633
G01 X29.5253 Y15.1286
G01 X29.7031 Y15.3983
G01 X29.8745 Y15.6720
G01 X30.0392 Y15.9499
G01 X30.1975 Y16.2317
G01 X30.3488 Y16.5170
G01 X30.4934 Y16.8059
G01 X30.6311 Y17.0980
G01 X30.7617 Y17.3934
G01 X30.8852 Y17.6918
G01 X31.0017 Y17.9933
G01 X31.1110 Y18.2973
G01 X31.2130 Y18.6037
G01 X31.3076 Y18.9124
G01 X31.3948 Y19.2236
G01 X31.4748 Y19.5367
G01 X31.5471 Y19.8515
G01 X31.6120 Y20.1678
G01 X31.6693 Y20.4857
G01 X31.7190 Y20.8049
G01 X31.7611 Y21.1250
G01 X31.7809 Y21.3095
G01 X31.7351 Y21.3095
G01 X31.7094 Y21.0789
G01 X31.6647 Y20.7502
G01 X31.6126 Y20.4257
G01 X31.5534 Y20.1070
G01 X31.4865 Y19.7897
G01 X31.4789 Y19.7557
G01 X31.4058 Y19.4483
G01 X31.3241 Y19.1379
G01 X31.2341 Y18.8265
G01 X31.2239 Y18.7929
G01 X31.1294 Y18.4948
G01 X31.0269 Y18.1962
G01 X31.0149 Y18.1627
G01 X30.9058 Y17.8696
G01 X30.7888 Y17.5763
G01 X30.7784 Y17.5509
G01 X30.6519 Y17.2561
G01 X30.5206 Y16.9689
G01 X30.5056 Y16.9372
G01 X30.3682 Y16.6559
G01 X30.2226 Y16.3750
G01 X30.2064 Y16.3447
G01 X30.0538 Y16.0675
G01 X29.8921 Y15.7900
G01 X29.7228 Y15.5145
G01 X29.7039 Y15.4846
G01 X29.5314 Y15.2198
G01 X29.3499 Y14.9550
G01 X29.1606 Y14.6925
G01 X29.1445 Y14.6706
G01 X28.9501 Y14.4152
G01 X28.8053 Y14.2341
G00 Z15.0000
G00 X52.8328 Y24.1649
G01 F650.00
G01 Z-0.5500
G01 F450.00
G01 X52.8666 Y24.4560
G01 X52.9097 Y24.7639
G01 X52.9149 Y24.7982
G01 X52.9663 Y25.1079
G01 X53.0274 Y25.4288
G01 X53.0934 Y25.7356
G01 X53.1013 Y25.7699
G01 X53.1751 Y26.0748
G01 X53.2595 Y26.3901
G01 X53.3477 Y26.6913
G01 X53.3580 Y26.7248
G01 X53.4529 Y27.0205
G01 X53.5558 Y27.3170
G01 X53.5676 Y27.3498
G01 X53.6780 Y27.6435
G01 X53.7970 Y27.9390
G01 X53.8076 Y27.9643
G01 X53.9321 Y28.2521
G01 X54.0619 Y28.5341
G01 X54.0770 Y28.5658
G01 X54.2141 Y28.8448
G01 X54.3591 Y29.1232
G01 X54.3755 Y29.1537
G01 X54.5313 Y29.4350
G01 X54.6924 Y29.7103
G01 X54.8577 Y29.9776
G01 X54.8759 Y30.0063
G01 X55.0520 Y30.2759
G01 X55.2328 Y30.5385
G01 X55.4215 Y30.7992
G01 X55.6212 Y31.0615
G01 X55.7638 Y31.2399
G01 X55.7314 Y31.2723
G01 X55.6089 Y31.1201
G01 X55.4112 Y30.8620
G01 X55.2198 Y30.5994
G01 X55.0348 Y30.3322
G01 X54.8561 Y30.0606
G01 X54.6840 Y29.7848
G01 X54.5187 Y29.5051
G01 X54.3600 Y29.2214
G01 X54.2081 Y28.9339
G01 X54.0632 Y28.6430
G01 X53.9254 Y28.3488
G01 X53.7946 Y28.0512
G01 X53.6708 Y27.7505
G01 X53.5544 Y27.4472
G01 X53.4454 Y27.1411
G01 X53.3435 Y26.8321
G01 X53.2492 Y26.5214
G01 X53.1625 Y26.2081
G01 X53.0831 Y25.8928
G01 X53.0113 Y25.5758
G01 X52.9471 Y25.2571
G01 X52.8906 Y24.9371
G01 X52.8418 Y24.6157
G01 X52.8006 Y24.2932
G01 X52.7874 Y24.1649
G01 X52.8328 Y24.1649
G00 X52.8328 Y24.1649
G01 F650.00
G01 Z-1.1000
G01 F450.00
G01 X52.8666 Y24.4560
G01 X52.9097 Y24.7639
G01 X52.9149 Y24.7982
G01 X52.9663 Y25.1079
G01 X53.0274 Y25.4288
G01 X53.0934 Y25.7356
G01 X53.1013 Y25.7699
G01 X53.1751 Y26.0748
G01 X53.2595 Y26.3901
G01 X53.3477 Y26.6913
G01 X53.3580 Y26.7248
G01 X53.4529 Y27.0205
G01 X53.5558 Y27.3170
G01 X53.5676 Y27.3498
G01 X53.6780 Y27.6435
G01 X53.7970 Y27.9390
G01 X53.8076 Y27.9643
G01 X53.9321 Y28.2521
G01 X54.0619 Y28.5341
G01 X54.0770 Y28.5658
G01 X54.2141 Y28.8448
G01 X54.3591 Y29.1232
G01 X54.3755 Y29.1537
G01 X54.5313 Y29.4350
G01 X54.6924 Y29.7103
G01 X54.8577 Y29.9776
G01 X54.8759 Y30.0063
G01 X55.0520 Y30.2759
G01 X55.2328 Y30.5385
G01 X55.4215 Y30.7992
G01 X55.6212 Y31.0615
G01 X55.7638 Y31.2399
G01 X55.7314 Y31.2723
G01 X55.6089 Y31.1201
G01 X55.4112 Y30.8620
G01 X55.2198 Y30.5994
G01 X55.0348 Y30.3322
G01 X54.8561 Y30.0606
G01 X54.6840 Y29.7848
G01 X54.5187 Y29.5051
G01 X54.3600 Y29.2214
G01 X54.2081 Y28.9339
G01 X54.0632 Y28.6430
G01 X53.9254 Y28.3488
G01 X53.7946 Y28.0512
G01 X53.6708 Y27.7505
G01 X53.5544 Y27.4472
G01 X53.4454 Y27.1411
G01 X53.3435 Y26.8321
G01 X53.2492 Y26.5214
G01 X53.1625 Y26.2081
G01 X53.0831 Y25.8928
G01 X53.0113 Y25.5758
G01 X52.9471 Y25.2571
G01 X52.8906 Y24.9371
G01 X52.8418 Y24.6157
G01 X52.8006 Y24.2932
G01 X52.7874 Y24.1649
G01 X52.8328 Y24.1649
G00 X52.8328 Y24.1649
G01 F650.00
G01 Z-1.6500
G01 F450.00
G01 X52.8666 Y24.4560
G01 X52.9097 Y24.7639
G01 X52.9149 Y24.7982
G01 X52.9663 Y25.1079
G01 X53.0274 Y25.4288
G01 X53.0934 Y25.7356
G01 X53.1013 Y25.7699
G01 X53.1751 Y26.0748
G01 X53.2595 Y26.3901
G01 X53.3477 Y26.6913
G01 X53.3580 Y26.7248
G01 X53.4529 Y27.0205
G01 X53.5558 Y27.3170
G01 X53.5676 Y27.3498
G01 X53.6780 Y27.6435
G01 X53.7970 Y27.9390
G01 X53.8076 Y27.9643
G01 X53.9321 Y28.2521
G01 X54.0619 Y28.5341
G01 X54.0770 Y28.5658
G01 X54.2141 Y28.8448
G01 X54.3591 Y29.1232
G01 X54.3755 Y29.1537
G01 X54.5313 Y29.4350
G01 X54.6924 Y29.7103
G01 X54.8577 Y29.9776
G01 X54.8759 Y30.0063
G01 X55.0520 Y30.2759
G01 X55.2328 Y30.5385
G01 X55.4215 Y30.7992
G01 X55.6212 Y31.0615
G01 X55.7638 Y31.2399
G01 X55.7314 Y31.2723
G01 X55.6089 Y31.1201
G01 X55.4112 Y30.8620
G01 X55.2198 Y30.5994
G01 X55.0348 Y30.3322
G01 X54.8561 Y30.0606
G01 X54.6840 Y29.7848
G01 X54.5187 Y29.5051
G01 X54.3600 Y29.2214
G01 X54.2081 Y28.9339
G01 X54.0632 Y28.6430
G01 X53.9254 Y28.3488
G01 X53.7946 Y28.0512
G01 X53.6708 Y27.7505
G01 X53.5544 Y27.4472
G01 X53.4454 Y27.1411
G01 X53.3435 Y26.8321
G01 X53.2492 Y26.5214
G01 X53.1625 Y26.2081
G01 X53.0831 Y25.8928
G01 X53.0113 Y25.5758
G01 X52.9471 Y25.2571
G01 X52.8906 Y24.9371
G01 X52.8418 Y24.6157
G01 X52.8006 Y24.2932
G01 X52.7874 Y24.1649
G01 X52.8328 Y24.1649
G00 Z15.0000
G00 X57.7496 Y12.1851
G01 F650.00
G01 Z-0.5500
G01 F450.00
G01 X57.8939 Y12.0689
G01 X58.1501 Y11.8722
G01 X58.4110 Y11.6818
G01 X58.6764 Y11.4975
G01 X58.9461 Y11.3196
G01 X59.2199 Y11.1482
G01 X59.4977 Y10.9833
G01 X59.7793 Y10.8252
G01 X60.0647 Y10.6738
G01 X60.3536 Y10.5292
G01 X60.6458 Y10.3915
G01 X60.9410 Y10.2609
G01 X61.2395 Y10.1373
G01 X61.5409 Y10.0208
G01 X61.8448 Y9.9115
G01 X62.1514 Y9.8095
G01 X62.4603 Y9.7147
G01 X62.7712 Y9.6274
G01 X63.0841 Y9.5475
G01 X63.3989 Y9.4752
G01 X63.7154 Y9.4103
G01 X64.0333 Y9.3529
G01 X64.3525 Y9.3031
G01 X64.6728 Y9.2610
G01 X64.8570 Y9.2411
G01 X64.8570 Y9.2871
G01 X64.6690 Y9.3076
G01 X64.3501 Y9.3498
G01 X64.0425 Y9.3977
G01 X63.7330 Y9.4535
G01 X63.4257 Y9.5163
G01 X63.3920 Y9.5236
G01 X63.0935 Y9.5924
G01 X62.7743 Y9.6740
G01 X62.4746 Y9.7582
G01 X62.1815 Y9.8479
G01 X62.1488 Y9.8584
G01 X61.8612 Y9.9543
G01 X61.5729 Y10.0577
G01 X61.5412 Y10.0696
G01 X61.2553 Y10.1802
G01 X60.9749 Y10.2962
G01 X60.9435 Y10.3097
G01 X60.6660 Y10.4326
G01 X60.3886 Y10.5632
G01 X60.3583 Y10.5779
G01 X60.0844 Y10.7152
G01 X59.8163 Y10.8573
G01 X59.7865 Y10.8736
G01 X59.5127 Y11.0276
G01 X59.2451 Y11.1865
G01 X58.9852 Y11.3490
G01 X58.9565 Y11.3674
G01 X58.6946 Y11.5405
G01 X58.4365 Y11.7198
G01 X58.1850 Y11.9033
G01 X57.9295 Y12.0991
G01 X57.7821 Y12.2176
G01 X57.7496 Y12.1851
G00 X57.7496 Y12.1851
G01 F650.00
G01 Z-1.1000
G01 F450.00
G01 X57.8939 Y12.0689
G01 X58.1501 Y11.8722
G01 X58.4110 Y11.6818
G01 X58.6764 Y11.4975
G01 X58.9461 Y11.3196
G01 X59.2199 Y11.1482
G01 X59.4977 Y10.9833
G01 X59.7793 Y10.8252
G01 X60.0647 Y10.6738
G01 X60.3536 Y10.5292
G01 X60.6458 Y10.3915
G01 X60.9410 Y10.2609
G01 X61.2395 Y10.1373
G01 X61.5409 Y10.0208
G01 X61.8448 Y9.9115
G01 X62.1514 Y9.8095
G01 X62.4603 Y9.7147
G01 X62.7712 Y9.6274
G01 X63.0841 Y9.5475
G01 X63.3989 Y9.4752
G01 X63.7154 Y9.4103
G01 X64.0333 Y9.3529
G01 X64.3525 Y9.3031
G01 X64.6728 Y9.2610
G01 X64.8570 Y9.2411
G01 X64.8570 Y9.2871
G01 X64.6690 Y9.3076
G01 X64.3501 Y9.3498
G01 X64.0425 Y9.3977
G01 X63.7330 Y9.4535
G01 X63.4257 Y9.5163
G01 X63.3920 Y9.5236
G01 X63.0935 Y9.5924
G01 X62.7743 Y9.6740
G01 X62.4746 Y9.7582
G01 X62.1815 Y9.8479
G01 X62.1488 Y9.8584
G01 X61.8612 Y9.9543
G01 X61.5729 Y10.0577
G01 X61.5412 Y10.0696
G01 X61.2553 Y10.1802
G01 X60.9749 Y10.2962
G01 X60.9435 Y10.3097
G01 X60.6660 Y10.4326
G01 X60.3886 Y10.5632
G01 X60.3583 Y10.5779
G01 X60.0844 Y10.7152
G01 X59.8163 Y10.8573
G01 X59.7865 Y10.8736
G01 X59.5127 Y11.0276
G01 X59.2451 Y11.1865
G01 X58.9852 Y11.3490
G01 X58.9565 Y11.3674
G01 X58.6946 Y11.5405
G01 X58.4365 Y11.7198
G01 X58.1850 Y11.9033
G01 X57.9295 Y12.0991
G01 X57.7821 Y12.2176
G01 X57.7496 Y12.1851
G00 X57.7496 Y12.1851
G01 F650.00
G01 Z-1.6500
G01 F450.00
G01 X57.8939 Y12.0689
G01 X58.1501 Y11.8722
G01 X58.4110 Y11.6818
G01 X58.6764 Y11.4975
G01 X58.9461 Y11.3196
G01 X59.2199 Y11.1482
G01 X59.4977 Y10.9833
G01 X59.7793 Y10.8252
G01 X60.0647 Y10.6738
G01 X60.3536 Y10.5292
G01 X60.6458 Y10.3915
G01 X60.9410 Y10.2609
G01 X61.2395 Y10.1373
G01 X61.5409 Y10.0208
G01 X61.8448 Y9.9115
G01 X62.1514 Y9.8095
G01 X62.4603 Y9.7147
G01 X62.7712 Y9.6274
G01 X63.0841 Y9.5475
G01 X63.3989 Y9.4752
G01 X63.7154 Y9.4103
G01 X64.0333 Y9.3529
G01 X64.3525 Y9.3031
G01 X64.6728 Y9.2610
G01 X64.8570 Y9.2411
G01 X64.8570 Y9.2871
G01 X64.6690 Y9.3076
G01 X64.3501 Y9.3498
G01 X64.0425 Y9.3977
G01 X63.7330 Y9.4535
G01 X63.4257 Y9.5163
G01 X63.3920 Y9.5236
G01 X63.0935 Y9.5924
G01 X62.7743 Y9.6740
G01 X62.4746 Y9.7582
G01 X62.1815 Y9.8479
G01 X62.1488 Y9.8584
G01 X61.8612 Y9.9543
G01 X61.5729 Y10.0577
G01 X61.5412 Y10.0696
G01 X61.2553 Y10.1802
G01 X60.9749 Y10.2962
G01 X60.9435 Y10.3097
G01 X60.6660 Y10.4326
G01 X60.3886 Y10.5632
G01 X60.3583 Y10.5779
G01 X60.0844 Y10.7152
G01 X59.8163 Y10.8573
G01 X59.7865 Y10.8736
G01 X59.5127 Y11.0276
G01 X59.2451 Y11.1865
G01 X58.9852 Y11.3490
G01 X58.9565 Y11.3674
G01 X58.6946 Y11.5405
G01 X58.4365 Y11.7198
G01 X58.1850 Y11.9033
G01 X57.9295 Y12.0991
G01 X57.7821 Y12.2176
G01 X57.7496 Y12.1851
G00 Z15.0000
G00 X76.8043 Y14.2358
G01 F650.00
G01 Z-0.5500
G01 F450.00
G01 X76.8368 Y14.2033
G01 X76.9530 Y14.3476
G01 X77.1497 Y14.6038
G01 X77.3401 Y14.8647
G01 X77.5244 Y15.1301
G01 X77.7023 Y15.3998
G01 X77.8737 Y15.6736
G01 X78.0386 Y15.9514
G01 X78.1967 Y16.2330
G01 X78.3481 Y16.5184
G01 X78.4927 Y16.8073
G01 X78.6304 Y17.0995
G01 X78.7610 Y17.3947
G01 X78.8846 Y17.6932
G01 X79.0011 Y17.9946
G01 X79.1104 Y18.2985
G01 X79.2124 Y18.6051
G01 X79.3072 Y18.9140
G01 X79.3945 Y19.2249
G01 X79.4744 Y19.5378
G01 X79.5467 Y19.8526
G01 X79.6116 Y20.1691
G01 X79.6690 Y20.4870
G01 X79.7188 Y20.8062
G01 X79.7609 Y21.1265
G01 X79.7808 Y21.3107
G01 X79.7348 Y21.3107
G01 X79.7144 Y21.1228
G01 X79.6721 Y20.8039
G01 X79.6242 Y20.4962
G01 X79.5684 Y20.1868
G01 X79.5056 Y19.8794
G01 X79.4983 Y19.8457
G01 X79.4295 Y19.5472
G01 X79.3478 Y19.2279
G01 X79.2637 Y18.9283
G01 X79.1740 Y18.6352
G01 X79.1635 Y18.6025
G01 X79.0676 Y18.3149
G01 X78.9642 Y18.0266
G01 X78.9523 Y17.9949
G01 X78.8417 Y17.7090
G01 X78.7227 Y17.4216
G01 X78.5957 Y17.1339
G01 X78.5815 Y17.1028
G01 X78.4508 Y16.8258
G01 X78.3081 Y16.5407
G01 X78.1646 Y16.2700
G01 X78.1483 Y16.2402
G01 X77.9981 Y15.9730
G01 X77.8395 Y15.7054
G01 X77.6729 Y15.4389
G01 X77.6545 Y15.4102
G01 X77.4857 Y15.1547
G01 X77.3084 Y14.8990
G01 X77.1076 Y14.6240
G01 X76.9230 Y14.3834
G01 X76.8043 Y14.2358
G00 X76.8043 Y14.2358
G01 F650.00
G01 Z-1.1000
G01 F450.00
G01 X76.8368 Y14.2033
G01 X76.9530 Y14.3476
G01 X77.1497 Y14.6038
G01 X77.3401 Y14.8647
G01 X77.5244 Y15.1301
G01 X77.7023 Y15.3998
G01 X77.8737 Y15.6736
G01 X78.0386 Y15.9514
G01 X78.1967 Y16.2330
G01 X78.3481 Y16.5184
G01 X78.4927 Y16.8073
G01 X78.6304 Y17.0995
G01 X78.7610 Y17.3947
G01 X78.8846 Y17.6932
G01 X79.0011 Y17.9946
G01 X79.1104 Y18.2985
G01 X79.2124 Y18.6051
G01 X79.3072 Y18.9140
G01 X79.3945 Y19.2249
G01 X79.4744 Y19.5378
G01 X79.5467 Y19.8526
G01 X79.6116 Y20.1691
G01 X79.6690 Y20.4870
G01 X79.7188 Y20.8062
G01 X79.7609 Y21.1265
G01 X79.7808 Y21.3107
G01 X79.7348 Y21.3107
G01 X79.7144 Y21.1228
G01 X79.6721 Y20.8039
G01 X79.6242 Y20.4962
G01 X79.5684 Y20.1868
G01 X79.5056 Y19.8794
G01 X79.4983 Y19.8457
G01 X79.4295 Y19.5472
G01 X79.3478 Y19.2279
G01 X79.2637 Y18.9283
G01 X79.1740 Y18.6352
G01 X79.1635 Y18.6025
G01 X79.0676 Y18.3149
G01 X78.9642 Y18.0266
G01 X78.9523 Y17.9949
G01 X78.8417 Y17.7090
G01 X78.7227 Y17.4216
G01 X78.5957 Y17.1339
G01 X78.5815 Y17.1028
G01 X78.4508 Y16.8258
G01 X78.3081 Y16.5407
G01 X78.1646 Y16.2700
G01 X78.1483 Y16.2402
G01 X77.9981 Y15.9730
G01 X77.8395 Y15.7054
G01 X77.6729 Y15.4389
G01 X77.6545 Y15.4102
G01 X77.4857 Y15.1547
G01 X77.3084 Y14.8990
G01 X77.1076 Y14.6240
G01 X76.9230 Y14.3834
G01 X76.8043 Y14.2358
G00 X76.8043 Y14.2358
G01 F650.00
G01 Z-1.6500
G01 F450.00
G01 X76.8368 Y14.2033
G01 X76.9530 Y14.3476
G01 X77.1497 Y14.6038
G01 X77.3401 Y14.8647
G01 X77.5244 Y15.1301
G01 X77.7023 Y15.3998
G01 X77.8737 Y15.6736
G01 X78.0386 Y15.9514
G01 X78.1967 Y16.2330
G01 X78.3481 Y16.5184
G01 X78.4927 Y16.8073
G01 X78.6304 Y17.0995
G01 X78.7610 Y17.3947
G01 X78.8846 Y17.6932
G01 X79.0011 Y17.9946
G01 X79.1104 Y18.2985
G01 X79.2124 Y18.6051
G01 X79.3072 Y18.9140
G01 X79.3945 Y19.2249
G01 X79.4744 Y19.5378
G01 X79.5467 Y19.8526
G01 X79.6116 Y20.1691
G01 X79.6690 Y20.4870
G01 X79.7188 Y20.8062
G01 X79.7609 Y21.1265
G01 X79.7808 Y21.3107
G01 X79.7348 Y21.3107
G01 X79.7144 Y21.1228
G01 X79.6721 Y20.8039
G01 X79.6242 Y20.4962
G01 X79.5684 Y20.1868
G01 X79.5056 Y19.8794
G01 X79.4983 Y19.8457
G01 X79.4295 Y19.5472
G01 X79.3478 Y19.2279
G01 X79.2637 Y18.9283
G01 X79.1740 Y18.6352
G01 X79.1635 Y18.6025
G01 X79.0676 Y18.3149
G01 X78.9642 Y18.0266
G01 X78.9523 Y17.9949
G01 X78.8417 Y17.7090
G01 X78.7227 Y17.4216
G01 X78.5957 Y17.1339
G01 X78.5815 Y17.1028
G01 X78.4508 Y16.8258
G01 X78.3081 Y16.5407
G01 X78.1646 Y16.2700
G01 X78.1483 Y16.2402
G01 X77.9981 Y15.9730
G01 X77.8395 Y15.7054
G01 X77.6729 Y15.4389
G01 X77.6545 Y15.4102
G01 X77.4857 Y15.1547
G01 X77.3084 Y14.8990
G01 X77.1076 Y14.6240
G01 X76.9230 Y14.3834
G01 X76.8043 Y14.2358
G00 Z15.0000
G00 X67.7112 Y36.2345
G01 F650.00
G01 Z-0.5500
G01 F450.00
G01 X67.7112 Y36.1886
G01 X67.9416 Y36.1629
G01 X68.2703 Y36.1182
G01 X68.5950 Y36.0660
G01 X68.9061 Y36.0082
G01 X68.9403 Y36.0014
G01 X69.2308 Y35.9399
G01 X69.2649 Y35.9323
G01 X69.5723 Y35.8591
G01 X69.8750 Y35.7794
G01 X69.9087 Y35.7701
G01 X70.2093 Y35.6829
G01 X70.5106 Y35.5875
G01 X70.5437 Y35.5766
G01 X70.8398 Y35.4747
G01 X71.1362 Y35.3646
G01 X71.1687 Y35.3520
G01 X71.4593 Y35.2357
G01 X71.7498 Y35.1113
G01 X71.7815 Y35.0973
G01 X72.0690 Y34.9655
G01 X72.3505 Y34.8282
G01 X72.3814 Y34.8126
G01 X72.6592 Y34.6685
G01 X72.9363 Y34.5161
G01 X72.9601 Y34.5027
G01 X73.2372 Y34.3410
G01 X73.5061 Y34.1755
G01 X73.5357 Y34.1568
G01 X73.7846 Y33.9949
G01 X73.8138 Y33.9754
G01 X74.0744 Y33.7964
G01 X74.3410 Y33.6037
G01 X74.6053 Y33.4027
G01 X74.7861 Y33.2580
G01 X74.8186 Y33.2905
G01 X74.6743 Y33.4067
G01 X74.4181 Y33.6034
G01 X74.1572 Y33.7938
G01 X73.8918 Y33.9781
G01 X73.6221 Y34.1560
G01 X73.3483 Y34.3274
G01 X73.0705 Y34.4923
G01 X72.7889 Y34.6504
G01 X72.5035 Y34.8018
G01 X72.2146 Y34.9464
G01 X71.9224 Y35.0841
G01 X71.6272 Y35.2147
G01 X71.3287 Y35.3383
G01 X71.0273 Y35.4548
G01 X70.7234 Y35.5641
G01 X70.4168 Y35.6661
G01 X70.1079 Y35.7609
G01 X69.7970 Y35.8482
G01 X69.4841 Y35.9281
G01 X69.1693 Y36.0004
G01 X68.8528 Y36.0653
G01 X68.5349 Y36.1227
G01 X68.2157 Y36.1725
G01 X67.8954 Y36.2146
G01 X67.7112 Y36.2345
G00 X67.7112 Y36.2345
G01 F650.00
G01 Z-1.1000
G01 F450.00
G01 X67.7112 Y36.1886
G01 X67.9416 Y36.1629
G01 X68.2703 Y36.1182
G01 X68.5950 Y36.0660
G01 X68.9061 Y36.0082
G01 X68.9403 Y36.0014
G01 X69.2308 Y35.9399
G01 X69.2649 Y35.9323
G01 X69.5723 Y35.8591
G01 X69.8750 Y35.7794
G01 X69.9087 Y35.7701
G01 X70.2093 Y35.6829
G01 X70.5106 Y35.5875
G01 X70.5437 Y35.5766
G01 X70.8398 Y35.4747
G01 X71.1362 Y35.3646
G01 X71.1687 Y35.3520
G01 X71.4593 Y35.2357
G01 X71.7498 Y35.1113
G01 X71.7815 Y35.0973
G01 X72.0690 Y34.9655
G01 X72.3505 Y34.8282
G01 X72.3814 Y34.8126
G01 X72.6592 Y34.6685
G01 X72.9363 Y34.5161
G01 X72.9601 Y34.5027
G01 X73.2372 Y34.3410
G01 X73.5061 Y34.1755
G01 X73.5357 Y34.1568
G01 X73.7846 Y33.9949
G01 X73.8138 Y33.9754
G01 X74.0744 Y33.7964
G01 X74.3410 Y33.6037
G01 X74.6053 Y33.4027
G01 X74.7861 Y33.2580
G01 X74.8186 Y33.2905
G01 X74.6743 Y33.4067
G01 X74.4181 Y33.6034
G01 X74.1572 Y33.7938
G01 X73.8918 Y33.9781
G01 X73.6221 Y34.1560
G01 X73.3483 Y34.3274
G01 X73.0705 Y34.4923
G01 X72.7889 Y34.6504
G01 X72.5035 Y34.8018
G01 X72.2146 Y34.9464
G01 X71.9224 Y35.0841
G01 X71.6272 Y35.2147
G01 X71.3287 Y35.3383
G01 X71.0273 Y35.4548
G01 X70.7234 Y35.5641
G01 X70.4168 Y35.6661
G01 X70.1079 Y35.7609
G01 X69.7970 Y35.8482
G01 X69.4841 Y35.9281
G01 X69.1693 Y36.0004
G01 X68.8528 Y36.0653
G01 X68.5349 Y36.1227
G01 X68.2157 Y36.1725
G01 X67.8954 Y36.2146
G01 X67.7112 Y36.2345
G00 X67.7112 Y36.2345
G01 F650.00
G01 Z-1.6500
G01 F450.00
G01 X67.7112 Y36.1886
G01 X67.9416 Y36.1629
G01 X68.2703 Y36.1182
G01 X68.5950 Y36.0660
G01 X68.9061 Y36.0082
G01 X68.9403 Y36.0014
G01 X69.2308 Y35.9399
G01 X69.2649 Y35.9323
G01 X69.5723 Y35.8591
G01 X69.8750 Y35.7794
G01 X69.9087 Y35.7701
G01 X70.2093 Y35.6829
G01 X70.5106 Y35.5875
G01 X70.5437 Y35.5766
G01 X70.8398 Y35.4747
G01 X71.1362 Y35.3646
G01 X71.1687 Y35.3520
G01 X71.4593 Y35.2357
G01 X71.7498 Y35.1113
G01 X71.7815 Y35.0973
G01 X72.0690 Y34.9655
G01 X72.3505 Y34.8282
G01 X72.3814 Y34.8126
G01 X72.6592 Y34.6685
G01 X72.9363 Y34.5161
G01 X72.9601 Y34.5027
G01 X73.2372 Y34.3410
G01 X73.5061 Y34.1755
G01 X73.5357 Y34.1568
G01 X73.7846 Y33.9949
G01 X73.8138 Y33.9754
G01 X74.0744 Y33.7964
G01 X74.3410 Y33.6037
G01 X74.6053 Y33.4027
G01 X74.7861 Y33.2580
G01 X74.8186 Y33.2905
G01 X74.6743 Y33.4067
G01 X74.4181 Y33.6034
G01 X74.1572 Y33.7938
G01 X73.8918 Y33.9781
G01 X73.6221 Y34.1560
G01 X73.3483 Y34.3274
G01 X73.0705 Y34.4923
G01 X72.7889 Y34.6504
G01 X72.5035 Y34.8018
G01 X72.2146 Y34.9464
G01 X71.9224 Y35.0841
G01 X71.6272 Y35.2147
G01 X71.3287 Y35.3383
G01 X71.0273 Y35.4548
G01 X70.7234 Y35.5641
G01 X70.4168 Y35.6661
G01 X70.1079 Y35.7609
G01 X69.7970 Y35.8482
G01 X69.4841 Y35.9281
G01 X69.1693 Y36.0004
G01 X68.8528 Y36.0653
G01 X68.5349 Y36.1227
G01 X68.2157 Y36.1725
G01 X67.8954 Y36.2146
G01 X67.7112 Y36.2345
G00 Z15.0000
M05
G00 Z15.0000
G00 Z90.00
G00 X0.0 Y0.0

M02