(G-CODE GENERATED BY FLATCAM v8.97 - www.flatcam.org - Version Date: 2019/09/27)

(Name: Furação)
(Type: G-code from Excellon)
(Units: MM)

(Created on Monday, 03 May 2021 at 17:38)

(Feedrate: 650.0 mm/min)
(Feedrate rapids 800.0009 mm/min)

(Z_Cut: -1.9 mm)
(Z_Move: 15.0 mm)
(Z Toolchange: 15.0 mm)
(X,Y Toolchange: 0.0000, 0.0000 mm)
(Z Start: None mm)
(Z End: 90.0 mm)
(Steps per circle: 128)
(Postprocessor Excellon: default)

(X range:    1.6181 ...   81.7586  mm)
(Y range:    1.7975 ...   46.5325  mm)

(Spindle Speed: 12000.0 RPM)

G21
G90
G94

G01 F650.00
G00 Z15.0000

M03 S12000.0
G00 X67.0796 Y18.8100
G01 Z-1.9000
G01 Z0
G00 Z15.0000
G00 X67.0796 Y21.3500
G01 Z-1.9000
G01 Z0
G00 Z15.0000
G00 X67.0796 Y23.8900
G01 Z-1.9000
G01 Z0
G00 Z15.0000
G00 X67.0796 Y26.4300
G01 Z-1.9000
G01 Z0
G00 Z15.0000
G00 X11.6496 Y22.0900
G01 Z-1.9000
G01 Z0
G00 Z15.0000
G00 X14.1896 Y22.0900
G01 Z-1.9000
G01 Z0
G00 Z15.0000
G00 X16.7296 Y22.0900
G01 Z-1.9000
G01 Z0
G00 Z15.0000
G00 X19.2696 Y22.0900
G01 Z-1.9000
G01 Z0
G00 Z15.0000
M03 S12000.0
G00 X22.8406 Y18.1480
G01 Z-1.9000
G01 Z0
G00 Z15.0000
G00 X8.0186 Y7.1820
G01 Z-1.9000
G01 Z0
G00 Z15.0000
G00 X8.0186 Y4.6930
G01 Z-1.9000
G01 Z0
G00 Z15.0000
G00 X8.0186 Y2.2040
G01 Z-1.9000
G01 Z0
G00 Z15.0000
G00 X2.0246 Y2.2040
G01 Z-1.9000
G01 Z0
G00 Z15.0000
G00 X2.0246 Y4.6930
G01 Z-1.9000
G01 Z0
G00 Z15.0000
G00 X2.0246 Y7.1820
G01 Z-1.9000
G01 Z0
G00 Z15.0000
G00 X22.8406 Y25.7680
G01 Z-1.9000
G01 Z0
G00 Z15.0000
G00 X17.2396 Y41.6420
G01 Z-1.9000
G01 Z0
G00 Z15.0000
G00 X17.3936 Y46.1260
G01 Z-1.9000
G01 Z0
G00 Z15.0000
G00 X25.0136 Y46.1260
G01 Z-1.9000
G01 Z0
G00 Z15.0000
G00 X24.8596 Y41.6420
G01 Z-1.9000
G01 Z0
G00 Z15.0000
G00 X60.7616 Y41.7910
G01 Z-1.9000
G01 Z0
G00 Z15.0000
G00 X60.5536 Y45.3460
G01 Z-1.9000
G01 Z0
G00 Z15.0000
G00 X68.1736 Y45.3460
G01 Z-1.9000
G01 Z0
G00 Z15.0000
G00 X68.3816 Y41.7910
G01 Z-1.9000
G01 Z0
G00 Z15.0000
G00 X59.7776 Y26.3630
G01 Z-1.9000
G01 Z0
G00 Z15.0000
G00 X59.7776 Y18.7430
G01 Z-1.9000
G01 Z0
G00 Z15.0000
M03 S12000.0
G00 X46.9786 Y34.1200
G01 Z-1.9000
G01 Z0
G00 Z15.0000
G00 X39.7506 Y34.1380
G01 Z-1.9000
G01 Z0
G00 Z15.0000
G00 X34.6476 Y44.8560
G01 Z-1.9000
G01 Z0
G00 Z15.0000
G00 X37.1876 Y44.8560
G01 Z-1.9000
G01 Z0
G00 Z15.0000
G00 X39.7276 Y44.8560
G01 Z-1.9000
G01 Z0
G00 Z15.0000
G00 X42.2676 Y44.8560
G01 Z-1.9000
G01 Z0
G00 Z15.0000
G00 X44.8076 Y44.8560
G01 Z-1.9000
G01 Z0
G00 Z15.0000
G00 X47.3476 Y44.8560
G01 Z-1.9000
G01 Z0
G00 Z15.0000
G00 X49.8876 Y44.8560
G01 Z-1.9000
G01 Z0
G00 Z15.0000
M05
G00 Z90.00
G00 X0.0 Y0.0

M02