(G-CODE GENERATED BY FLATCAM v8.97 - www.flatcam.org - Version Date: 2019/09/27)

(Name: Furação_1_2)
(Type: G-code from Excellon)
(Units: MM)

(Created on Thursday, 06 May 2021 at 14:16)

(Feedrate: 650.0 mm/min)
(Feedrate rapids 800.0009 mm/min)

(Z_Cut: -1.9 mm)
(Z_Move: 15.0 mm)
(Z Toolchange: 15.0 mm)
(X,Y Toolchange: 0.0000, 0.0000 mm)
(Z Start: None mm)
(Z End: 90.0 mm)
(Steps per circle: 128)
(Postprocessor Excellon: default)

(X range:    1.6181 ...   81.7586  mm)
(Y range:    1.7975 ...   46.5325  mm)

(Spindle Speed: 12000.0 RPM)

G21
G90
G94

G01 F650.00
G00 Z15.0000

M03 S12000.0
G00 X81.1086 Y5.1030
G01 Z-1.9000
G01 Z0
G00 Z15.0000
G00 X76.0286 Y5.1030
G01 Z-1.9000
G01 Z0
G00 Z15.0000
M05
G00 Z90.00
G00 X0.0 Y0.0

M02