(G-CODE GENERATED BY FLATCAM v8.97 - www.flatcam.org - Version Date: 2019/09/27)

(Name: Trilhas)
(Type: G-code from Geometry)
(Units: MM)

(Created on Monday, 03 May 2021 at 16:07)

(TOOL DIAMETER: 0.1 mm)
(Feedrate: 650.0 mm/min)
(Feedrate_Z: 650.0 mm/min)
(Feedrate rapids 79.9998 mm/min)

(Z_Cut: -0.11 mm)
(DepthPerCut: 0.11 mm <=>1 passes)
(Z_Move: 15.0 mm)
(Z Toolchange: 12.7 mm)
(X,Y Toolchange: 0.0000, 0.0000 mm)
(Z Start: None mm)
(Z End: 90.0 mm)
(Steps per circle: 128)
(Postprocessor Geometry: default)

(X range:    0.3992 ...   83.8425  mm)
(Y range:    0.7296 ...   49.2769  mm)

(Spindle Speed: 12000 RPM)

G21
G90
G94

G01 F650.00
G00 Z15.0000

M03 S12000
G00 X0.4002 Y2.1639
G01 F650.00
G01 Z-0.1100
G01 F650.00
G01 X0.4034 Y2.1205
G01 X0.4085 Y2.0797
G01 X0.4153 Y2.0403
G01 X0.4246 Y1.9990
G01 X0.4357 Y1.9594
G01 X0.4478 Y1.9227
G01 X0.4635 Y1.8821
G01 X0.4801 Y1.8446
G01 X0.4976 Y1.8100
G01 X0.5190 Y1.7720
G01 X0.5411 Y1.7373
G01 X0.5642 Y1.7045
G01 X0.5886 Y1.6733
G01 X0.6154 Y1.6421
G01 X0.6446 Y1.6114
G01 X0.6753 Y1.5822
G01 X0.7048 Y1.5568
G01 X0.7377 Y1.5310
G01 X0.7705 Y1.5079
G01 X0.8052 Y1.4858
G01 X0.8432 Y1.4644
G01 X0.8778 Y1.4469
G01 X0.9153 Y1.4303
G01 X0.9559 Y1.4146
G01 X0.9950 Y1.4017
G01 X1.0322 Y1.3914
G01 X1.0735 Y1.3821
G01 X1.1129 Y1.3753
G01 X1.1537 Y1.3702
G01 X1.1971 Y1.3670
G01 X1.2370 Y1.3660
G01 X2.8130 Y1.3660
G01 X2.8541 Y1.3671
G01 X2.8951 Y1.3702
G01 X2.9359 Y1.3753
G01 X2.9753 Y1.3821
G01 X3.0142 Y1.3908
G01 X3.0538 Y1.4017
G01 X3.0929 Y1.4146
G01 X3.1318 Y1.4295
G01 X3.1710 Y1.4469
G01 X3.2056 Y1.4644
G01 X3.2415 Y1.4846
G01 X3.2762 Y1.5065
G01 X3.3111 Y1.5310
G01 X3.3423 Y1.5554
G01 X3.3735 Y1.5822
G01 X3.4042 Y1.6114
G01 X3.4317 Y1.6403
G01 X3.4588 Y1.6716
G01 X3.4846 Y1.7045
G01 X3.5091 Y1.7394
G01 X3.5299 Y1.7722
G01 X3.5512 Y1.8100
G01 X3.5687 Y1.8446
G01 X3.5861 Y1.8838
G01 X3.6010 Y1.9227
G01 X3.6139 Y1.9618
G01 X3.6248 Y2.0014
G01 X3.6335 Y2.0403
G01 X3.6403 Y2.0797
G01 X3.6455 Y2.1208
G01 X3.6486 Y2.1639
G01 X3.6496 Y2.2050
G01 X3.6485 Y2.2461
G01 X3.6457 Y2.2847
G01 X3.6403 Y2.3279
G01 X3.6335 Y2.3673
G01 X3.6248 Y2.4062
G01 X3.6139 Y2.4458
G01 X3.6010 Y2.4849
G01 X3.5853 Y2.5255
G01 X3.5687 Y2.5630
G01 X3.5512 Y2.5976
G01 X3.5298 Y2.6356
G01 X3.5077 Y2.6703
G01 X3.4854 Y2.7019
G01 X3.4586 Y2.7362
G01 X3.4317 Y2.7673
G01 X3.4042 Y2.7962
G01 X3.3735 Y2.8254
G01 X3.3440 Y2.8508
G01 X3.3111 Y2.8766
G01 X3.2783 Y2.8997
G01 X3.2436 Y2.9218
G01 X3.2056 Y2.9432
G01 X3.1710 Y2.9607
G01 X3.1335 Y2.9773
G01 X3.0929 Y2.9930
G01 X3.0538 Y3.0059
G01 X3.0166 Y3.0162
G01 X2.9753 Y3.0255
G01 X2.9359 Y3.0323
G01 X2.8951 Y3.0374
G01 X2.8517 Y3.0406
G01 X2.8118 Y3.0416
G01 X1.2358 Y3.0416
G01 X1.1947 Y3.0405
G01 X1.1537 Y3.0374
G01 X1.1129 Y3.0323
G01 X1.0735 Y3.0255
G01 X1.0322 Y3.0162
G01 X0.9926 Y3.0051
G01 X0.9536 Y2.9922
G01 X0.9153 Y2.9773
G01 X0.8778 Y2.9607
G01 X0.8410 Y2.9421
G01 X0.8052 Y2.9218
G01 X0.7705 Y2.8997
G01 X0.7370 Y2.8760
G01 X0.7046 Y2.8506
G01 X0.6753 Y2.8254
G01 X0.6446 Y2.7962
G01 X0.6171 Y2.7673
G01 X0.5900 Y2.7360
G01 X0.5642 Y2.7031
G01 X0.5411 Y2.6703
G01 X0.5189 Y2.6354
G01 X0.4987 Y2.5998
G01 X0.4801 Y2.5630
G01 X0.4627 Y2.5238
G01 X0.4486 Y2.4872
G01 X0.4357 Y2.4482
G01 X0.4246 Y2.4086
G01 X0.4153 Y2.3673
G01 X0.4085 Y2.3279
G01 X0.4033 Y2.2868
G01 X0.4003 Y2.2461
G01 X0.3992 Y2.2038
G01 X0.4002 Y2.1639
G00 Z15.0000
G00 X0.4002 Y4.6531
G01 F650.00
G01 Z-0.1100
G01 F650.00
G01 X0.4034 Y4.6097
G01 X0.4085 Y4.5689
G01 X0.4153 Y4.5295
G01 X0.4246 Y4.4882
G01 X0.4357 Y4.4486
G01 X0.4478 Y4.4119
G01 X0.4635 Y4.3713
G01 X0.4801 Y4.3338
G01 X0.4987 Y4.2970
G01 X0.5190 Y4.2612
G01 X0.5397 Y4.2286
G01 X0.5648 Y4.1930
G01 X0.5902 Y4.1606
G01 X0.6171 Y4.1295
G01 X0.6446 Y4.1006
G01 X0.6735 Y4.0731
G01 X0.7065 Y4.0446
G01 X0.7377 Y4.0202
G01 X0.7705 Y3.9971
G01 X0.8073 Y3.9738
G01 X0.8432 Y3.9536
G01 X0.8778 Y3.9361
G01 X0.9170 Y3.9187
G01 X0.9536 Y3.9046
G01 X0.9950 Y3.8909
G01 X1.0346 Y3.8800
G01 X1.0735 Y3.8713
G01 X1.1129 Y3.8645
G01 X1.1561 Y3.8591
G01 X1.1971 Y3.8562
G01 X1.2358 Y3.8552
G01 X2.8118 Y3.8552
G01 X2.8517 Y3.8562
G01 X2.8927 Y3.8591
G01 X2.9359 Y3.8645
G01 X2.9753 Y3.8713
G01 X3.0142 Y3.8800
G01 X3.0538 Y3.8909
G01 X3.0929 Y3.9038
G01 X3.1335 Y3.9195
G01 X3.1710 Y3.9361
G01 X3.2056 Y3.9536
G01 X3.2436 Y3.9750
G01 X3.2762 Y3.9957
G01 X3.2941 Y4.0082
G01 X3.3283 Y4.0107
G01 X3.3617 Y4.0147
G01 X3.3961 Y4.0206
G01 X3.4277 Y4.0277
G01 X3.4601 Y4.0366
G01 X3.4921 Y4.0471
G01 X3.5240 Y4.0594
G01 X3.5543 Y4.0727
G01 X3.5865 Y4.0890
G01 X3.6157 Y4.1056
G01 X3.6421 Y4.1223
G01 X3.6716 Y4.1431
G01 X3.6981 Y4.1638
G01 X3.7217 Y4.1842
G01 X3.7470 Y4.2082
G01 X6.0542 Y6.5154
G01 X6.0766 Y6.5389
G01 X6.0988 Y6.5645
G01 X6.1199 Y6.5915
G01 X6.1387 Y6.6182
G01 X6.1580 Y6.6487
G01 X6.1746 Y6.6780
G01 X6.1886 Y6.7060
G01 X6.2032 Y6.7389
G01 X6.2153 Y6.7703
G01 X6.2250 Y6.7999
G01 X6.2347 Y6.8347
G01 X6.2417 Y6.8663
G01 X6.2473 Y6.8982
G01 X6.2517 Y6.9340
G01 X6.2541 Y6.9676
G01 X6.2549 Y6.9988
G01 X6.2549 Y13.7161
G01 X7.8535 Y15.3147
G01 X12.2857 Y15.3147
G01 X14.0850 Y13.5154
G01 X14.1103 Y13.4914
G01 X14.1341 Y13.4708
G01 X14.1604 Y13.4503
G01 X14.1899 Y13.4295
G01 X14.2164 Y13.4127
G01 X14.2476 Y13.3950
G01 X14.2756 Y13.3810
G01 X14.3062 Y13.3673
G01 X14.3399 Y13.3543
G01 X14.3718 Y13.3439
G01 X14.4019 Y13.3355
G01 X14.4371 Y13.3276
G01 X14.4703 Y13.3219
G01 X14.5015 Y13.3181
G01 X14.5347 Y13.3156
G01 X14.5696 Y13.3147
G01 X23.5708 Y13.3147
G01 X23.6045 Y13.3156
G01 X23.6356 Y13.3179
G01 X23.6689 Y13.3219
G01 X23.7021 Y13.3276
G01 X23.7373 Y13.3355
G01 X23.7697 Y13.3446
G01 X23.7993 Y13.3543
G01 X23.8330 Y13.3673
G01 X23.8636 Y13.3810
G01 X23.8916 Y13.3950
G01 X23.9230 Y13.4128
G01 X23.9514 Y13.4309
G01 X23.9781 Y13.4497
G01 X24.0034 Y13.4695
G01 X24.0289 Y13.4914
G01 X24.0542 Y13.5154
G01 X26.0542 Y15.5154
G01 X26.0766 Y15.5389
G01 X26.0988 Y15.5645
G01 X26.1208 Y15.5928
G01 X26.1401 Y15.6203
G01 X26.1569 Y15.6468
G01 X26.1734 Y15.6759
G01 X26.1886 Y15.7060
G01 X26.2032 Y15.7389
G01 X26.2153 Y15.7703
G01 X26.2257 Y15.8022
G01 X26.2341 Y15.8323
G01 X26.2417 Y15.8663
G01 X26.2477 Y15.9007
G01 X26.2515 Y15.9319
G01 X26.2540 Y15.9651
G01 X26.2549 Y16.0000
G01 X26.2549 Y21.7161
G01 X34.8535 Y30.3147
G01 X36.6129 Y30.3147
G01 X36.6478 Y30.3156
G01 X36.6801 Y30.3180
G01 X36.7122 Y30.3219
G01 X36.7467 Y30.3279
G01 X36.7794 Y30.3352
G01 X36.8107 Y30.3439
G01 X36.8438 Y30.3548
G01 X36.8752 Y30.3668
G01 X36.9048 Y30.3800
G01 X36.9360 Y30.3956
G01 X36.9663 Y30.4128
G01 X36.9937 Y30.4302
G01 X37.0211 Y30.4495
G01 X37.0486 Y30.4711
G01 X37.0732 Y30.4922
G01 X37.0975 Y30.5154
G01 X39.7808 Y33.1990
G01 X40.1188 Y33.1990
G01 X40.1258 Y33.1995
G01 X40.1326 Y33.2009
G01 X40.1391 Y33.2033
G01 X40.1435 Y33.2055
G01 X40.1496 Y33.2096
G01 X40.1542 Y33.2136
G01 X40.6764 Y33.7359
G01 X40.6818 Y33.7430
G01 X40.6862 Y33.7516
G01 X40.6887 Y33.7605
G01 X40.6896 Y33.7698
G01 X40.6896 Y34.5062
G01 X40.6887 Y34.5155
G01 X40.6870 Y34.5222
G01 X40.6831 Y34.5309
G01 X40.6790 Y34.5370
G01 X40.6750 Y34.5416
G01 X40.1542 Y35.0624
G01 X40.1496 Y35.0664
G01 X40.1456 Y35.0692
G01 X40.1370 Y35.0736
G01 X40.1281 Y35.0761
G01 X40.1188 Y35.0770
G01 X39.3824 Y35.0770
G01 X39.3754 Y35.0765
G01 X39.3709 Y35.0757
G01 X39.3621 Y35.0727
G01 X39.3536 Y35.0679
G01 X39.3470 Y35.0624
G01 X38.8262 Y34.5416
G01 X38.8222 Y34.5370
G01 X38.8194 Y34.5330
G01 X38.8159 Y34.5265
G01 X38.8135 Y34.5200
G01 X38.8121 Y34.5132
G01 X38.8116 Y34.5062
G01 X38.8116 Y34.1681
G01 X36.3290 Y31.6853
G01 X34.5696 Y31.6853
G01 X34.5347 Y31.6844
G01 X34.5012 Y31.6819
G01 X34.4703 Y31.6781
G01 X34.4359 Y31.6721
G01 X34.4043 Y31.6651
G01 X34.3718 Y31.6561
G01 X34.3376 Y31.6448
G01 X34.3079 Y31.6334
G01 X34.2777 Y31.6200
G01 X34.2455 Y31.6038
G01 X34.2162 Y31.5872
G01 X34.1899 Y31.5705
G01 X34.1604 Y31.5497
G01 X34.1339 Y31.5290
G01 X34.1103 Y31.5086
G01 X34.0850 Y31.4846
G01 X25.0850 Y22.4846
G01 X25.0610 Y22.4593
G01 X25.0404 Y22.4355
G01 X25.0193 Y22.4085
G01 X25.0005 Y22.3818
G01 X24.9824 Y22.3534
G01 X24.9646 Y22.3220
G01 X24.9506 Y22.2940
G01 X24.9362 Y22.2617
G01 X24.9248 Y22.2320
G01 X24.9142 Y22.2001
G01 X24.9051 Y22.1677
G01 X24.8977 Y22.1349
G01 X24.8915 Y22.0993
G01 X24.8877 Y22.0681
G01 X24.8851 Y22.0324
G01 X24.8843 Y22.0000
G01 X24.8843 Y16.2839
G01 X23.2857 Y14.6853
G01 X14.8535 Y14.6853
G01 X13.0542 Y16.4846
G01 X13.0307 Y16.5070
G01 X13.0051 Y16.5292
G01 X12.9768 Y16.5512
G01 X12.9493 Y16.5705
G01 X12.9228 Y16.5873
G01 X12.8937 Y16.6038
G01 X12.8636 Y16.6190
G01 X12.8307 Y16.6336
G01 X12.7993 Y16.6457
G01 X12.7674 Y16.6561
G01 X12.7373 Y16.6645
G01 X12.7034 Y16.6721
G01 X12.6689 Y16.6781
G01 X12.6377 Y16.6819
G01 X12.6045 Y16.6844
G01 X12.5696 Y16.6853
G01 X7.5696 Y16.6853
G01 X7.5347 Y16.6844
G01 X7.5012 Y16.6819
G01 X7.4678 Y16.6777
G01 X7.4358 Y16.6721
G01 X7.4019 Y16.6645
G01 X7.3695 Y16.6554
G01 X7.3376 Y16.6448
G01 X7.3062 Y16.6327
G01 X7.2756 Y16.6190
G01 X7.2455 Y16.6038
G01 X7.2162 Y16.5872
G01 X7.1878 Y16.5691
G01 X7.1611 Y16.5503
G01 X7.1339 Y16.5290
G01 X7.1085 Y16.5070
G01 X7.0859 Y16.4854
G01 X5.0842 Y14.4837
G01 X5.0610 Y14.4593
G01 X5.0404 Y14.4355
G01 X5.0199 Y14.4092
G01 X4.9991 Y14.3797
G01 X4.9812 Y14.3513
G01 X4.9646 Y14.3220
G01 X4.9506 Y14.2941
G01 X4.9362 Y14.2617
G01 X4.9239 Y14.2297
G01 X4.9135 Y14.1978
G01 X4.9051 Y14.1677
G01 X4.8975 Y14.1337
G01 X4.8915 Y14.0993
G01 X4.8877 Y14.0681
G01 X4.8852 Y14.0349
G01 X4.8843 Y14.0000
G01 X4.8843 Y7.2839
G01 X3.0852 Y5.4848
G01 X3.0538 Y5.4951
G01 X3.0142 Y5.5060
G01 X2.9753 Y5.5147
G01 X2.9359 Y5.5215
G01 X2.8927 Y5.5269
G01 X2.8517 Y5.5298
G01 X2.8118 Y5.5308
G01 X1.2358 Y5.5308
G01 X1.1947 Y5.5297
G01 X1.1561 Y5.5269
G01 X1.1129 Y5.5215
G01 X1.0735 Y5.5147
G01 X1.0346 Y5.5060
G01 X0.9926 Y5.4943
G01 X0.9536 Y5.4814
G01 X0.9170 Y5.4673
G01 X0.8778 Y5.4499
G01 X0.8432 Y5.4324
G01 X0.8052 Y5.4110
G01 X0.7705 Y5.3889
G01 X0.7377 Y5.3658
G01 X0.7065 Y5.3414
G01 X0.6753 Y5.3146
G01 X0.6437 Y5.2845
G01 X0.6154 Y5.2547
G01 X0.5900 Y5.2252
G01 X0.5642 Y5.1923
G01 X0.5411 Y5.1595
G01 X0.5178 Y5.1227
G01 X0.4976 Y5.0868
G01 X0.4801 Y5.0522
G01 X0.4628 Y5.0130
G01 X0.4486 Y4.9764
G01 X0.4349 Y4.9350
G01 X0.4240 Y4.8954
G01 X0.4153 Y4.8565
G01 X0.4085 Y4.8171
G01 X0.4034 Y4.7763
G01 X0.4002 Y4.7329
G01 X0.3992 Y4.6930
G01 X0.4002 Y4.6531
G00 Z15.0000
G00 X0.4002 Y7.1423
G01 F650.00
G01 Z-0.1100
G01 F650.00
G01 X0.4031 Y7.1013
G01 X0.4085 Y7.0581
G01 X0.4153 Y7.0187
G01 X0.4240 Y6.9798
G01 X0.4349 Y6.9402
G01 X0.4486 Y6.8988
G01 X0.4635 Y6.8605
G01 X0.4802 Y6.8229
G01 X0.4987 Y6.7862
G01 X0.5178 Y6.7525
G01 X0.5397 Y6.7178
G01 X0.5642 Y6.6829
G01 X0.5886 Y6.6517
G01 X0.6154 Y6.6205
G01 X0.6446 Y6.5898
G01 X0.6735 Y6.5623
G01 X0.7048 Y6.5352
G01 X0.7287 Y6.5165
G01 X0.7338 Y6.4642
G01 X0.7363 Y6.4495
G01 X0.7484 Y6.4018
G01 X0.7528 Y6.3881
G01 X0.7724 Y6.3403
G01 X0.7780 Y6.3290
G01 X0.8040 Y6.2845
G01 X0.8122 Y6.2725
G01 X0.8279 Y6.2532
G01 X0.8430 Y6.2338
G01 X0.8529 Y6.2230
G01 X0.8710 Y6.2062
G01 X0.8886 Y6.1892
G01 X0.8985 Y6.1810
G01 X0.9423 Y6.1498
G01 X0.9528 Y6.1435
G01 X0.9967 Y6.1208
G01 X1.0100 Y6.1150
G01 X1.0336 Y6.1071
G01 X1.0544 Y6.0995
G01 X1.0711 Y6.0948
G01 X1.0951 Y6.0903
G01 X1.1192 Y6.0852
G01 X1.1315 Y6.0836
G01 X1.1842 Y6.0805
G01 X2.7144 Y6.0805
G01 X2.7286 Y6.0816
G01 X2.7514 Y6.0820
G01 X2.7874 Y6.0874
G01 X2.7998 Y6.0886
G01 X2.8170 Y6.0921
G01 X2.8400 Y6.0991
G01 X2.8632 Y6.1054
G01 X2.8803 Y6.1118
G01 X2.9001 Y6.1210
G01 X2.9220 Y6.1305
G01 X2.9338 Y6.1367
G01 X2.9563 Y6.1509
G01 X2.9749 Y6.1622
G01 X2.9897 Y6.1729
G01 X3.0079 Y6.1887
G01 X3.0264 Y6.2038
G01 X4.2009 Y7.3779
G01 X4.2101 Y7.3888
G01 X4.2274 Y7.4069
G01 X4.2476 Y7.4344
G01 X4.2575 Y7.4469
G01 X4.2651 Y7.4586
G01 X4.2896 Y7.5031
G01 X4.2951 Y7.5151
G01 X4.3035 Y7.5377
G01 X4.3116 Y7.5580
G01 X4.3164 Y7.5733
G01 X4.3220 Y7.5988
G01 X4.3278 Y7.6222
G01 X4.3299 Y7.6361
G01 X4.3342 Y7.6858
G01 X4.3345 Y7.7006
G01 X4.3345 Y14.2457
G01 X4.5226 Y14.6996
G01 X6.8700 Y17.0470
G01 X7.3239 Y17.2351
G01 X12.8153 Y17.2351
G01 X13.2692 Y17.0470
G01 X14.9475 Y15.3687
G01 X14.9584 Y15.3595
G01 X14.9747 Y15.3437
G01 X15.0040 Y15.3220
G01 X15.0142 Y15.3137
G01 X15.0282 Y15.3045
G01 X15.0494 Y15.2931
G01 X15.0705 Y15.2811
G01 X15.0868 Y15.2737
G01 X15.1317 Y15.2566
G01 X15.1450 Y15.2526
G01 X15.1684 Y15.2476
G01 X15.1894 Y15.2424
G01 X15.2077 Y15.2394
G01 X15.2316 Y15.2377
G01 X15.2554 Y15.2354
G01 X15.2702 Y15.2351
G01 X22.8690 Y15.2351
G01 X22.8832 Y15.2362
G01 X22.9084 Y15.2368
G01 X22.9420 Y15.2420
G01 X22.9544 Y15.2432
G01 X22.9716 Y15.2467
G01 X22.9946 Y15.2537
G01 X23.0178 Y15.2600
G01 X23.0349 Y15.2664
G01 X23.0547 Y15.2756
G01 X23.0766 Y15.2851
G01 X23.0884 Y15.2913
G01 X23.1109 Y15.3055
G01 X23.1295 Y15.3168
G01 X23.1443 Y15.3275
G01 X23.1625 Y15.3433
G01 X23.1810 Y15.3584
G01 X23.8061 Y15.9833
G01 X23.8143 Y15.9931
G01 X23.8374 Y16.0183
G01 X23.8519 Y16.0388
G01 X23.8612 Y16.0506
G01 X23.8672 Y16.0611
G01 X23.8751 Y16.0728
G01 X23.8831 Y16.0888
G01 X23.8921 Y16.1044
G01 X23.8975 Y16.1175
G01 X23.9036 Y16.1300
G01 X23.9094 Y16.1471
G01 X23.9166 Y16.1658
G01 X23.9196 Y16.1774
G01 X23.9238 Y16.1909
G01 X23.9271 Y16.2083
G01 X23.9314 Y16.2259
G01 X23.9330 Y16.2399
G01 X23.9353 Y16.2536
G01 X23.9362 Y16.2715
G01 X23.9379 Y16.2895
G01 X23.9375 Y16.3037
G01 X23.9379 Y16.3178
G01 X23.9362 Y16.3356
G01 X23.9354 Y16.3534
G01 X23.9332 Y16.3671
G01 X23.9320 Y16.3790
G01 X23.9274 Y16.3989
G01 X23.9235 Y16.4186
G01 X23.9199 Y16.4299
G01 X23.9163 Y16.4435
G01 X23.9098 Y16.4602
G01 X23.9040 Y16.4772
G01 X23.8980 Y16.4899
G01 X23.8925 Y16.5029
G01 X23.8837 Y16.5185
G01 X23.8757 Y16.5346
G01 X23.8679 Y16.5462
G01 X23.8608 Y16.5584
G01 X23.8499 Y16.5726
G01 X23.8397 Y16.5874
G01 X23.8302 Y16.5980
G01 X23.8214 Y16.6090
G01 X23.8087 Y16.6215
G01 X23.7966 Y16.6346
G01 X23.7857 Y16.6439
G01 X23.7772 Y16.6520
G01 X23.7611 Y16.6641
G01 X23.7471 Y16.6755
G01 X23.7353 Y16.6830
G01 X23.7257 Y16.6899
G01 X23.7079 Y16.6997
G01 X23.6906 Y16.7099
G01 X23.6798 Y16.7147
G01 X23.6673 Y16.7211
G01 X23.6504 Y16.7274
G01 X23.6340 Y16.7344
G01 X23.6204 Y16.7384
G01 X23.6072 Y16.7429
G01 X23.5897 Y16.7468
G01 X23.5721 Y16.7515
G01 X23.5582 Y16.7535
G01 X23.5444 Y16.7562
G01 X23.5267 Y16.7575
G01 X23.5088 Y16.7597
G01 X23.4946 Y16.7597
G01 X23.4818 Y16.7605
G01 X22.2659 Y16.7605
G01 X22.2471 Y16.7794
G01 X22.2362 Y16.7886
G01 X22.2199 Y16.8044
G01 X22.1906 Y16.8261
G01 X22.1804 Y16.8344
G01 X22.1645 Y16.8446
G01 X22.1243 Y16.8669
G01 X22.1119 Y16.8727
G01 X22.0624 Y16.8916
G01 X22.0572 Y16.8929
G01 X22.0498 Y16.8954
G01 X22.0262 Y16.9005
G01 X22.0051 Y16.9057
G01 X21.9870 Y16.9087
G01 X21.9370 Y16.9128
G01 X18.1755 Y16.9133
G01 X17.7215 Y17.1014
G01 X15.6826 Y19.1404
G01 X15.4945 Y19.5943
G01 X15.4945 Y20.6597
G01 X15.4933 Y20.6747
G01 X15.4918 Y20.7095
G01 X15.4876 Y20.7337
G01 X15.4863 Y20.7458
G01 X15.4826 Y20.7606
G01 X15.4804 Y20.7724
G01 X15.4742 Y20.7915
G01 X15.4688 Y20.8108
G01 X15.4641 Y20.8219
G01 X15.4598 Y20.8343
G01 X15.3675 Y21.0570
G01 X15.3675 Y23.1230
G01 X15.5749 Y23.6236
G01 X15.9580 Y24.0067
G01 X16.4586 Y24.2141
G01 X17.0006 Y24.2141
G01 X17.4041 Y24.0469
G01 X17.4647 Y24.0267
G01 X17.4782 Y24.0241
G01 X17.4891 Y24.0212
G01 X17.5074 Y24.0188
G01 X17.5253 Y24.0155
G01 X17.5393 Y24.0146
G01 X17.5529 Y24.0131
G01 X17.5710 Y24.0133
G01 X17.5893 Y24.0125
G01 X17.6033 Y24.0136
G01 X17.6169 Y24.0141
G01 X17.6349 Y24.0168
G01 X17.6531 Y24.0186
G01 X17.6664 Y24.0216
G01 X17.6801 Y24.0239
G01 X17.6976 Y24.0291
G01 X17.7153 Y24.0335
G01 X17.7282 Y24.0384
G01 X17.7414 Y24.0426
G01 X17.7578 Y24.0501
G01 X17.7748 Y24.0570
G01 X17.7869 Y24.0636
G01 X17.7994 Y24.0696
G01 X17.8146 Y24.0794
G01 X17.8304 Y24.0884
G01 X17.8415 Y24.0967
G01 X17.8511 Y24.1030
G01 X17.8668 Y24.1163
G01 X17.8813 Y24.1276
G01 X17.8910 Y24.1373
G01 X17.9012 Y24.1464
G01 X17.9133 Y24.1602
G01 X17.9259 Y24.1732
G01 X17.9343 Y24.1842
G01 X17.9418 Y24.1930
G01 X17.9532 Y24.2101
G01 X17.9639 Y24.2248
G01 X17.9706 Y24.2370
G01 X17.9779 Y24.2486
G01 X17.9856 Y24.2650
G01 X17.9942 Y24.2811
G01 X17.9991 Y24.2939
G01 X18.0039 Y24.3043
G01 X18.0102 Y24.3241
G01 X18.0163 Y24.3413
G01 X18.0194 Y24.3545
G01 X18.0227 Y24.3655
G01 X18.0261 Y24.3860
G01 X18.0298 Y24.4038
G01 X18.0310 Y24.4173
G01 X18.0330 Y24.4311
G01 X18.0333 Y24.4495
G01 X18.0345 Y24.4687
G01 X18.0344 Y24.6018
G01 X18.0334 Y24.6136
G01 X18.0328 Y24.6388
G01 X18.0276 Y24.6724
G01 X18.0264 Y24.6848
G01 X18.0234 Y24.6996
G01 X18.0159 Y24.7250
G01 X18.0096 Y24.7482
G01 X18.0042 Y24.7630
G01 X17.9940 Y24.7851
G01 X17.9845 Y24.8070
G01 X17.9771 Y24.8210
G01 X17.9641 Y24.8413
G01 X17.9515 Y24.8620
G01 X17.9421 Y24.8747
G01 X17.9263 Y24.8929
G01 X17.9112 Y24.9114
G01 X17.9009 Y24.9221
G01 X13.6637 Y29.1593
G01 X13.6521 Y29.1691
G01 X13.6251 Y29.1936
G01 X13.6064 Y29.2067
G01 X13.5969 Y29.2144
G01 X13.5841 Y29.2220
G01 X13.5744 Y29.2287
G01 X13.5564 Y29.2379
G01 X13.5386 Y29.2480
G01 X13.5277 Y29.2523
G01 X13.5152 Y29.2584
G01 X13.4981 Y29.2642
G01 X13.4794 Y29.2714
G01 X13.4678 Y29.2744
G01 X13.4543 Y29.2786
G01 X13.4369 Y29.2819
G01 X13.4193 Y29.2862
G01 X13.4053 Y29.2878
G01 X13.3916 Y29.2901
G01 X13.3737 Y29.2910
G01 X13.3557 Y29.2927
G01 X13.3415 Y29.2923
G01 X13.3274 Y29.2927
G01 X13.3096 Y29.2910
G01 X13.2918 Y29.2902
G01 X13.2781 Y29.2880
G01 X13.2662 Y29.2868
G01 X13.2463 Y29.2822
G01 X13.2266 Y29.2783
G01 X13.2153 Y29.2747
G01 X13.2017 Y29.2711
G01 X13.1850 Y29.2646
G01 X13.1680 Y29.2588
G01 X13.1553 Y29.2528
G01 X13.1423 Y29.2473
G01 X13.1267 Y29.2385
G01 X13.1106 Y29.2305
G01 X13.0990 Y29.2227
G01 X13.0888 Y29.2169
G01 X13.0726 Y29.2047
G01 X13.0560 Y29.1930
G01 X13.0472 Y29.1850
G01 X13.0362 Y29.1762
G01 X13.0237 Y29.1635
G01 X13.0106 Y29.1514
G01 X13.0013 Y29.1405
G01 X12.9918 Y29.1303
G01 X12.9811 Y29.1159
G01 X12.9697 Y29.1019
G01 X12.9622 Y29.0901
G01 X12.9553 Y29.0805
G01 X12.9455 Y29.0627
G01 X12.9353 Y29.0454
G01 X12.9305 Y29.0346
G01 X12.9241 Y29.0221
G01 X12.9178 Y29.0052
G01 X12.9108 Y28.9888
G01 X12.9068 Y28.9752
G01 X12.9023 Y28.9620
G01 X12.8984 Y28.9445
G01 X12.8937 Y28.9269
G01 X12.8917 Y28.9130
G01 X12.8890 Y28.8992
G01 X12.8877 Y28.8815
G01 X12.8855 Y28.8636
G01 X12.8855 Y28.8494
G01 X12.8847 Y28.8366
G01 X12.8847 Y23.5203
G01 X12.8859 Y23.5053
G01 X12.8874 Y23.4705
G01 X12.8916 Y23.4463
G01 X12.8929 Y23.4342
G01 X12.8966 Y23.4194
G01 X12.8994 Y23.4052
G01 X12.9050 Y23.3885
G01 X12.9096 Y23.3716
G01 X12.9151 Y23.3581
G01 X12.9194 Y23.3457
G01 X13.0117 Y23.1230
G01 X13.0117 Y21.0570
G01 X12.8043 Y20.5564
G01 X12.4212 Y20.1733
G01 X11.9206 Y19.9659
G01 X11.3786 Y19.9659
G01 X10.8780 Y20.1733
G01 X10.4949 Y20.5564
G01 X10.2875 Y21.0570
G01 X10.2875 Y23.1230
G01 X10.3798 Y23.3457
G01 X10.3844 Y23.3602
G01 X10.3963 Y23.3929
G01 X10.4016 Y23.4166
G01 X10.4054 Y23.4295
G01 X10.4075 Y23.4436
G01 X10.4099 Y23.4555
G01 X10.4115 Y23.4753
G01 X10.4136 Y23.4928
G01 X10.4137 Y23.5070
G01 X10.4145 Y23.5203
G01 X10.4145 Y29.7907
G01 X10.4109 Y29.8476
G01 X10.4074 Y29.8665
G01 X10.4061 Y29.8780
G01 X10.4017 Y29.8951
G01 X10.3985 Y29.9105
G01 X10.3933 Y29.9259
G01 X10.3888 Y29.9417
G01 X10.3827 Y29.9562
G01 X10.3774 Y29.9708
G01 X10.3701 Y29.9854
G01 X10.3645 Y29.9985
G01 X10.3554 Y30.0139
G01 X10.3481 Y30.0278
G01 X10.3388 Y30.0412
G01 X10.3302 Y30.0551
G01 X10.3203 Y30.0673
G01 X10.3112 Y30.0799
G01 X10.3000 Y30.0920
G01 X10.2894 Y30.1046
G01 X10.2780 Y30.1151
G01 X10.2655 Y30.1281
G01 X10.2545 Y30.1368
G01 X10.2423 Y30.1478
G01 X10.2295 Y30.1567
G01 X10.2154 Y30.1676
G01 X10.2032 Y30.1749
G01 X10.1896 Y30.1840
G01 X10.1758 Y30.1910
G01 X10.1622 Y30.1989
G01 X10.1470 Y30.2055
G01 X10.1344 Y30.2116
G01 X10.1176 Y30.2175
G01 X10.1030 Y30.2235
G01 X10.0872 Y30.2277
G01 X10.0717 Y30.2328
G01 X10.0562 Y30.2357
G01 X10.0411 Y30.2395
G01 X10.0249 Y30.2415
G01 X10.0086 Y30.2443
G01 X9.9929 Y30.2450
G01 X9.9775 Y30.2466
G01 X9.9612 Y30.2463
G01 X9.9471 Y30.2469
G01 X9.9292 Y30.2454
G01 X9.9135 Y30.2448
G01 X9.8974 Y30.2423
G01 X9.8811 Y30.2405
G01 X9.8658 Y30.2369
G01 X9.8504 Y30.2341
G01 X9.8350 Y30.2294
G01 X9.8189 Y30.2253
G01 X9.8043 Y30.2196
G01 X9.7894 Y30.2147
G01 X9.7747 Y30.2078
G01 X9.7595 Y30.2016
G01 X9.7458 Y30.1938
G01 X9.7318 Y30.1869
G01 X9.7182 Y30.1780
G01 X9.7058 Y30.1709
G01 X9.6917 Y30.1602
G01 X9.6787 Y30.1515
G01 X9.6664 Y30.1407
G01 X9.6535 Y30.1304
G01 X9.6425 Y30.1192
G01 X9.6309 Y30.1087
G01 X9.6202 Y30.0963
G01 X9.6090 Y30.0844
G01 X9.5998 Y30.0719
G01 X9.5889 Y30.0589
G01 X8.6062 Y28.7060
G01 X8.6000 Y28.6969
G01 X8.5688 Y28.6450
G01 X7.7913 Y27.1186
G01 X7.7865 Y27.1086
G01 X7.7639 Y27.0523
G01 X7.2348 Y25.4231
G01 X7.2316 Y25.4124
G01 X7.2188 Y25.3569
G01 X6.9500 Y23.6591
G01 X6.9493 Y23.6471
G01 X6.9450 Y23.6082
G01 X6.9115 Y22.7516
G01 X6.9118 Y22.7436
G01 X6.9112 Y22.7337
G01 X6.9112 Y22.5890
G01 X6.8005 Y22.3218
G01 X6.5961 Y22.1173
G01 X6.3288 Y22.0065
G01 X3.1395 Y22.0061
G01 X2.8723 Y22.1168
G01 X2.7615 Y22.2275
G01 X2.6678 Y22.3212
G01 X2.5570 Y22.5885
G01 X2.5569 Y23.7639
G01 X2.8257 Y25.8079
G01 X3.3591 Y27.7993
G01 X4.1478 Y29.7041
G01 X5.1785 Y31.4897
G01 X6.4333 Y33.1254
G01 X7.2643 Y33.9566
G01 X7.5316 Y34.0674
G01 X7.8209 Y34.0674
G01 X8.0881 Y33.9567
G01 X10.3434 Y31.7020
G01 X10.4516 Y31.4409
G01 X10.4794 Y31.3850
G01 X10.4881 Y31.3719
G01 X10.4937 Y31.3622
G01 X10.5051 Y31.3473
G01 X10.5154 Y31.3323
G01 X10.5245 Y31.3221
G01 X10.5315 Y31.3130
G01 X10.5462 Y31.2984
G01 X10.5586 Y31.2850
G01 X10.5692 Y31.2761
G01 X10.5790 Y31.2667
G01 X10.5937 Y31.2559
G01 X10.6099 Y31.2428
G01 X10.6196 Y31.2369
G01 X10.6307 Y31.2290
G01 X10.6469 Y31.2203
G01 X10.6625 Y31.2109
G01 X10.6750 Y31.2052
G01 X10.6874 Y31.1988
G01 X10.7044 Y31.1925
G01 X10.7210 Y31.1854
G01 X10.7344 Y31.1814
G01 X10.7473 Y31.1770
G01 X10.7653 Y31.1730
G01 X10.7830 Y31.1683
G01 X10.7964 Y31.1664
G01 X10.8075 Y31.1640
G01 X10.8282 Y31.1623
G01 X10.8462 Y31.1601
G01 X10.8599 Y31.1600
G01 X10.8738 Y31.1592
G01 X10.8921 Y31.1604
G01 X10.9104 Y31.1608
G01 X10.9240 Y31.1627
G01 X10.9377 Y31.1639
G01 X10.9554 Y31.1676
G01 X10.9759 Y31.1709
G01 X10.9868 Y31.1742
G01 X11.0002 Y31.1773
G01 X11.0174 Y31.1835
G01 X11.0349 Y31.1889
G01 X11.0473 Y31.1944
G01 X11.0603 Y31.1994
G01 X11.0764 Y31.2080
G01 X11.0929 Y31.2157
G01 X11.1045 Y31.2229
G01 X11.1166 Y31.2296
G01 X11.1314 Y31.2404
G01 X11.1468 Y31.2504
G01 X11.1571 Y31.2591
G01 X11.1663 Y31.2659
G01 X11.1963 Y31.2933
G01 X11.2274 Y31.3269
G01 X11.2477 Y31.3545
G01 X11.2557 Y31.3643
G01 X11.2651 Y31.3786
G01 X11.2766 Y31.4000
G01 X11.2885 Y31.4209
G01 X11.2942 Y31.4331
G01 X11.3124 Y31.4802
G01 X11.3164 Y31.4933
G01 X11.3220 Y31.5189
G01 X11.3278 Y31.5423
G01 X11.3299 Y31.5560
G01 X11.3319 Y31.5820
G01 X11.3343 Y31.6061
G01 X11.3345 Y31.6206
G01 X11.3345 Y41.5477
G01 X11.5226 Y42.0016
G01 X15.8725 Y46.3515
G01 X15.8817 Y46.3624
G01 X15.8990 Y46.3805
G01 X15.9192 Y46.4080
G01 X15.9275 Y46.4182
G01 X15.9367 Y46.4322
G01 X15.9612 Y46.4767
G01 X15.9667 Y46.4887
G01 X15.9751 Y46.5113
G01 X15.9832 Y46.5316
G01 X15.9891 Y46.5512
G01 X15.9936 Y46.5724
G01 X15.9994 Y46.5958
G01 X16.0015 Y46.6097
G01 X16.0058 Y46.6594
G01 X16.0061 Y46.7007
G01 X16.8189 Y47.5135
G01 X17.9683 Y47.5135
G01 X18.7811 Y46.7007
G01 X18.7811 Y45.5513
G01 X17.9683 Y44.7385
G01 X17.9418 Y44.7385
G01 X17.9276 Y44.7374
G01 X17.9048 Y44.7370
G01 X17.8688 Y44.7316
G01 X17.8564 Y44.7304
G01 X17.8370 Y44.7263
G01 X17.8162 Y44.7200
G01 X17.7929 Y44.7136
G01 X17.7782 Y44.7082
G01 X17.7561 Y44.6980
G01 X17.7342 Y44.6885
G01 X17.7224 Y44.6823
G01 X17.6792 Y44.6555
G01 X17.6647 Y44.6446
G01 X17.6483 Y44.6303
G01 X17.6298 Y44.6152
G01 X17.6191 Y44.6049
G01 X16.8227 Y43.8085
G01 X16.8129 Y43.7969
G01 X16.7898 Y43.7717
G01 X16.7753 Y43.7512
G01 X16.7676 Y43.7417
G01 X16.7600 Y43.7289
G01 X16.7521 Y43.7172
G01 X16.7441 Y43.7012
G01 X16.7351 Y43.6856
G01 X16.7297 Y43.6725
G01 X16.7236 Y43.6600
G01 X16.7178 Y43.6429
G01 X16.7106 Y43.6242
G01 X16.7076 Y43.6126
G01 X16.7034 Y43.5991
G01 X16.7001 Y43.5817
G01 X16.6958 Y43.5641
G01 X16.6942 Y43.5501
G01 X16.6919 Y43.5364
G01 X16.6910 Y43.5185
G01 X16.6892 Y43.4981
G01 X16.6897 Y43.4863
G01 X16.6893 Y43.4722
G01 X16.6910 Y43.4544
G01 X16.6920 Y43.4344
G01 X16.6940 Y43.4229
G01 X16.6956 Y43.4085
G01 X16.6999 Y43.3911
G01 X16.7036 Y43.3715
G01 X16.7073 Y43.3601
G01 X16.7109 Y43.3465
G01 X16.7174 Y43.3298
G01 X16.7240 Y43.3107
G01 X16.7292 Y43.3001
G01 X16.7347 Y43.2871
G01 X16.7435 Y43.2715
G01 X16.7515 Y43.2554
G01 X16.7593 Y43.2438
G01 X16.7651 Y43.2336
G01 X16.7773 Y43.2174
G01 X16.7875 Y43.2026
G01 X16.7970 Y43.1920
G01 X16.8043 Y43.1827
G01 X16.8185 Y43.1685
G01 X16.8306 Y43.1554
G01 X16.8415 Y43.1461
G01 X16.8500 Y43.1380
G01 X16.8660 Y43.1260
G01 X16.8800 Y43.1145
G01 X16.8920 Y43.1070
G01 X16.9015 Y43.1001
G01 X16.9193 Y43.0903
G01 X16.9346 Y43.0811
G01 X16.9474 Y43.0753
G01 X16.9599 Y43.0689
G01 X16.9768 Y43.0626
G01 X16.9953 Y43.0549
G01 X17.0068 Y43.0516
G01 X17.0200 Y43.0471
G01 X17.0375 Y43.0432
G01 X17.0551 Y43.0385
G01 X17.0690 Y43.0365
G01 X17.0828 Y43.0338
G01 X17.1005 Y43.0325
G01 X17.1208 Y43.0301
G01 X17.1326 Y43.0303
G01 X17.1454 Y43.0295
G01 X17.8143 Y43.0295
G01 X18.6271 Y42.2167
G01 X18.6271 Y41.0673
G01 X17.8143 Y40.2545
G01 X17.7878 Y40.2545
G01 X17.7736 Y40.2534
G01 X17.7508 Y40.2530
G01 X17.7148 Y40.2476
G01 X17.7024 Y40.2464
G01 X17.6828 Y40.2422
G01 X17.6622 Y40.2359
G01 X17.6390 Y40.2296
G01 X17.6317 Y40.2267
G01 X17.6265 Y40.2251
G01 X17.5802 Y40.2045
G01 X17.5641 Y40.1958
G01 X17.5459 Y40.1841
G01 X17.5252 Y40.1715
G01 X17.5144 Y40.1635
G01 X17.4741 Y40.1296
G01 X15.9383 Y38.5941
G01 X15.9291 Y38.5832
G01 X15.9118 Y38.5651
G01 X15.8916 Y38.5376
G01 X15.8833 Y38.5274
G01 X15.8741 Y38.5134
G01 X15.8627 Y38.4922
G01 X15.8507 Y38.4711
G01 X15.8441 Y38.4568
G01 X15.8357 Y38.4342
G01 X15.8269 Y38.4120
G01 X15.8222 Y38.3966
G01 X15.8172 Y38.3732
G01 X15.8114 Y38.3498
G01 X15.8093 Y38.3359
G01 X15.8050 Y38.2862
G01 X15.8047 Y38.2714
G01 X15.8047 Y30.7006
G01 X15.8058 Y30.6864
G01 X15.8064 Y30.6612
G01 X15.8116 Y30.6276
G01 X15.8131 Y30.6131
G01 X15.8170 Y30.5956
G01 X15.8233 Y30.5750
G01 X15.8296 Y30.5518
G01 X15.8325 Y30.5445
G01 X15.8341 Y30.5393
G01 X15.8538 Y30.4950
G01 X15.8621 Y30.4790
G01 X15.8751 Y30.4587
G01 X15.8877 Y30.4380
G01 X15.8971 Y30.4253
G01 X15.9129 Y30.4071
G01 X15.9296 Y30.3869
G01 X20.3166 Y25.9996
G01 X20.5047 Y25.5457
G01 X20.5048 Y23.5179
G01 X20.5059 Y23.5053
G01 X20.5074 Y23.4705
G01 X20.5116 Y23.4463
G01 X20.5129 Y23.4342
G01 X20.5166 Y23.4194
G01 X20.5194 Y23.4052
G01 X20.5250 Y23.3885
G01 X20.5296 Y23.3716
G01 X20.5351 Y23.3581
G01 X20.5394 Y23.3457
G01 X20.6317 Y23.1230
G01 X20.6317 Y21.0570
G01 X20.4243 Y20.5564
G01 X20.0301 Y20.1623
G01 X20.0203 Y20.1507
G01 X19.9958 Y20.1238
G01 X19.9829 Y20.1051
G01 X19.9736 Y20.0934
G01 X19.9673 Y20.0827
G01 X19.9596 Y20.0711
G01 X19.9514 Y20.0551
G01 X19.9416 Y20.0373
G01 X19.9372 Y20.0264
G01 X19.9311 Y20.0139
G01 X19.9253 Y19.9968
G01 X19.9186 Y19.9800
G01 X19.9151 Y19.9664
G01 X19.9108 Y19.9531
G01 X19.9075 Y19.9354
G01 X19.9033 Y19.9180
G01 X19.9017 Y19.9041
G01 X19.8993 Y19.8900
G01 X19.8985 Y19.8721
G01 X19.8968 Y19.8545
G01 X19.8971 Y19.8404
G01 X19.8967 Y19.8261
G01 X19.8984 Y19.8083
G01 X19.8995 Y19.7879
G01 X19.9015 Y19.7764
G01 X19.9031 Y19.7626
G01 X19.9072 Y19.7451
G01 X19.9105 Y19.7274
G01 X19.9148 Y19.7139
G01 X19.9183 Y19.7003
G01 X19.9249 Y19.6837
G01 X19.9305 Y19.6668
G01 X19.9366 Y19.6539
G01 X19.9421 Y19.6409
G01 X19.9509 Y19.6253
G01 X19.9589 Y19.6092
G01 X19.9667 Y19.5976
G01 X19.9726 Y19.5873
G01 X19.9848 Y19.5712
G01 X19.9951 Y19.5564
G01 X20.0044 Y19.5459
G01 X20.0132 Y19.5349
G01 X20.0260 Y19.5224
G01 X20.0381 Y19.5092
G01 X20.0488 Y19.5001
G01 X20.0573 Y19.4919
G01 X20.0736 Y19.4797
G01 X20.0875 Y19.4684
G01 X20.0993 Y19.4609
G01 X20.1108 Y19.4528
G01 X20.1266 Y19.4442
G01 X20.1420 Y19.4349
G01 X20.1548 Y19.4291
G01 X20.1653 Y19.4236
G01 X20.1842 Y19.4165
G01 X20.2006 Y19.4094
G01 X20.2142 Y19.4055
G01 X20.2275 Y19.4008
G01 X20.2451 Y19.3971
G01 X20.2623 Y19.3924
G01 X20.2762 Y19.3904
G01 X20.2902 Y19.3876
G01 X20.3080 Y19.3863
G01 X20.3258 Y19.3842
G01 X20.3398 Y19.3841
G01 X20.3528 Y19.3833
G01 X21.9245 Y19.3832
G01 X21.9387 Y19.3843
G01 X21.9615 Y19.3847
G01 X21.9975 Y19.3901
G01 X22.0099 Y19.3913
G01 X22.0293 Y19.3954
G01 X22.0501 Y19.4017
G01 X22.0734 Y19.4081
G01 X22.0805 Y19.4110
G01 X22.0857 Y19.4125
G01 X22.1101 Y19.4236
G01 X22.1324 Y19.4332
G01 X22.1392 Y19.4372
G01 X22.1460 Y19.4405
G01 X22.1665 Y19.4536
G01 X22.1851 Y19.4650
G01 X22.2000 Y19.4756
G01 X22.2180 Y19.4914
G01 X22.2366 Y19.5065
G01 X22.2659 Y19.5355
G01 X23.4153 Y19.5355
G01 X23.5573 Y19.3936
G01 X23.5671 Y19.3854
G01 X23.5923 Y19.3623
G01 X23.6127 Y19.3480
G01 X23.6233 Y19.3394
G01 X23.6351 Y19.3325
G01 X23.6468 Y19.3246
G01 X23.6629 Y19.3165
G01 X23.6784 Y19.3077
G01 X23.6913 Y19.3023
G01 X23.7040 Y19.2961
G01 X23.7211 Y19.2903
G01 X23.7378 Y19.2837
G01 X23.7514 Y19.2802
G01 X23.7624 Y19.2765
G01 X23.7824 Y19.2726
G01 X23.7998 Y19.2684
G01 X23.8137 Y19.2668
G01 X23.8278 Y19.2644
G01 X23.8457 Y19.2636
G01 X23.8633 Y19.2619
G01 X23.8775 Y19.2622
G01 X23.8918 Y19.2618
G01 X23.9096 Y19.2635
G01 X23.9275 Y19.2643
G01 X23.9414 Y19.2666
G01 X23.9530 Y19.2678
G01 X23.9727 Y19.2724
G01 X23.9928 Y19.2762
G01 X24.0039 Y19.2799
G01 X24.0176 Y19.2834
G01 X24.0342 Y19.2900
G01 X24.0532 Y19.2965
G01 X24.0639 Y19.3017
G01 X24.0769 Y19.3072
G01 X24.0925 Y19.3160
G01 X24.1086 Y19.3240
G01 X24.1202 Y19.3318
G01 X24.1325 Y19.3390
G01 X24.1466 Y19.3499
G01 X24.1613 Y19.3601
G01 X24.1719 Y19.3694
G01 X24.1831 Y19.3784
G01 X24.1955 Y19.3911
G01 X24.2086 Y19.4032
G01 X24.2178 Y19.4140
G01 X24.2259 Y19.4224
G01 X24.2381 Y19.4386
G01 X24.2495 Y19.4526
G01 X24.2570 Y19.4644
G01 X24.2652 Y19.4760
G01 X24.2737 Y19.4918
G01 X24.2829 Y19.5071
G01 X24.2887 Y19.5200
G01 X24.2942 Y19.5305
G01 X24.3013 Y19.5492
G01 X24.3091 Y19.5678
G01 X24.3124 Y19.5793
G01 X24.3170 Y19.5927
G01 X24.3208 Y19.6101
G01 X24.3255 Y19.6275
G01 X24.3275 Y19.6415
G01 X24.3302 Y19.6553
G01 X24.3315 Y19.6731
G01 X24.3339 Y19.6933
G01 X24.3337 Y19.7051
G01 X24.3345 Y19.7179
G01 X24.3345 Y22.2457
G01 X24.5226 Y22.6996
G01 X28.8105 Y26.9877
G01 X28.8187 Y26.9975
G01 X28.8432 Y27.0245
G01 X28.8563 Y27.0432
G01 X28.8640 Y27.0527
G01 X28.8716 Y27.0655
G01 X28.8783 Y27.0752
G01 X28.8875 Y27.0932
G01 X28.8976 Y27.1110
G01 X28.9019 Y27.1219
G01 X28.9080 Y27.1344
G01 X28.9138 Y27.1515
G01 X28.9210 Y27.1702
G01 X28.9240 Y27.1818
G01 X28.9282 Y27.1953
G01 X28.9315 Y27.2127
G01 X28.9358 Y27.2303
G01 X28.9374 Y27.2443
G01 X28.9397 Y27.2580
G01 X28.9406 Y27.2759
G01 X28.9423 Y27.2939
G01 X28.9419 Y27.3081
G01 X28.9423 Y27.3222
G01 X28.9406 Y27.3400
G01 X28.9398 Y27.3578
G01 X28.9376 Y27.3715
G01 X28.9364 Y27.3834
G01 X28.9318 Y27.4033
G01 X28.9285 Y27.4208
G01 X28.9243 Y27.4343
G01 X28.9214 Y27.4458
G01 X28.9142 Y27.4646
G01 X28.9084 Y27.4816
G01 X28.9024 Y27.4943
G01 X28.8969 Y27.5073
G01 X28.8881 Y27.5229
G01 X28.8801 Y27.5390
G01 X28.8723 Y27.5506
G01 X28.8665 Y27.5608
G01 X28.8543 Y27.5770
G01 X28.8441 Y27.5918
G01 X28.8346 Y27.6024
G01 X28.8258 Y27.6134
G01 X28.8131 Y27.6259
G01 X28.8010 Y27.6390
G01 X28.7901 Y27.6483
G01 X28.7799 Y27.6578
G01 X28.7655 Y27.6685
G01 X28.7496 Y27.6812
G01 X28.7397 Y27.6874
G01 X28.7281 Y27.6956
G01 X28.7123 Y27.7041
G01 X28.6970 Y27.7133
G01 X28.6842 Y27.7191
G01 X28.6738 Y27.7245
G01 X28.6548 Y27.7318
G01 X28.6384 Y27.7388
G01 X28.6248 Y27.7428
G01 X28.6137 Y27.7467
G01 X28.5941 Y27.7512
G01 X28.5765 Y27.7559
G01 X28.5626 Y27.7579
G01 X28.5488 Y27.7606
G01 X28.5311 Y27.7619
G01 X28.5132 Y27.7641
G01 X28.4990 Y27.7641
G01 X28.4862 Y27.7649
G01 X26.7730 Y27.7649
G01 X26.7589 Y27.7638
G01 X26.7337 Y27.7632
G01 X26.7001 Y27.7580
G01 X26.6871 Y27.7567
G01 X26.6705 Y27.7533
G01 X26.6474 Y27.7463
G01 X26.6221 Y27.7392
G01 X26.6093 Y27.7345
G01 X26.5874 Y27.7245
G01 X26.5674 Y27.7158
G01 X26.5513 Y27.7075
G01 X26.5311 Y27.6943
G01 X26.5089 Y27.6807
G01 X26.4958 Y27.6709
G01 X26.4795 Y27.6567
G01 X26.4611 Y27.6416
G01 X26.4503 Y27.6313
G01 X24.3600 Y25.5407
G01 X24.3525 Y25.5316
G01 X24.3352 Y25.5135
G01 X24.3150 Y25.4860
G01 X24.3067 Y25.4758
G01 X24.2975 Y25.4618
G01 X24.2730 Y25.4173
G01 X24.2675 Y25.4052
G01 X24.2591 Y25.3826
G01 X24.2511 Y25.3624
G01 X24.2451 Y25.3428
G01 X24.2406 Y25.3216
G01 X24.2348 Y25.2983
G01 X24.2324 Y25.2824
G01 X24.2307 Y25.2584
G01 X24.2284 Y25.2346
G01 X24.2281 Y25.1933
G01 X23.4153 Y24.3805
G01 X22.2659 Y24.3805
G01 X21.4531 Y25.1933
G01 X21.4531 Y26.3427
G01 X22.2659 Y27.1555
G01 X22.2924 Y27.1555
G01 X22.3065 Y27.1566
G01 X22.3293 Y27.1570
G01 X22.3653 Y27.1624
G01 X22.3783 Y27.1637
G01 X22.3949 Y27.1671
G01 X22.4180 Y27.1741
G01 X22.4433 Y27.1812
G01 X22.4561 Y27.1859
G01 X22.4780 Y27.1959
G01 X22.4980 Y27.2046
G01 X22.5140 Y27.2129
G01 X22.5343 Y27.2260
G01 X22.5547 Y27.2384
G01 X22.5659 Y27.2465
G01 X22.6060 Y27.2804
G01 X25.3727 Y30.0470
G01 X25.8669 Y30.2517
G01 X25.8765 Y30.2539
G01 X25.8868 Y30.2576
G01 X25.8976 Y30.2607
G01 X25.9169 Y30.2689
G01 X25.9362 Y30.2763
G01 X25.9462 Y30.2815
G01 X25.9565 Y30.2862
G01 X25.9743 Y30.2969
G01 X25.9924 Y30.3069
G01 X26.0015 Y30.3133
G01 X26.0093 Y30.3182
G01 X26.0272 Y30.3326
G01 X26.0438 Y30.3450
G01 X26.0520 Y30.3528
G01 X26.0605 Y30.3601
G01 X26.0746 Y30.3753
G01 X26.0894 Y30.3901
G01 X26.0964 Y30.3989
G01 X26.1037 Y30.4072
G01 X26.1156 Y30.4243
G01 X26.1281 Y30.4409
G01 X26.1338 Y30.4507
G01 X26.1400 Y30.4601
G01 X26.1493 Y30.4784
G01 X26.1594 Y30.4965
G01 X26.1638 Y30.5073
G01 X26.1677 Y30.5153
G01 X26.1751 Y30.5369
G01 X26.1826 Y30.5563
G01 X26.1854 Y30.5672
G01 X26.1888 Y30.5780
G01 X26.1926 Y30.5985
G01 X26.1972 Y30.6186
G01 X26.1984 Y30.6296
G01 X26.2003 Y30.6409
G01 X26.2012 Y30.6617
G01 X26.2030 Y30.6824
G01 X26.2026 Y30.6937
G01 X26.2028 Y30.7049
G01 X26.2009 Y30.7255
G01 X26.1998 Y30.7462
G01 X26.1978 Y30.7573
G01 X26.1965 Y30.7686
G01 X26.1916 Y30.7889
G01 X26.1876 Y30.8091
G01 X26.1842 Y30.8196
G01 X26.1813 Y30.8307
G01 X26.1737 Y30.8501
G01 X26.1668 Y30.8696
G01 X26.1619 Y30.8796
G01 X26.1586 Y30.8879
G01 X26.1473 Y30.9082
G01 X26.1378 Y30.9266
G01 X26.1243 Y30.9475
G01 X26.1130 Y30.9620
G01 X26.1010 Y30.9789
G01 X26.0936 Y30.9872
G01 X26.0864 Y30.9962
G01 X26.0715 Y31.0107
G01 X26.0564 Y31.0265
G01 X25.6808 Y31.3736
G01 X25.6712 Y31.3810
G01 X25.6411 Y31.4061
G01 X24.2479 Y32.4179
G01 X24.1941 Y32.4503
G01 X22.6677 Y33.2278
G01 X22.6577 Y33.2326
G01 X22.6014 Y33.2552
G01 X20.9722 Y33.7843
G01 X20.9615 Y33.7875
G01 X20.9060 Y33.8003
G01 X19.2082 Y34.0691
G01 X19.1962 Y34.0698
G01 X19.1573 Y34.0741
G01 X18.3007 Y34.1076
G01 X18.2927 Y34.1073
G01 X18.2828 Y34.1079
G01 X18.1381 Y34.1079
G01 X17.8709 Y34.2186
G01 X17.6664 Y34.4231
G01 X17.5556 Y34.6903
G01 X17.5553 Y37.8796
G01 X17.6660 Y38.1468
G01 X17.8704 Y38.3513
G01 X18.1377 Y38.4621
G01 X19.3131 Y38.4622
G01 X21.3571 Y38.1934
G01 X23.3486 Y37.6600
G01 X25.2533 Y36.8713
G01 X27.0389 Y35.8406
G01 X28.6746 Y34.5858
G01 X29.5058 Y33.7548
G01 X29.6166 Y33.4874
G01 X29.6166 Y33.1982
G01 X29.5013 Y32.9199
G01 X29.4970 Y32.9065
G01 X29.4880 Y32.8835
G01 X29.4798 Y32.8497
G01 X29.4761 Y32.8375
G01 X29.4730 Y32.8213
G01 X29.4705 Y32.7972
G01 X29.4677 Y32.7753
G01 X29.4668 Y32.7554
G01 X29.4677 Y32.7333
G01 X29.4681 Y32.7089
G01 X29.4695 Y32.6939
G01 X29.4739 Y32.6697
G01 X29.4777 Y32.6458
G01 X29.4813 Y32.6307
G01 X29.4889 Y32.6077
G01 X29.4968 Y32.5822
G01 X29.5016 Y32.5702
G01 X29.5124 Y32.5484
G01 X29.5216 Y32.5284
G01 X29.5301 Y32.5131
G01 X29.5440 Y32.4928
G01 X29.5573 Y32.4724
G01 X29.5667 Y32.4602
G01 X29.6006 Y32.4224
G01 X29.6116 Y32.4119
G01 X29.6473 Y32.3818
G01 X29.6576 Y32.3741
G01 X29.6803 Y32.3600
G01 X29.7007 Y32.3467
G01 X29.7142 Y32.3396
G01 X29.7366 Y32.3299
G01 X29.7587 Y32.3196
G01 X29.7753 Y32.3137
G01 X29.7965 Y32.3079
G01 X29.8199 Y32.3008
G01 X29.8370 Y32.2973
G01 X29.8853 Y32.2906
G01 X29.8983 Y32.2897
G01 X29.9226 Y32.2900
G01 X29.9446 Y32.2896
G01 X29.9620 Y32.2907
G01 X30.0129 Y32.2980
G01 X30.0255 Y32.3007
G01 X30.0488 Y32.3077
G01 X30.0702 Y32.3136
G01 X30.0887 Y32.3203
G01 X30.1088 Y32.3297
G01 X30.1312 Y32.3394
G01 X30.1425 Y32.3454
G01 X30.1651 Y32.3597
G01 X30.1859 Y32.3724
G01 X30.1998 Y32.3828
G01 X30.2356 Y32.4130
G01 X30.2407 Y32.4182
G01 X30.2457 Y32.4226
G01 X35.8089 Y37.9859
G01 X35.8187 Y37.9975
G01 X35.8418 Y38.0227
G01 X35.8563 Y38.0432
G01 X35.8640 Y38.0527
G01 X35.8716 Y38.0655
G01 X35.8795 Y38.0772
G01 X35.8875 Y38.0932
G01 X35.8965 Y38.1088
G01 X35.9019 Y38.1219
G01 X35.9080 Y38.1344
G01 X35.9138 Y38.1515
G01 X35.9210 Y38.1702
G01 X35.9240 Y38.1818
G01 X35.9282 Y38.1953
G01 X35.9315 Y38.2127
G01 X35.9362 Y38.2326
G01 X35.9374 Y38.2443
G01 X35.9397 Y38.2580
G01 X35.9406 Y38.2759
G01 X35.9423 Y38.2939
G01 X35.9419 Y38.3081
G01 X35.9423 Y38.3222
G01 X35.9406 Y38.3400
G01 X35.9398 Y38.3578
G01 X35.9376 Y38.3715
G01 X35.9364 Y38.3835
G01 X35.9317 Y38.4033
G01 X35.9280 Y38.4229
G01 X35.9243 Y38.4343
G01 X35.9207 Y38.4479
G01 X35.9142 Y38.4646
G01 X35.9084 Y38.4816
G01 X35.9024 Y38.4943
G01 X35.8969 Y38.5073
G01 X35.8881 Y38.5229
G01 X35.8801 Y38.5390
G01 X35.8723 Y38.5506
G01 X35.8664 Y38.5609
G01 X35.8543 Y38.5769
G01 X35.8426 Y38.5936
G01 X35.8346 Y38.6024
G01 X35.8258 Y38.6134
G01 X35.8132 Y38.6258
G01 X35.8010 Y38.6390
G01 X35.7901 Y38.6483
G01 X35.7799 Y38.6578
G01 X35.7656 Y38.6684
G01 X35.7516 Y38.6799
G01 X35.7396 Y38.6874
G01 X35.7301 Y38.6943
G01 X35.7123 Y38.7041
G01 X35.6951 Y38.7143
G01 X35.6843 Y38.7191
G01 X35.6717 Y38.7255
G01 X35.6548 Y38.7318
G01 X35.6384 Y38.7388
G01 X35.6248 Y38.7428
G01 X35.6116 Y38.7473
G01 X35.5941 Y38.7512
G01 X35.5742 Y38.7564
G01 X35.5626 Y38.7579
G01 X35.5488 Y38.7606
G01 X35.5311 Y38.7619
G01 X35.5132 Y38.7641
G01 X35.4990 Y38.7641
G01 X35.4862 Y38.7649
G01 X26.2571 Y38.7648
G01 X25.8031 Y38.9528
G01 X24.6343 Y40.1210
G01 X24.6235 Y40.1302
G01 X24.6073 Y40.1459
G01 X24.5779 Y40.1677
G01 X24.5681 Y40.1757
G01 X24.5516 Y40.1863
G01 X24.5324 Y40.1966
G01 X24.5092 Y40.2096
G01 X24.5042 Y40.2116
G01 X24.4974 Y40.2151
G01 X24.4747 Y40.2235
G01 X24.4522 Y40.2324
G01 X24.4370 Y40.2370
G01 X24.4135 Y40.2420
G01 X24.3924 Y40.2472
G01 X24.3743 Y40.2502
G01 X24.3504 Y40.2519
G01 X24.3263 Y40.2543
G01 X24.2849 Y40.2545
G01 X23.4721 Y41.0673
G01 X23.4721 Y42.2167
G01 X24.2849 Y43.0295
G01 X25.2618 Y43.0295
G01 X25.2769 Y43.0307
G01 X25.3134 Y43.0324
G01 X25.3356 Y43.0364
G01 X25.3506 Y43.0382
G01 X25.3625 Y43.0413
G01 X25.3763 Y43.0441
G01 X25.3933 Y43.0497
G01 X25.4107 Y43.0544
G01 X25.4236 Y43.0598
G01 X25.4369 Y43.0644
G01 X25.4531 Y43.0724
G01 X25.4693 Y43.0795
G01 X25.4816 Y43.0866
G01 X25.4923 Y43.0920
G01 X25.5089 Y43.1031
G01 X25.5242 Y43.1125
G01 X25.5353 Y43.1213
G01 X25.5450 Y43.1279
G01 X25.5601 Y43.1415
G01 X25.5740 Y43.1530
G01 X25.5836 Y43.1631
G01 X25.5939 Y43.1728
G01 X25.6054 Y43.1867
G01 X25.6175 Y43.1999
G01 X25.6255 Y43.2113
G01 X25.6344 Y43.2224
G01 X25.6438 Y43.2377
G01 X25.6552 Y43.2546
G01 X25.6604 Y43.2650
G01 X25.6675 Y43.2769
G01 X25.6747 Y43.2934
G01 X25.6827 Y43.3095
G01 X25.6874 Y43.3229
G01 X25.6928 Y43.3359
G01 X25.6975 Y43.3531
G01 X25.7032 Y43.3701
G01 X25.7060 Y43.3838
G01 X25.7096 Y43.3977
G01 X25.7118 Y43.4154
G01 X25.7150 Y43.4330
G01 X25.7159 Y43.4471
G01 X25.7175 Y43.4612
G01 X25.7172 Y43.4791
G01 X25.7180 Y43.4968
G01 X25.7169 Y43.5111
G01 X25.7164 Y43.5252
G01 X25.7137 Y43.5427
G01 X25.7120 Y43.5607
G01 X25.7088 Y43.5745
G01 X25.7065 Y43.5882
G01 X25.7013 Y43.6055
G01 X25.6970 Y43.6230
G01 X25.6921 Y43.6359
G01 X25.6886 Y43.6473
G01 X25.6802 Y43.6659
G01 X25.6735 Y43.6824
G01 X25.6668 Y43.6946
G01 X25.6619 Y43.7053
G01 X25.6509 Y43.7227
G01 X25.6420 Y43.7381
G01 X25.6336 Y43.7493
G01 X25.6257 Y43.7612
G01 X25.6140 Y43.7747
G01 X25.6030 Y43.7887
G01 X25.5930 Y43.7988
G01 X25.5845 Y43.8085
G01 X24.7881 Y44.6049
G01 X24.7772 Y44.6141
G01 X24.7591 Y44.6314
G01 X24.7316 Y44.6516
G01 X24.7214 Y44.6599
G01 X24.7094 Y44.6679
G01 X24.6862 Y44.6805
G01 X24.6673 Y44.6914
G01 X24.6509 Y44.6991
G01 X24.6059 Y44.7163
G01 X24.5906 Y44.7210
G01 X24.5672 Y44.7260
G01 X24.5461 Y44.7312
G01 X24.5279 Y44.7342
G01 X24.5040 Y44.7359
G01 X24.4802 Y44.7382
G01 X24.4389 Y44.7385
G01 X23.6261 Y45.5513
G01 X23.6261 Y46.7007
G01 X24.4389 Y47.5135
G01 X25.5883 Y47.5135
G01 X26.4011 Y46.7007
G01 X26.4011 Y46.6742
G01 X26.4022 Y46.6600
G01 X26.4026 Y46.6372
G01 X26.4080 Y46.6012
G01 X26.4092 Y46.5888
G01 X26.4134 Y46.5692
G01 X26.4197 Y46.5486
G01 X26.4260 Y46.5254
G01 X26.4289 Y46.5181
G01 X26.4305 Y46.5129
G01 X26.4511 Y46.4666
G01 X26.4598 Y46.4505
G01 X26.4715 Y46.4323
G01 X26.4841 Y46.4116
G01 X26.4921 Y46.4008
G01 X26.5260 Y46.3605
G01 X26.6633 Y46.2230
G01 X26.6724 Y46.2155
G01 X26.6905 Y46.1982
G01 X26.7180 Y46.1780
G01 X26.7282 Y46.1697
G01 X26.7422 Y46.1605
G01 X26.7634 Y46.1491
G01 X26.7845 Y46.1371
G01 X26.7967 Y46.1314
G01 X26.8437 Y46.1133
G01 X26.8569 Y46.1092
G01 X26.9081 Y46.0974
G01 X26.9217 Y46.0954
G01 X26.9716 Y46.0913
G01 X32.8743 Y46.0911
G01 X32.8848 Y46.0919
G01 X32.9007 Y46.0919
G01 X32.9596 Y46.0992
G01 X32.9664 Y46.1005
G01 X33.0241 Y46.1164
G01 X33.0842 Y46.1422
G01 X33.1391 Y46.1758
G01 X33.1846 Y46.2130
G01 X33.1901 Y46.2182
G01 X33.2316 Y46.2636
G01 X33.2652 Y46.3121
G01 X33.2687 Y46.3181
G01 X33.2951 Y46.3709
G01 X33.3852 Y46.5885
G01 X33.8041 Y47.0074
G01 X34.3514 Y47.2341
G01 X34.9438 Y47.2341
G01 X35.4911 Y47.0074
G01 X35.5949 Y46.9035
G01 X35.6064 Y46.8926
G01 X35.6504 Y46.8564
G01 X35.6620 Y46.8482
G01 X35.7066 Y46.8216
G01 X35.7180 Y46.8159
G01 X35.7674 Y46.7953
G01 X35.7794 Y46.7913
G01 X35.8033 Y46.7854
G01 X35.8271 Y46.7789
G01 X35.8417 Y46.7762
G01 X35.8661 Y46.7737
G01 X35.8883 Y46.7709
G01 X35.9053 Y46.7701
G01 X35.9567 Y46.7716
G01 X35.9694 Y46.7729
G01 X35.9934 Y46.7772
G01 X36.0179 Y46.7810
G01 X36.0321 Y46.7845
G01 X36.0555 Y46.7923
G01 X36.0769 Y46.7988
G01 X36.0950 Y46.8059
G01 X36.1148 Y46.8158
G01 X36.1372 Y46.8261
G01 X36.1482 Y46.8325
G01 X36.1911 Y46.8609
G01 X36.2026 Y46.8698
G01 X36.2209 Y46.8865
G01 X36.2403 Y46.9035
G01 X36.3441 Y47.0074
G01 X36.8914 Y47.2341
G01 X37.4838 Y47.2341
G01 X38.0311 Y47.0074
G01 X38.1349 Y46.9035
G01 X38.1464 Y46.8926
G01 X38.1904 Y46.8564
G01 X38.2020 Y46.8482
G01 X38.2466 Y46.8216
G01 X38.2580 Y46.8159
G01 X38.3074 Y46.7953
G01 X38.3194 Y46.7913
G01 X38.3433 Y46.7854
G01 X38.3671 Y46.7789
G01 X38.3817 Y46.7762
G01 X38.4061 Y46.7737
G01 X38.4283 Y46.7709
G01 X38.4453 Y46.7701
G01 X38.4967 Y46.7716
G01 X38.5094 Y46.7729
G01 X38.5334 Y46.7772
G01 X38.5579 Y46.7810
G01 X38.5721 Y46.7845
G01 X38.5955 Y46.7923
G01 X38.6169 Y46.7988
G01 X38.6350 Y46.8059
G01 X38.6548 Y46.8158
G01 X38.6772 Y46.8261
G01 X38.6882 Y46.8325
G01 X38.7311 Y46.8609
G01 X38.7426 Y46.8698
G01 X38.7609 Y46.8865
G01 X38.7803 Y46.9035
G01 X38.8841 Y47.0074
G01 X39.4314 Y47.2341
G01 X40.0238 Y47.2341
G01 X40.5711 Y47.0074
G01 X40.6749 Y46.9035
G01 X40.6864 Y46.8926
G01 X40.7304 Y46.8564
G01 X40.7420 Y46.8482
G01 X40.7866 Y46.8216
G01 X40.7980 Y46.8159
G01 X40.8474 Y46.7953
G01 X40.8594 Y46.7913
G01 X40.8833 Y46.7854
G01 X40.9071 Y46.7789
G01 X40.9217 Y46.7762
G01 X40.9461 Y46.7737
G01 X40.9683 Y46.7709
G01 X40.9853 Y46.7701
G01 X41.0367 Y46.7716
G01 X41.0494 Y46.7729
G01 X41.0734 Y46.7772
G01 X41.0979 Y46.7810
G01 X41.1121 Y46.7845
G01 X41.1355 Y46.7923
G01 X41.1569 Y46.7988
G01 X41.1750 Y46.8059
G01 X41.1948 Y46.8158
G01 X41.2172 Y46.8261
G01 X41.2282 Y46.8325
G01 X41.2711 Y46.8609
G01 X41.2826 Y46.8698
G01 X41.3009 Y46.8865
G01 X41.3203 Y46.9035
G01 X41.4241 Y47.0074
G01 X41.9714 Y47.2341
G01 X42.5638 Y47.2341
G01 X43.1111 Y47.0074
G01 X43.2149 Y46.9035
G01 X43.2264 Y46.8926
G01 X43.2704 Y46.8564
G01 X43.2820 Y46.8482
G01 X43.3266 Y46.8216
G01 X43.3380 Y46.8159
G01 X43.3874 Y46.7953
G01 X43.3994 Y46.7913
G01 X43.4233 Y46.7854
G01 X43.4471 Y46.7789
G01 X43.4617 Y46.7762
G01 X43.4861 Y46.7737
G01 X43.5083 Y46.7709
G01 X43.5253 Y46.7701
G01 X43.5767 Y46.7716
G01 X43.5894 Y46.7729
G01 X43.6134 Y46.7772
G01 X43.6379 Y46.7810
G01 X43.6521 Y46.7845
G01 X43.6755 Y46.7923
G01 X43.6969 Y46.7988
G01 X43.7150 Y46.8059
G01 X43.7348 Y46.8158
G01 X43.7572 Y46.8261
G01 X43.7682 Y46.8325
G01 X43.8111 Y46.8609
G01 X43.8226 Y46.8698
G01 X43.8409 Y46.8865
G01 X43.8603 Y46.9035
G01 X43.9641 Y47.0074
G01 X44.5114 Y47.2341
G01 X45.1038 Y47.2341
G01 X45.6511 Y47.0074
G01 X45.7549 Y46.9035
G01 X45.7664 Y46.8926
G01 X45.8104 Y46.8564
G01 X45.8220 Y46.8482
G01 X45.8666 Y46.8216
G01 X45.8780 Y46.8159
G01 X45.9274 Y46.7953
G01 X45.9394 Y46.7913
G01 X45.9633 Y46.7854
G01 X45.9871 Y46.7789
G01 X46.0017 Y46.7762
G01 X46.0261 Y46.7737
G01 X46.0483 Y46.7709
G01 X46.0653 Y46.7701
G01 X46.1167 Y46.7716
G01 X46.1294 Y46.7729
G01 X46.1534 Y46.7772
G01 X46.1779 Y46.7810
G01 X46.1921 Y46.7845
G01 X46.2155 Y46.7923
G01 X46.2369 Y46.7988
G01 X46.2550 Y46.8059
G01 X46.2748 Y46.8158
G01 X46.2972 Y46.8261
G01 X46.3082 Y46.8325
G01 X46.3511 Y46.8609
G01 X46.3626 Y46.8698
G01 X46.3809 Y46.8865
G01 X46.4003 Y46.9035
G01 X46.5041 Y47.0074
G01 X47.0514 Y47.2341
G01 X47.6438 Y47.2341
G01 X48.1911 Y47.0074
G01 X48.2949 Y46.9035
G01 X48.3064 Y46.8926
G01 X48.3504 Y46.8564
G01 X48.3620 Y46.8482
G01 X48.4066 Y46.8216
G01 X48.4180 Y46.8159
G01 X48.4674 Y46.7953
G01 X48.4794 Y46.7913
G01 X48.5033 Y46.7854
G01 X48.5271 Y46.7789
G01 X48.5417 Y46.7762
G01 X48.5661 Y46.7737
G01 X48.5883 Y46.7709
G01 X48.6053 Y46.7701
G01 X48.6567 Y46.7716
G01 X48.6694 Y46.7729
G01 X48.6934 Y46.7772
G01 X48.7179 Y46.7810
G01 X48.7321 Y46.7845
G01 X48.7555 Y46.7923
G01 X48.7769 Y46.7988
G01 X48.7950 Y46.8059
G01 X48.8148 Y46.8158
G01 X48.8372 Y46.8261
G01 X48.8482 Y46.8325
G01 X48.8911 Y46.8609
G01 X48.9026 Y46.8698
G01 X48.9209 Y46.8865
G01 X48.9403 Y46.9035
G01 X49.0441 Y47.0074
G01 X49.5914 Y47.2341
G01 X50.1838 Y47.2341
G01 X50.7311 Y47.0074
G01 X51.0239 Y46.7145
G01 X51.0348 Y46.7053
G01 X51.0529 Y46.6880
G01 X51.0804 Y46.6678
G01 X51.0906 Y46.6595
G01 X51.1048 Y46.6503
G01 X51.1258 Y46.6390
G01 X51.1486 Y46.6261
G01 X51.1612 Y46.6203
G01 X51.1837 Y46.6120
G01 X51.2062 Y46.6030
G01 X51.2212 Y46.5985
G01 X51.2449 Y46.5933
G01 X51.2682 Y46.5877
G01 X51.2839 Y46.5853
G01 X51.3080 Y46.5835
G01 X51.3318 Y46.5812
G01 X51.3466 Y46.5809
G01 X59.6375 Y46.5811
G01 X59.6516 Y46.5822
G01 X59.6768 Y46.5828
G01 X59.7104 Y46.5880
G01 X59.7234 Y46.5893
G01 X59.7398 Y46.5927
G01 X59.7631 Y46.5996
G01 X59.7863 Y46.6060
G01 X59.7934 Y46.6089
G01 X59.7988 Y46.6105
G01 X59.8231 Y46.6215
G01 X59.8429 Y46.6300
G01 X59.8610 Y46.6397
G01 X59.8794 Y46.6515
G01 X59.8999 Y46.6641
G01 X59.9129 Y46.6735
G01 X59.9310 Y46.6893
G01 X59.9494 Y46.7044
G01 X59.9789 Y46.7335
G01 X61.1283 Y46.7335
G01 X61.9411 Y45.9207
G01 X61.9411 Y44.7713
G01 X61.1272 Y43.9575
G01 X61.1174 Y43.9459
G01 X61.0943 Y43.9207
G01 X61.0798 Y43.9002
G01 X61.0721 Y43.8907
G01 X61.0645 Y43.8779
G01 X61.0566 Y43.8662
G01 X61.0485 Y43.8501
G01 X61.0397 Y43.8346
G01 X61.0343 Y43.8217
G01 X61.0281 Y43.8090
G01 X61.0223 Y43.7919
G01 X61.0157 Y43.7752
G01 X61.0122 Y43.7616
G01 X61.0085 Y43.7506
G01 X61.0046 Y43.7305
G01 X61.0001 Y43.7109
G01 X60.9988 Y43.6993
G01 X60.9964 Y43.6852
G01 X60.9956 Y43.6673
G01 X60.9939 Y43.6497
G01 X60.9942 Y43.6355
G01 X60.9938 Y43.6212
G01 X60.9955 Y43.6034
G01 X60.9963 Y43.5855
G01 X60.9986 Y43.5716
G01 X61.0002 Y43.5576
G01 X61.0044 Y43.5403
G01 X61.0076 Y43.5226
G01 X61.0119 Y43.5091
G01 X61.0147 Y43.4977
G01 X61.0220 Y43.4788
G01 X61.0285 Y43.4598
G01 X61.0337 Y43.4491
G01 X61.0392 Y43.4361
G01 X61.0480 Y43.4205
G01 X61.0572 Y43.4025
G01 X61.0638 Y43.3928
G01 X61.0709 Y43.3806
G01 X61.0819 Y43.3663
G01 X61.0935 Y43.3499
G01 X61.1014 Y43.3411
G01 X61.1103 Y43.3300
G01 X61.1231 Y43.3175
G01 X61.1353 Y43.3043
G01 X61.1460 Y43.2952
G01 X61.1561 Y43.2857
G01 X61.1706 Y43.2749
G01 X61.1846 Y43.2635
G01 X61.1964 Y43.2560
G01 X61.2080 Y43.2478
G01 X61.2238 Y43.2393
G01 X61.2391 Y43.2301
G01 X61.2520 Y43.2243
G01 X61.2625 Y43.2188
G01 X61.2812 Y43.2117
G01 X61.2978 Y43.2046
G01 X61.3157 Y43.1991
G01 X62.1491 Y42.3657
G01 X62.1492 Y42.1670
G01 X62.1503 Y42.1542
G01 X62.1520 Y42.1177
G01 X62.1560 Y42.0954
G01 X62.1578 Y42.0806
G01 X62.1609 Y42.0686
G01 X62.1631 Y42.0570
G01 X62.1693 Y42.0379
G01 X62.1740 Y42.0206
G01 X62.1794 Y42.0075
G01 X62.1831 Y41.9964
G01 X62.1920 Y41.9780
G01 X62.2001 Y41.9598
G01 X62.2062 Y41.9495
G01 X62.2127 Y41.9369
G01 X62.2228 Y41.9222
G01 X62.2334 Y41.9051
G01 X62.2408 Y41.8959
G01 X62.2490 Y41.8842
G01 X62.2612 Y41.8709
G01 X62.2726 Y41.8572
G01 X62.2827 Y41.8475
G01 X62.2926 Y41.8371
G01 X62.3062 Y41.8259
G01 X62.3194 Y41.8137
G01 X62.3311 Y41.8055
G01 X62.3419 Y41.7968
G01 X62.3573 Y41.7873
G01 X62.3721 Y41.7772
G01 X62.3844 Y41.7708
G01 X62.3946 Y41.7647
G01 X62.4130 Y41.7565
G01 X62.4291 Y41.7484
G01 X62.4425 Y41.7437
G01 X62.4554 Y41.7384
G01 X62.4727 Y41.7336
G01 X62.4920 Y41.7273
G01 X62.5037 Y41.7251
G01 X62.5172 Y41.7217
G01 X62.5349 Y41.7193
G01 X62.5526 Y41.7161
G01 X62.5669 Y41.7152
G01 X62.5808 Y41.7137
G01 X62.5987 Y41.7139
G01 X62.6166 Y41.7132
G01 X62.6304 Y41.7143
G01 X62.6422 Y41.7145
G01 X62.6625 Y41.7174
G01 X62.6804 Y41.7192
G01 X62.6941 Y41.7223
G01 X62.7080 Y41.7247
G01 X62.7250 Y41.7298
G01 X62.7424 Y41.7341
G01 X62.7557 Y41.7391
G01 X62.7671 Y41.7426
G01 X62.7853 Y41.7508
G01 X62.8041 Y41.7586
G01 X62.8144 Y41.7644
G01 X62.8270 Y41.7705
G01 X62.8421 Y41.7801
G01 X62.8578 Y41.7891
G01 X62.8690 Y41.7976
G01 X62.8807 Y41.8055
G01 X62.8942 Y41.8171
G01 X62.9084 Y41.8281
G01 X62.9184 Y41.8381
G01 X62.9267 Y41.8454
G01 X66.6525 Y45.5714
G01 X66.6617 Y45.5823
G01 X66.6791 Y45.6005
G01 X66.6992 Y45.6279
G01 X66.7071 Y45.6376
G01 X66.7166 Y45.6520
G01 X66.7411 Y45.6965
G01 X66.7467 Y45.7088
G01 X66.7551 Y45.7313
G01 X66.7632 Y45.7516
G01 X66.7691 Y45.7712
G01 X66.7736 Y45.7924
G01 X66.7794 Y45.8157
G01 X66.7818 Y45.8316
G01 X66.7835 Y45.8556
G01 X66.7858 Y45.8794
G01 X66.7861 Y45.9207
G01 X67.5989 Y46.7335
G01 X68.7483 Y46.7335
G01 X69.5611 Y45.9207
G01 X69.5611 Y44.7713
G01 X68.7472 Y43.9575
G01 X68.7374 Y43.9459
G01 X68.7129 Y43.9189
G01 X68.6998 Y43.9002
G01 X68.6921 Y43.8907
G01 X68.6845 Y43.8779
G01 X68.6778 Y43.8682
G01 X68.6685 Y43.8501
G01 X68.6597 Y43.8346
G01 X68.6543 Y43.8217
G01 X68.6481 Y43.8090
G01 X68.6423 Y43.7919
G01 X68.6357 Y43.7752
G01 X68.6322 Y43.7616
G01 X68.6279 Y43.7483
G01 X68.6246 Y43.7305
G01 X68.6204 Y43.7131
G01 X68.6188 Y43.6993
G01 X68.6167 Y43.6876
G01 X68.6156 Y43.6673
G01 X68.6139 Y43.6497
G01 X68.6142 Y43.6355
G01 X68.6138 Y43.6212
G01 X68.6155 Y43.6034
G01 X68.6163 Y43.5855
G01 X68.6186 Y43.5716
G01 X68.6202 Y43.5576
G01 X68.6244 Y43.5403
G01 X68.6276 Y43.5226
G01 X68.6319 Y43.5091
G01 X68.6354 Y43.4954
G01 X68.6420 Y43.4788
G01 X68.6476 Y43.4619
G01 X68.6537 Y43.4491
G01 X68.6592 Y43.4361
G01 X68.6680 Y43.4205
G01 X68.6760 Y43.4044
G01 X68.6838 Y43.3928
G01 X68.6909 Y43.3806
G01 X68.7019 Y43.3663
G01 X68.7122 Y43.3516
G01 X68.7214 Y43.3411
G01 X68.7303 Y43.3300
G01 X68.7431 Y43.3175
G01 X68.7553 Y43.3043
G01 X68.7660 Y43.2952
G01 X68.7761 Y43.2857
G01 X68.7906 Y43.2749
G01 X68.8046 Y43.2635
G01 X68.8164 Y43.2560
G01 X68.8260 Y43.2491
G01 X68.8438 Y43.2393
G01 X68.8591 Y43.2301
G01 X68.8720 Y43.2243
G01 X68.8825 Y43.2188
G01 X68.9012 Y43.2117
G01 X68.9178 Y43.2046
G01 X68.9357 Y43.1991
G01 X69.7691 Y42.3657
G01 X69.7691 Y41.2163
G01 X68.9563 Y40.4035
G01 X68.9298 Y40.4035
G01 X68.9157 Y40.4024
G01 X68.8929 Y40.4020
G01 X68.8569 Y40.3966
G01 X68.8439 Y40.3953
G01 X68.8274 Y40.3919
G01 X68.7789 Y40.3778
G01 X68.7661 Y40.3731
G01 X68.7442 Y40.3631
G01 X68.7242 Y40.3544
G01 X68.7081 Y40.3461
G01 X68.6879 Y40.3329
G01 X68.6675 Y40.3206
G01 X68.6564 Y40.3126
G01 X68.6178 Y40.2801
G01 X68.6071 Y40.2699
G01 X67.5161 Y39.1789
G01 X67.5070 Y39.1680
G01 X67.4821 Y39.1405
G01 X67.4778 Y39.1351
G01 X67.4682 Y39.1209
G01 X67.4603 Y39.1111
G01 X67.4522 Y39.0974
G01 X67.4445 Y39.0858
G01 X67.4364 Y39.0696
G01 X67.4286 Y39.0559
G01 X67.4224 Y39.0410
G01 X67.4155 Y39.0264
G01 X67.4105 Y39.0113
G01 X67.4046 Y38.9965
G01 X67.4006 Y38.9808
G01 X67.3958 Y38.9655
G01 X67.3930 Y38.9499
G01 X67.3893 Y38.9344
G01 X67.3874 Y38.9184
G01 X67.3851 Y38.9046
G01 X67.3843 Y38.8865
G01 X67.3828 Y38.8709
G01 X67.3832 Y38.8546
G01 X67.3829 Y38.8384
G01 X67.3845 Y38.8227
G01 X67.3854 Y38.8047
G01 X67.3879 Y38.7910
G01 X67.3898 Y38.7748
G01 X67.3936 Y38.7595
G01 X67.3971 Y38.7415
G01 X67.4015 Y38.7284
G01 X67.4057 Y38.7126
G01 X67.4116 Y38.6982
G01 X67.4174 Y38.6811
G01 X67.4236 Y38.6685
G01 X67.4300 Y38.6535
G01 X67.4378 Y38.6400
G01 X67.4449 Y38.6258
G01 X67.4540 Y38.6122
G01 X67.4610 Y38.6003
G01 X67.4720 Y38.5859
G01 X67.4811 Y38.5729
G01 X67.4918 Y38.5609
G01 X67.5021 Y38.5482
G01 X67.5135 Y38.5373
G01 X67.5258 Y38.5241
G01 X67.5365 Y38.5152
G01 X67.5485 Y38.5042
G01 X67.5612 Y38.4950
G01 X67.5735 Y38.4849
G01 X67.5873 Y38.4763
G01 X67.6005 Y38.4671
G01 X67.6144 Y38.4597
G01 X67.6301 Y38.4503
G01 X67.6430 Y38.4448
G01 X67.6573 Y38.4376
G01 X67.6721 Y38.4322
G01 X67.6866 Y38.4259
G01 X67.7024 Y38.4214
G01 X67.7177 Y38.4162
G01 X67.7331 Y38.4130
G01 X67.7484 Y38.4089
G01 X67.7644 Y38.4066
G01 X67.7793 Y38.4037
G01 X69.3589 Y38.1958
G01 X71.3503 Y37.6622
G01 X73.2549 Y36.8733
G01 X75.0404 Y35.8424
G01 X76.6760 Y34.5874
G01 X77.5071 Y33.7563
G01 X77.6178 Y33.4890
G01 X77.6178 Y33.1997
G01 X77.5071 Y32.9325
G01 X75.2520 Y30.6774
G01 X74.9848 Y30.5667
G01 X74.6955 Y30.5667
G01 X74.4282 Y30.6774
G01 X74.3298 Y30.7759
G01 X74.3201 Y30.7848
G01 X74.3130 Y30.7921
G01 X73.6836 Y31.3739
G01 X73.6722 Y31.3829
G01 X73.6449 Y31.4059
G01 X72.2490 Y32.4200
G01 X72.1952 Y32.4524
G01 X70.6689 Y33.2301
G01 X70.6589 Y33.2348
G01 X70.6061 Y33.2562
G01 X68.9676 Y33.7887
G01 X68.9039 Y33.8035
G01 X67.2095 Y34.0718
G01 X67.1975 Y34.0725
G01 X67.1586 Y34.0768
G01 X66.3021 Y34.1104
G01 X66.2940 Y34.1101
G01 X66.2841 Y34.1107
G01 X66.1395 Y34.1107
G01 X65.8722 Y34.2214
G01 X65.6630 Y34.4306
G01 X65.6483 Y34.4549
G01 X65.6420 Y34.4665
G01 X65.6344 Y34.4778
G01 X65.6041 Y34.5162
G01 X65.5922 Y34.5293
G01 X65.5744 Y34.5458
G01 X65.5569 Y34.5627
G01 X65.5451 Y34.5725
G01 X65.5054 Y34.6008
G01 X65.4923 Y34.6087
G01 X65.4705 Y34.6197
G01 X65.4513 Y34.6300
G01 X65.4330 Y34.6380
G01 X65.4120 Y34.6451
G01 X65.3891 Y34.6534
G01 X65.3743 Y34.6574
G01 X65.3505 Y34.6619
G01 X65.3266 Y34.6670
G01 X65.3136 Y34.6687
G01 X65.2627 Y34.6717
G01 X65.2476 Y34.6715
G01 X65.2232 Y34.6692
G01 X65.1988 Y34.6675
G01 X65.1839 Y34.6652
G01 X65.1601 Y34.6595
G01 X65.1363 Y34.6544
G01 X65.1217 Y34.6500
G01 X65.0989 Y34.6409
G01 X65.0761 Y34.6326
G01 X65.0642 Y34.6271
G01 X65.0197 Y34.6027
G01 X65.0085 Y34.5955
G01 X64.9678 Y34.5651
G01 X64.9579 Y34.5565
G01 X64.9216 Y34.5205
G01 X64.9118 Y34.5091
G01 X64.8974 Y34.4895
G01 X64.8825 Y34.4703
G01 X64.8729 Y34.4552
G01 X64.8625 Y34.4358
G01 X64.8495 Y34.4125
G01 X64.8441 Y34.4009
G01 X64.8356 Y34.3780
G01 X64.8274 Y34.3575
G01 X64.8223 Y34.3408
G01 X64.8171 Y34.3169
G01 X64.8113 Y34.2930
G01 X64.8090 Y34.2782
G01 X64.8048 Y34.2268
G01 X64.8047 Y29.7006
G01 X64.8058 Y29.6864
G01 X64.8064 Y29.6612
G01 X64.8116 Y29.6276
G01 X64.8128 Y29.6152
G01 X64.8163 Y29.5980
G01 X64.8233 Y29.5750
G01 X64.8296 Y29.5518
G01 X64.8350 Y29.5370
G01 X64.8452 Y29.5149
G01 X64.8547 Y29.4930
G01 X64.8621 Y29.4790
G01 X64.8751 Y29.4587
G01 X64.8877 Y29.4380
G01 X64.8971 Y29.4253
G01 X64.9129 Y29.4071
G01 X64.9280 Y29.3886
G01 X64.9383 Y29.3779
G01 X66.3905 Y27.9257
G01 X66.4014 Y27.9165
G01 X66.4195 Y27.8992
G01 X66.4470 Y27.8790
G01 X66.4572 Y27.8707
G01 X66.4692 Y27.8627
G01 X66.5157 Y27.8370
G01 X66.5277 Y27.8315
G01 X66.5747 Y27.8136
G01 X66.5880 Y27.8096
G01 X66.6114 Y27.8046
G01 X66.6371 Y27.7984
G01 X66.6507 Y27.7964
G01 X66.6746 Y27.7947
G01 X66.6984 Y27.7924
G01 X66.7132 Y27.7921
G01 X68.1126 Y27.7921
G01 X68.6132 Y27.5847
G01 X68.9963 Y27.2016
G01 X69.2037 Y26.7010
G01 X69.2037 Y26.1590
G01 X68.9963 Y25.6584
G01 X68.8112 Y25.4731
G01 X68.7734 Y25.4271
G01 X68.7639 Y25.4137
G01 X68.7386 Y25.3709
G01 X68.7329 Y25.3596
G01 X68.7131 Y25.3123
G01 X68.7090 Y25.3003
G01 X68.6959 Y25.2505
G01 X68.6936 Y25.2382
G01 X68.6877 Y25.1869
G01 X68.6871 Y25.1723
G01 X68.6886 Y25.1209
G01 X68.6899 Y25.1083
G01 X68.6986 Y25.0573
G01 X68.7021 Y25.0434
G01 X68.7173 Y24.9964
G01 X68.7218 Y24.9849
G01 X68.7431 Y24.9405
G01 X68.7505 Y24.9276
G01 X68.7594 Y24.9145
G01 X68.7639 Y24.9068
G01 X68.7703 Y24.8981
G01 X68.7779 Y24.8865
G01 X68.7869 Y24.8749
G01 X68.7962 Y24.8648
G01 X68.8044 Y24.8544
G01 X68.8121 Y24.8468
G01 X68.8205 Y24.8373
G01 X68.9963 Y24.6616
G01 X69.2037 Y24.1610
G01 X69.2037 Y23.6190
G01 X68.9963 Y23.1184
G01 X68.6132 Y22.7353
G01 X68.1126 Y22.5279
G01 X66.0466 Y22.5279
G01 X65.8239 Y22.6202
G01 X65.8096 Y22.6248
G01 X65.7790 Y22.6360
G01 X65.7723 Y22.6379
G01 X65.7530 Y22.6420
G01 X65.7422 Y22.6453
G01 X65.7379 Y22.6463
G01 X65.7260 Y22.6479
G01 X65.7119 Y22.6506
G01 X65.6944 Y22.6519
G01 X65.6770 Y22.6540
G01 X65.6626 Y22.6541
G01 X65.6493 Y22.6549
G01 X64.4339 Y22.6549
G01 X63.9800 Y22.8430
G01 X61.4226 Y25.4005
G01 X61.4111 Y25.4113
G01 X61.3633 Y25.4504
G01 X61.3512 Y25.4584
G01 X61.3318 Y25.4696
G01 X61.3128 Y25.4812
G01 X61.2976 Y25.4890
G01 X61.2747 Y25.4982
G01 X61.2520 Y25.5080
G01 X61.2406 Y25.5119
G01 X61.2141 Y25.5185
G01 X61.1904 Y25.5250
G01 X61.1759 Y25.5277
G01 X61.1514 Y25.5302
G01 X61.1292 Y25.5330
G01 X61.1099 Y25.5339
G01 X61.0629 Y25.5325
G01 X61.0483 Y25.5312
G01 X61.0239 Y25.5267
G01 X60.9997 Y25.5229
G01 X60.9876 Y25.5200
G01 X60.9363 Y25.5037
G01 X60.9246 Y25.4990
G01 X60.9027 Y25.4882
G01 X60.8802 Y25.4777
G01 X60.8676 Y25.4705
G01 X60.8248 Y25.4418
G01 X60.8149 Y25.4341
G01 X60.7771 Y25.4005
G01 X60.3523 Y24.9755
G01 X59.2029 Y24.9755
G01 X58.3901 Y25.7883
G01 X58.3901 Y26.9377
G01 X58.4089 Y26.9564
G01 X58.4181 Y26.9673
G01 X58.4339 Y26.9836
G01 X58.4557 Y27.0130
G01 X58.4638 Y27.0231
G01 X58.4742 Y27.0392
G01 X58.4844 Y27.0583
G01 X58.4963 Y27.0791
G01 X58.5022 Y27.0917
G01 X58.5114 Y27.1162
G01 X58.5204 Y27.1387
G01 X58.5255 Y27.1561
G01 X58.5301 Y27.1774
G01 X58.5357 Y27.2007
G01 X58.5367 Y27.2085
G01 X58.5378 Y27.2140
G01 X58.5422 Y27.2643
G01 X58.5425 Y27.2791
G01 X58.5421 Y29.9469
G01 X58.5374 Y30.0060
G01 X58.5349 Y30.0186
G01 X58.5336 Y30.0281
G01 X58.5282 Y30.0485
G01 X58.5230 Y30.0708
G01 X58.5198 Y30.0793
G01 X58.5166 Y30.0903
G01 X58.5085 Y30.1092
G01 X58.5012 Y30.1286
G01 X58.4958 Y30.1388
G01 X58.4913 Y30.1489
G01 X58.4806 Y30.1667
G01 X58.4717 Y30.1829
G01 X58.4693 Y30.1869
G01 X58.4640 Y30.1940
G01 X58.4580 Y30.2035
G01 X58.4449 Y30.2197
G01 X58.4311 Y30.2378
G01 X58.4246 Y30.2445
G01 X58.4172 Y30.2531
G01 X58.4021 Y30.2671
G01 X58.3875 Y30.2817
G01 X58.3786 Y30.2888
G01 X58.3701 Y30.2963
G01 X58.3532 Y30.3081
G01 X58.3368 Y30.3205
G01 X58.3268 Y30.3263
G01 X58.3172 Y30.3326
G01 X58.2989 Y30.3418
G01 X58.2789 Y30.3528
G01 X58.2703 Y30.3562
G01 X58.2600 Y30.3610
G01 X58.2405 Y30.3676
G01 X58.2213 Y30.3750
G01 X58.2104 Y30.3778
G01 X58.1994 Y30.3813
G01 X58.1791 Y30.3851
G01 X58.1589 Y30.3897
G01 X58.1478 Y30.3909
G01 X58.1388 Y30.3925
G01 X58.1158 Y30.3937
G01 X58.0952 Y30.3955
G01 X58.0838 Y30.3951
G01 X58.0725 Y30.3953
G01 X58.0520 Y30.3934
G01 X58.0315 Y30.3923
G01 X58.0202 Y30.3903
G01 X58.0110 Y30.3894
G01 X57.9888 Y30.3842
G01 X57.9686 Y30.3802
G01 X57.9577 Y30.3767
G01 X57.9489 Y30.3745
G01 X57.9274 Y30.3661
G01 X57.9059 Y30.3585
G01 X57.8977 Y30.3544
G01 X57.8872 Y30.3499
G01 X57.8694 Y30.3398
G01 X57.8509 Y30.3304
G01 X57.8414 Y30.3239
G01 X57.8318 Y30.3181
G01 X57.8154 Y30.3055
G01 X57.7985 Y30.2936
G01 X57.7901 Y30.2859
G01 X57.7812 Y30.2788
G01 X57.7669 Y30.2641
G01 X57.7510 Y30.2490
G01 X57.6504 Y30.1402
G01 X57.6429 Y30.1305
G01 X57.6180 Y30.1006
G01 X56.6117 Y28.7186
G01 X56.5793 Y28.6648
G01 X55.8036 Y27.1506
G01 X55.7990 Y27.1410
G01 X55.7774 Y27.0882
G01 X55.2453 Y25.4686
G01 X55.2422 Y25.4584
G01 X55.2291 Y25.4030
G01 X54.9547 Y23.7179
G01 X54.9539 Y23.7058
G01 X54.9495 Y23.6672
G01 X54.9118 Y22.8168
G01 X54.9120 Y22.8089
G01 X54.9114 Y22.7990
G01 X54.9112 Y22.7649
G01 X54.9112 Y22.5932
G01 X54.8005 Y22.3259
G01 X54.5960 Y22.1214
G01 X54.3288 Y22.0107
G01 X51.6947 Y22.0106
G01 X51.6826 Y22.0096
G01 X51.6425 Y22.0075
G01 X51.6225 Y22.0037
G01 X51.6095 Y22.0023
G01 X51.5950 Y21.9985
G01 X51.5798 Y21.9955
G01 X51.5641 Y21.9901
G01 X51.5481 Y21.9858
G01 X51.5338 Y21.9798
G01 X51.5204 Y21.9751
G01 X51.4325 Y21.9383
G01 X51.1432 Y21.9368
G01 X50.8754 Y22.0462
G01 X50.6676 Y22.2520
G01 X50.6651 Y22.2567
G01 X50.6468 Y22.2868
G01 X50.6412 Y22.2972
G01 X50.6342 Y22.3075
G01 X50.6011 Y22.3492
G01 X50.5924 Y22.3586
G01 X50.5569 Y22.3922
G01 X50.5472 Y22.4004
G01 X50.5034 Y22.4316
G01 X50.4924 Y22.4383
G01 X50.4696 Y22.4497
G01 X50.4471 Y22.4617
G01 X50.4352 Y22.4668
G01 X50.3849 Y22.4842
G01 X50.3720 Y22.4875
G01 X50.3493 Y22.4917
G01 X50.3244 Y22.4969
G01 X50.3140 Y22.4982
G01 X50.2630 Y22.5012
G01 X50.2477 Y22.5011
G01 X50.1946 Y22.4964
G01 X50.1837 Y22.4947
G01 X50.1590 Y22.4887
G01 X50.1365 Y22.4839
G01 X50.1217 Y22.4795
G01 X50.0979 Y22.4701
G01 X50.0743 Y22.4613
G01 X50.0621 Y22.4556
G01 X50.0157 Y22.4297
G01 X50.0050 Y22.4226
G01 X49.9679 Y22.3946
G01 X49.9563 Y22.3847
G01 X49.9385 Y22.3664
G01 X49.9203 Y22.3485
G01 X49.9104 Y22.3369
G01 X49.8967 Y22.3182
G01 X49.8825 Y22.2997
G01 X49.8757 Y22.2895
G01 X49.8506 Y22.2441
G01 X49.8433 Y22.2283
G01 X49.8252 Y22.1805
G01 X49.8222 Y22.1702
G01 X49.8115 Y22.1229
G01 X49.8090 Y22.1077
G01 X49.8049 Y22.0569
G01 X49.8047 Y22.0450
G01 X49.8047 Y6.7006
G01 X49.8058 Y6.6864
G01 X49.8064 Y6.6612
G01 X49.8116 Y6.6276
G01 X49.8128 Y6.6152
G01 X49.8163 Y6.5980
G01 X49.8233 Y6.5750
G01 X49.8296 Y6.5518
G01 X49.8360 Y6.5347
G01 X49.8452 Y6.5149
G01 X49.8547 Y6.4930
G01 X49.8609 Y6.4812
G01 X49.8751 Y6.4587
G01 X49.8864 Y6.4401
G01 X49.8971 Y6.4253
G01 X49.9129 Y6.4071
G01 X49.9280 Y6.3886
G01 X51.9475 Y4.3687
G01 X51.9584 Y4.3595
G01 X51.9765 Y4.3422
G01 X52.0040 Y4.3220
G01 X52.0142 Y4.3137
G01 X52.0262 Y4.3057
G01 X52.0494 Y4.2931
G01 X52.0683 Y4.2822
G01 X52.0847 Y4.2745
G01 X52.1297 Y4.2573
G01 X52.1450 Y4.2526
G01 X52.1684 Y4.2476
G01 X52.1941 Y4.2414
G01 X52.2077 Y4.2394
G01 X52.2316 Y4.2377
G01 X52.2532 Y4.2355
G01 X52.2702 Y4.2351
G01 X73.2249 Y4.2351
G01 X73.2391 Y4.2362
G01 X73.2643 Y4.2368
G01 X73.2979 Y4.2420
G01 X73.3103 Y4.2432
G01 X73.3275 Y4.2467
G01 X73.3505 Y4.2537
G01 X73.3737 Y4.2600
G01 X73.3908 Y4.2664
G01 X73.4106 Y4.2756
G01 X73.4325 Y4.2851
G01 X73.4443 Y4.2913
G01 X73.4668 Y4.3055
G01 X73.4854 Y4.3168
G01 X73.5002 Y4.3275
G01 X73.5184 Y4.3433
G01 X73.5369 Y4.3584
G01 X74.2638 Y5.0849
G01 X74.2730 Y5.0958
G01 X74.2903 Y5.1139
G01 X74.3105 Y5.1414
G01 X74.3188 Y5.1516
G01 X74.3280 Y5.1656
G01 X74.3394 Y5.1868
G01 X74.3514 Y5.2079
G01 X74.3588 Y5.2242
G01 X74.3664 Y5.2447
G01 X74.3752 Y5.2671
G01 X74.3793 Y5.2803
G01 X74.3849 Y5.3058
G01 X74.3907 Y5.3292
G01 X74.3931 Y5.3451
G01 X74.3948 Y5.3690
G01 X74.3971 Y5.3928
G01 X74.3974 Y5.4275
G01 X74.6458 Y6.0269
G01 X75.1046 Y6.4857
G01 X75.7040 Y6.7341
G01 X76.3530 Y6.7341
G01 X76.9524 Y6.4857
G01 X77.4112 Y6.0269
G01 X77.6596 Y5.4275
G01 X77.6596 Y4.7786
G01 X77.4112 Y4.1791
G01 X76.9524 Y3.7203
G01 X76.3530 Y3.4719
G01 X76.3307 Y3.4718
G01 X76.3189 Y3.4708
G01 X76.2961 Y3.4704
G01 X76.2601 Y3.4650
G01 X76.2477 Y3.4638
G01 X76.2307 Y3.4603
G01 X76.2075 Y3.4534
G01 X76.1842 Y3.4470
G01 X76.1672 Y3.4406
G01 X76.1474 Y3.4314
G01 X76.1255 Y3.4219
G01 X76.1137 Y3.4157
G01 X76.0705 Y3.3889
G01 X76.0597 Y3.3809
G01 X76.0396 Y3.3637
G01 X76.0211 Y3.3486
G01 X76.0104 Y3.3383
G01 X74.6251 Y1.9530
G01 X74.1712 Y1.7649
G01 X51.3239 Y1.7649
G01 X50.8700 Y1.9530
G01 X47.5226 Y5.3004
G01 X47.3345 Y5.7543
G01 X47.3345 Y28.2457
G01 X47.5226 Y28.6996
G01 X49.4049 Y30.5818
G01 X49.4141 Y30.5927
G01 X49.4314 Y30.6108
G01 X49.4517 Y30.6384
G01 X49.4600 Y30.6488
G01 X49.4690 Y30.6625
G01 X49.4804 Y30.6838
G01 X49.4924 Y30.7047
G01 X49.4956 Y30.7121
G01 X49.4981 Y30.7170
G01 X49.5171 Y30.7664
G01 X49.5215 Y30.7816
G01 X49.5261 Y30.8029
G01 X49.5317 Y30.8262
G01 X49.5327 Y30.8339
G01 X49.5338 Y30.8393
G01 X49.5382 Y30.8901
G01 X49.5381 Y30.8977
G01 X49.5385 Y30.9045
G01 X49.5385 Y33.5033
G01 X49.5374 Y33.5176
G01 X49.5367 Y33.5426
G01 X49.5316 Y33.5764
G01 X49.5302 Y33.5897
G01 X49.5268 Y33.6057
G01 X49.5199 Y33.6289
G01 X49.5135 Y33.6520
G01 X49.5088 Y33.6650
G01 X49.4874 Y33.7131
G01 X49.4810 Y33.7250
G01 X49.4541 Y33.7676
G01 X49.4460 Y33.7786
G01 X49.4133 Y33.8173
G01 X49.2466 Y33.9842
G01 X49.2351 Y33.9940
G01 X49.2099 Y34.0171
G01 X49.1894 Y34.0316
G01 X49.1776 Y34.0409
G01 X49.1671 Y34.0469
G01 X49.1554 Y34.0548
G01 X49.1393 Y34.0629
G01 X49.1238 Y34.0717
G01 X49.1109 Y34.0771
G01 X49.1004 Y34.0824
G01 X49.0811 Y34.0891
G01 X49.0644 Y34.0957
G01 X49.0508 Y34.0992
G01 X49.0375 Y34.1035
G01 X49.0199 Y34.1068
G01 X49.0024 Y34.1111
G01 X48.9883 Y34.1127
G01 X48.9744 Y34.1150
G01 X48.9565 Y34.1158
G01 X48.9389 Y34.1175
G01 X48.9247 Y34.1172
G01 X48.9128 Y34.1177
G01 X48.8926 Y34.1159
G01 X48.8748 Y34.1151
G01 X48.8608 Y34.1128
G01 X48.8467 Y34.1112
G01 X48.8295 Y34.1070
G01 X48.8097 Y34.1033
G01 X48.7983 Y34.0996
G01 X48.7845 Y34.0959
G01 X48.7680 Y34.0894
G01 X48.7490 Y34.0829
G01 X48.7383 Y34.0777
G01 X48.7253 Y34.0722
G01 X48.7097 Y34.0634
G01 X48.6936 Y34.0554
G01 X48.6820 Y34.0476
G01 X48.6718 Y34.0418
G01 X48.6556 Y34.0296
G01 X48.6408 Y34.0194
G01 X48.6302 Y34.0099
G01 X48.6191 Y34.0010
G01 X48.6067 Y33.9883
G01 X48.5936 Y33.9762
G01 X48.5844 Y33.9654
G01 X48.5749 Y33.9553
G01 X48.5641 Y33.9408
G01 X48.5527 Y33.9268
G01 X48.5452 Y33.9150
G01 X48.5383 Y33.9054
G01 X48.5285 Y33.8876
G01 X48.5193 Y33.8723
G01 X48.5135 Y33.8595
G01 X48.5081 Y33.8491
G01 X48.5008 Y33.8301
G01 X48.4938 Y33.8137
G01 X48.4898 Y33.8001
G01 X48.4859 Y33.7890
G01 X48.4814 Y33.7693
G01 X48.4762 Y33.7495
G01 X48.4747 Y33.7379
G01 X48.4720 Y33.7241
G01 X48.4707 Y33.7063
G01 X48.4685 Y33.6885
G01 X48.4685 Y33.6743
G01 X48.4677 Y33.6615
G01 X48.4677 Y33.5032
G01 X47.5954 Y32.6309
G01 X47.4252 Y32.6309
G01 X47.4110 Y32.6298
G01 X47.3882 Y32.6294
G01 X47.3522 Y32.6240
G01 X47.3398 Y32.6228
G01 X47.3226 Y32.6193
G01 X47.2996 Y32.6123
G01 X47.2764 Y32.6060
G01 X47.2616 Y32.6006
G01 X47.2396 Y32.5904
G01 X47.2174 Y32.5809
G01 X47.2108 Y32.5771
G01 X47.2058 Y32.5747
G01 X47.1609 Y32.5467
G01 X47.1499 Y32.5385
G01 X47.1115 Y32.5060
G01 X39.4383 Y24.8335
G01 X39.4291 Y24.8226
G01 X39.4118 Y24.8045
G01 X39.3916 Y24.7770
G01 X39.3817 Y24.7645
G01 X39.3741 Y24.7527
G01 X39.3626 Y24.7314
G01 X39.3519 Y24.7126
G01 X39.3441 Y24.6961
G01 X39.3262 Y24.6493
G01 X39.3222 Y24.6358
G01 X39.3172 Y24.6126
G01 X39.3114 Y24.5892
G01 X39.3088 Y24.5712
G01 X39.3073 Y24.5494
G01 X39.3050 Y24.5255
G01 X39.3047 Y24.5108
G01 X39.3047 Y18.7400
G01 X39.3059 Y18.7249
G01 X39.3074 Y18.6907
G01 X39.3116 Y18.6661
G01 X39.3129 Y18.6539
G01 X39.3165 Y18.6393
G01 X39.3193 Y18.6254
G01 X39.3249 Y18.6085
G01 X39.3296 Y18.5912
G01 X39.3350 Y18.5781
G01 X39.3396 Y18.5648
G01 X39.3476 Y18.5486
G01 X39.3557 Y18.5303
G01 X39.3618 Y18.5202
G01 X39.3683 Y18.5075
G01 X39.3784 Y18.4928
G01 X39.3877 Y18.4775
G01 X39.3965 Y18.4665
G01 X39.4031 Y18.4568
G01 X39.4167 Y18.4417
G01 X39.4282 Y18.4278
G01 X39.4384 Y18.4181
G01 X39.4480 Y18.4079
G01 X39.4618 Y18.3965
G01 X39.4751 Y18.3844
G01 X39.4865 Y18.3762
G01 X39.4975 Y18.3674
G01 X39.5129 Y18.3579
G01 X39.5277 Y18.3478
G01 X39.5400 Y18.3414
G01 X39.5523 Y18.3342
G01 X39.5687 Y18.3270
G01 X39.5847 Y18.3191
G01 X39.5979 Y18.3144
G01 X39.6110 Y18.3090
G01 X39.6283 Y18.3042
G01 X39.6454 Y18.2985
G01 X39.6593 Y18.2957
G01 X39.6728 Y18.2923
G01 X39.6905 Y18.2899
G01 X39.7082 Y18.2867
G01 X39.7225 Y18.2858
G01 X39.7364 Y18.2843
G01 X39.7543 Y18.2845
G01 X39.7722 Y18.2838
G01 X39.7863 Y18.2849
G01 X39.8004 Y18.2854
G01 X39.8179 Y18.2881
G01 X39.8357 Y18.2898
G01 X39.8497 Y18.2929
G01 X39.8636 Y18.2953
G01 X39.8806 Y18.3004
G01 X39.9005 Y18.3055
G01 X39.9113 Y18.3098
G01 X39.9247 Y18.3140
G01 X39.9409 Y18.3215
G01 X39.9576 Y18.3281
G01 X39.9700 Y18.3350
G01 X39.9827 Y18.3411
G01 X39.9979 Y18.3509
G01 X40.0133 Y18.3598
G01 X40.0245 Y18.3682
G01 X40.0363 Y18.3761
G01 X40.0498 Y18.3877
G01 X40.0640 Y18.3987
G01 X40.0741 Y18.4089
G01 X40.0836 Y18.4173
G01 X40.2850 Y18.6186
G01 X40.5523 Y18.7294
G01 X44.0165 Y18.7296
G01 X44.2837 Y18.6189
G01 X44.3887 Y18.5139
G01 X44.4882 Y18.4144
G01 X44.5990 Y18.1471
G01 X44.6000 Y1.5000
G01 X44.6010 Y1.4889
G01 X44.6013 Y1.4667
G01 X44.6054 Y1.4148
G01 X44.6076 Y1.4022
G01 X44.6109 Y1.3728
G01 X44.6178 Y1.3451
G01 X44.6208 Y1.3295
G01 X44.6237 Y1.3210
G01 X44.6261 Y1.3120
G01 X44.6567 Y1.2178
G01 X44.6593 Y1.2113
G01 X44.6630 Y1.2001
G01 X44.6881 Y1.1440
G01 X44.6939 Y1.1336
G01 X44.7216 Y1.0905
G01 X44.7798 Y1.0104
G01 X44.7842 Y1.0051
G01 X44.7897 Y0.9972
G01 X44.8293 Y0.9531
G01 X44.8411 Y0.9419
G01 X44.8807 Y0.9094
G01 X44.9744 Y0.8418
G01 X45.0278 Y0.8108
G01 X45.0406 Y0.8049
G01 X45.0882 Y0.7864
G01 X45.1824 Y0.7558
G01 X45.1970 Y0.7523
G01 X45.2254 Y0.7442
G01 X45.2538 Y0.7398
G01 X45.2669 Y0.7370
G01 X45.2781 Y0.7362
G01 X45.2855 Y0.7350
G01 X45.3371 Y0.7310
G01 X45.3509 Y0.7310
G01 X45.3729 Y0.7296
G01 X83.0697 Y0.7318
G01 X83.0833 Y0.7329
G01 X83.1054 Y0.7332
G01 X83.1573 Y0.7373
G01 X83.1699 Y0.7395
G01 X83.1994 Y0.7428
G01 X83.2271 Y0.7497
G01 X83.2401 Y0.7520
G01 X83.2513 Y0.7556
G01 X83.2601 Y0.7580
G01 X83.3544 Y0.7886
G01 X83.3609 Y0.7912
G01 X83.3698 Y0.7940
G01 X83.4242 Y0.8180
G01 X83.4385 Y0.8258
G01 X83.4816 Y0.8535
G01 X83.5731 Y0.9202
G01 X83.6207 Y0.9628
G01 X83.6302 Y0.9730
G01 X83.6627 Y1.0126
G01 X83.7209 Y1.0928
G01 X83.7244 Y1.0984
G01 X83.7289 Y1.1041
G01 X83.7316 Y1.1083
G01 X83.7601 Y1.1576
G01 X83.7663 Y1.1704
G01 X83.7858 Y1.2201
G01 X83.8170 Y1.3166
G01 X83.8199 Y1.3291
G01 X83.8279 Y1.3573
G01 X83.8323 Y1.3857
G01 X83.8351 Y1.3988
G01 X83.8359 Y1.4099
G01 X83.8372 Y1.4194
G01 X83.8411 Y1.4690
G01 X83.8411 Y1.4828
G01 X83.8425 Y1.5047
G01 X83.8413 Y20.7078
G01 X83.8031 Y22.0539
G01 X83.8016 Y22.0681
G01 X83.8004 Y22.0925
G01 X83.4964 Y24.7674
G01 X83.4935 Y24.7822
G01 X83.4876 Y24.8183
G01 X82.8837 Y27.4418
G01 X82.8791 Y27.4562
G01 X82.8704 Y27.4880
G01 X81.9731 Y30.0300
G01 X81.9670 Y30.0438
G01 X81.9533 Y30.0776
G01 X80.7764 Y32.4989
G01 X80.7690 Y32.5113
G01 X80.7580 Y32.5329
G01 X80.0620 Y33.7008
G01 X70.4035 Y48.9182
G01 X70.3949 Y48.9296
G01 X70.3817 Y48.9495
G01 X70.3483 Y48.9936
G01 X70.3396 Y49.0031
G01 X70.3176 Y49.0295
G01 X70.2994 Y49.0465
G01 X70.2890 Y49.0572
G01 X70.2793 Y49.0648
G01 X70.2696 Y49.0735
G01 X70.1868 Y49.1391
G01 X70.1781 Y49.1450
G01 X70.1660 Y49.1546
G01 X70.1132 Y49.1867
G01 X70.0535 Y49.2124
G01 X69.9537 Y49.2471
G01 X69.9392 Y49.2509
G01 X69.9040 Y49.2613
G01 X69.8817 Y49.2649
G01 X69.8697 Y49.2677
G01 X69.8548 Y49.2690
G01 X69.8419 Y49.2709
G01 X69.7892 Y49.2753
G01 X69.7748 Y49.2753
G01 X69.7510 Y49.2769
G01 X14.8143 Y49.2737
G01 X14.8001 Y49.2726
G01 X14.7760 Y49.2721
G01 X14.7232 Y49.2677
G01 X14.7081 Y49.2651
G01 X14.6719 Y49.2604
G01 X14.6502 Y49.2545
G01 X14.6369 Y49.2520
G01 X14.6239 Y49.2474
G01 X14.6131 Y49.2445
G01 X14.5116 Y49.2091
G01 X14.5022 Y49.2050
G01 X14.4895 Y49.2008
G01 X14.4852 Y49.1989
G01 X14.4339 Y49.1735
G01 X14.4280 Y49.1700
G01 X14.3783 Y49.1359
G01 X14.2955 Y49.0702
G01 X14.2845 Y49.0600
G01 X14.2584 Y49.0374
G01 X14.2419 Y49.0188
G01 X14.2313 Y49.0083
G01 X14.2238 Y48.9983
G01 X14.2155 Y48.9884
G01 X14.1835 Y48.9462
G01 X14.1758 Y48.9343
G01 X14.1617 Y48.9149
G01 X4.4981 Y33.6854
G01 X3.8091 Y32.5284
G01 X3.8028 Y32.5156
G01 X3.7907 Y32.4944
G01 X2.6132 Y30.0708
G01 X2.6086 Y30.0589
G01 X2.5942 Y30.0253
G01 X1.6983 Y27.4866
G01 X1.6945 Y27.4721
G01 X1.6840 Y27.4370
G01 X1.0804 Y24.8134
G01 X1.0782 Y24.7986
G01 X1.0721 Y24.7662
G01 X0.7680 Y22.0876
G01 X0.7675 Y22.0733
G01 X0.7652 Y22.0490
G01 X0.7271 Y20.6901
G01 X0.7278 Y7.8473
G01 X0.7046 Y7.8290
G01 X0.6753 Y7.8038
G01 X0.6455 Y7.7755
G01 X0.6154 Y7.7439
G01 X0.5886 Y7.7127
G01 X0.5642 Y7.6815
G01 X0.5411 Y7.6487
G01 X0.5190 Y7.6140
G01 X0.4987 Y7.5782
G01 X0.4791 Y7.5393
G01 X0.4627 Y7.5022
G01 X0.4486 Y7.4656
G01 X0.4357 Y7.4266
G01 X0.4246 Y7.3870
G01 X0.4153 Y7.3457
G01 X0.4081 Y7.3039
G01 X0.4031 Y7.2631
G01 X0.4002 Y7.2221
G01 X0.3992 Y7.1834
G01 X0.4002 Y7.1423
G00 Z15.0000
G00 X6.3946 Y7.1423
G01 F650.00
G01 Z-0.1100
G01 F650.00
G01 X6.3978 Y7.0989
G01 X6.4029 Y7.0581
G01 X6.4097 Y7.0187
G01 X6.4184 Y6.9798
G01 X6.4293 Y6.9402
G01 X6.4430 Y6.8988
G01 X6.4571 Y6.8622
G01 X6.4745 Y6.8230
G01 X6.4920 Y6.7884
G01 X6.5122 Y6.7525
G01 X6.5355 Y6.7157
G01 X6.5586 Y6.6829
G01 X6.5846 Y6.6498
G01 X6.6115 Y6.6187
G01 X6.6390 Y6.5898
G01 X6.6679 Y6.5623
G01 X6.6990 Y6.5354
G01 X6.7333 Y6.5086
G01 X6.7670 Y6.4849
G01 X6.7998 Y6.4641
G01 X6.8354 Y6.4439
G01 X6.8721 Y6.4254
G01 X6.9119 Y6.4077
G01 X6.9503 Y6.3930
G01 X6.9870 Y6.3809
G01 X7.0266 Y6.3698
G01 X7.0668 Y6.3608
G01 X7.1073 Y6.3537
G01 X7.1484 Y6.3485
G01 X7.1891 Y6.3455
G01 X7.2302 Y6.3444
G01 X8.0010 Y6.3444
G01 X8.0353 Y6.3349
G01 X8.0650 Y6.3283
G01 X8.0662 Y6.3280
G01 X8.0669 Y6.3279
G01 X8.0993 Y6.3222
G01 X8.1346 Y6.3179
G01 X8.1669 Y6.3155
G01 X8.1986 Y6.3147
G01 X10.2857 Y6.3147
G01 X12.0850 Y4.5154
G01 X12.1103 Y4.4914
G01 X12.1341 Y4.4708
G01 X12.1604 Y4.4503
G01 X12.1899 Y4.4295
G01 X12.2164 Y4.4127
G01 X12.2476 Y4.3950
G01 X12.2756 Y4.3810
G01 X12.3062 Y4.3673
G01 X12.3399 Y4.3543
G01 X12.3718 Y4.3439
G01 X12.4019 Y4.3355
G01 X12.4371 Y4.3276
G01 X12.4703 Y4.3219
G01 X12.5015 Y4.3181
G01 X12.5347 Y4.3156
G01 X12.5696 Y4.3147
G01 X30.5696 Y4.3147
G01 X30.6020 Y4.3155
G01 X30.6356 Y4.3179
G01 X30.6714 Y4.3223
G01 X30.7034 Y4.3279
G01 X30.7349 Y4.3349
G01 X30.7697 Y4.3446
G01 X30.8016 Y4.3552
G01 X30.8307 Y4.3664
G01 X30.8637 Y4.3810
G01 X30.8937 Y4.3962
G01 X30.9230 Y4.4128
G01 X30.9514 Y4.4309
G01 X30.9768 Y4.4488
G01 X31.0053 Y4.4710
G01 X31.0307 Y4.4930
G01 X31.0542 Y4.5154
G01 X36.0542 Y9.5154
G01 X36.0782 Y9.5407
G01 X36.0988 Y9.5645
G01 X36.1199 Y9.5915
G01 X36.1401 Y9.6203
G01 X36.1569 Y9.6468
G01 X36.1734 Y9.6759
G01 X36.1896 Y9.7081
G01 X36.2030 Y9.7383
G01 X36.2144 Y9.7680
G01 X36.2250 Y9.7999
G01 X36.2347 Y9.8347
G01 X36.2417 Y9.8663
G01 X36.2473 Y9.8982
G01 X36.2515 Y9.9316
G01 X36.2540 Y9.9651
G01 X36.2549 Y10.0000
G01 X36.2549 Y25.7161
G01 X45.0542 Y34.5154
G01 X45.0766 Y34.5389
G01 X45.0988 Y34.5645
G01 X45.1208 Y34.5928
G01 X45.1401 Y34.6203
G01 X45.1569 Y34.6468
G01 X45.1746 Y34.6780
G01 X45.1886 Y34.7060
G01 X45.2030 Y34.7383
G01 X45.2144 Y34.7680
G01 X45.2250 Y34.7999
G01 X45.2347 Y34.8347
G01 X45.2417 Y34.8662
G01 X45.2473 Y34.8982
G01 X45.2517 Y34.9340
G01 X45.2541 Y34.9676
G01 X45.2549 Y35.0000
G01 X45.2549 Y36.3147
G01 X47.6936 Y36.3147
G01 X50.0882 Y33.9200
G01 X50.0882 Y30.4878
G01 X48.0850 Y28.4846
G01 X48.0610 Y28.4593
G01 X48.0404 Y28.4355
G01 X48.0193 Y28.4085
G01 X48.0005 Y28.3818
G01 X47.9824 Y28.3534
G01 X47.9646 Y28.3220
G01 X47.9506 Y28.2940
G01 X47.9362 Y28.2617
G01 X47.9248 Y28.2320
G01 X47.9142 Y28.2001
G01 X47.9045 Y28.1653
G01 X47.8975 Y28.1338
G01 X47.8919 Y28.1018
G01 X47.8877 Y28.0681
G01 X47.8852 Y28.0349
G01 X47.8843 Y28.0000
G01 X47.8843 Y6.0000
G01 X47.8852 Y5.9651
G01 X47.8877 Y5.9316
G01 X47.8919 Y5.8982
G01 X47.8975 Y5.8663
G01 X47.9045 Y5.8347
G01 X47.9135 Y5.8022
G01 X47.9239 Y5.7703
G01 X47.9360 Y5.7389
G01 X47.9496 Y5.7081
G01 X47.9646 Y5.6780
G01 X47.9812 Y5.6487
G01 X47.9991 Y5.6203
G01 X48.0199 Y5.5908
G01 X48.0406 Y5.5643
G01 X48.0626 Y5.5389
G01 X48.0850 Y5.5154
G01 X51.0850 Y2.5154
G01 X51.1085 Y2.4930
G01 X51.1358 Y2.4695
G01 X51.1611 Y2.4497
G01 X51.1899 Y2.4295
G01 X51.2164 Y2.4127
G01 X51.2476 Y2.3950
G01 X51.2777 Y2.3800
G01 X51.3085 Y2.3664
G01 X51.3399 Y2.3543
G01 X51.3718 Y2.3439
G01 X51.4043 Y2.3349
G01 X51.4358 Y2.3279
G01 X51.4678 Y2.3223
G01 X51.5015 Y2.3181
G01 X51.5347 Y2.3156
G01 X51.5684 Y2.3147
G01 X73.9255 Y2.3147
G01 X73.9604 Y2.3156
G01 X73.9939 Y2.3181
G01 X74.0273 Y2.3223
G01 X74.0580 Y2.3276
G01 X74.0932 Y2.3355
G01 X74.1256 Y2.3446
G01 X74.1575 Y2.3552
G01 X74.1872 Y2.3666
G01 X74.2174 Y2.3800
G01 X74.2496 Y2.3962
G01 X74.2789 Y2.4128
G01 X74.3052 Y2.4295
G01 X74.3347 Y2.4503
G01 X74.3612 Y2.4710
G01 X74.3848 Y2.4914
G01 X74.4101 Y2.5154
G01 X75.9220 Y4.0273
G01 X75.9742 Y4.0234
G01 X76.0285 Y4.0220
G01 X76.0828 Y4.0234
G01 X76.1357 Y4.0273
G01 X76.1883 Y4.0339
G01 X76.2394 Y4.0428
G01 X76.2923 Y4.0547
G01 X76.3435 Y4.0689
G01 X76.3938 Y4.0856
G01 X76.4433 Y4.1048
G01 X76.4918 Y4.1263
G01 X76.5392 Y4.1502
G01 X76.5832 Y4.1752
G01 X76.6280 Y4.2035
G01 X76.6727 Y4.2349
G01 X76.7133 Y4.2666
G01 X76.7535 Y4.3012
G01 X76.7929 Y4.3386
G01 X76.8286 Y4.3761
G01 X76.8635 Y4.4165
G01 X76.8966 Y4.4588
G01 X76.9266 Y4.5014
G01 X76.9552 Y4.5464
G01 X76.9813 Y4.5923
G01 X77.0052 Y4.6398
G01 X77.0274 Y4.6899
G01 X77.0467 Y4.7400
G01 X77.0633 Y4.7904
G01 X77.0774 Y4.8415
G01 X77.0887 Y4.8921
G01 X77.0980 Y4.9456
G01 X77.1042 Y4.9961
G01 X77.1082 Y5.0512
G01 X77.1095 Y5.1030
G01 X77.1081 Y5.1573
G01 X77.1042 Y5.2102
G01 X77.0976 Y5.2628
G01 X77.0887 Y5.3139
G01 X77.0768 Y5.3668
G01 X77.0626 Y5.4180
G01 X77.0467 Y5.4660
G01 X77.0277 Y5.5155
G01 X77.0052 Y5.5662
G01 X76.9824 Y5.6115
G01 X76.9563 Y5.6577
G01 X76.9280 Y5.7025
G01 X76.8966 Y5.7472
G01 X76.8649 Y5.7878
G01 X76.8303 Y5.8280
G01 X76.7929 Y5.8674
G01 X76.7554 Y5.9031
G01 X76.7150 Y5.9380
G01 X76.6727 Y5.9711
G01 X76.6280 Y6.0025
G01 X76.5851 Y6.0297
G01 X76.5370 Y6.0569
G01 X76.4917 Y6.0797
G01 X76.4433 Y6.1012
G01 X76.3938 Y6.1204
G01 X76.3435 Y6.1371
G01 X76.2923 Y6.1513
G01 X76.2394 Y6.1632
G01 X76.1883 Y6.1721
G01 X76.1354 Y6.1787
G01 X76.0803 Y6.1827
G01 X76.0285 Y6.1840
G01 X75.9742 Y6.1826
G01 X75.9213 Y6.1787
G01 X75.8687 Y6.1721
G01 X75.8176 Y6.1632
G01 X75.7647 Y6.1513
G01 X75.7135 Y6.1371
G01 X75.6632 Y6.1204
G01 X75.6154 Y6.1019
G01 X75.5653 Y6.0797
G01 X75.5178 Y6.0558
G01 X75.4717 Y6.0296
G01 X75.4269 Y6.0011
G01 X75.3843 Y5.9711
G01 X75.3437 Y5.9394
G01 X75.3035 Y5.9048
G01 X75.2641 Y5.8674
G01 X75.2284 Y5.8299
G01 X75.1935 Y5.7895
G01 X75.1604 Y5.7472
G01 X75.1304 Y5.7046
G01 X75.1018 Y5.6596
G01 X75.0757 Y5.6137
G01 X75.0518 Y5.5662
G01 X75.0296 Y5.5161
G01 X75.0103 Y5.4660
G01 X74.9937 Y5.4156
G01 X74.9796 Y5.3645
G01 X74.9685 Y5.3151
G01 X74.9594 Y5.2628
G01 X74.9528 Y5.2102
G01 X74.9489 Y5.1573
G01 X74.9475 Y5.1030
G01 X74.9489 Y5.0487
G01 X74.9528 Y4.9965
G01 X73.6416 Y3.6853
G01 X51.8535 Y3.6853
G01 X49.2549 Y6.2839
G01 X49.2549 Y27.7161
G01 X51.2589 Y29.7202
G01 X51.2821 Y29.7446
G01 X51.3027 Y29.7684
G01 X51.3232 Y29.7947
G01 X51.3426 Y29.8221
G01 X51.3607 Y29.8505
G01 X51.3773 Y29.8798
G01 X51.3925 Y29.9099
G01 X51.4069 Y29.9422
G01 X51.4192 Y29.9742
G01 X51.4296 Y30.0061
G01 X51.4386 Y30.0386
G01 X51.4456 Y30.0701
G01 X51.4512 Y30.1021
G01 X51.4556 Y30.1379
G01 X51.4580 Y30.1715
G01 X51.4588 Y30.2039
G01 X51.4588 Y34.2039
G01 X51.4580 Y34.2375
G01 X51.4556 Y34.2698
G01 X51.4512 Y34.3057
G01 X51.4456 Y34.3376
G01 X51.4386 Y34.3692
G01 X51.4293 Y34.4028
G01 X51.4188 Y34.4348
G01 X51.4071 Y34.4650
G01 X51.3930 Y34.4969
G01 X51.3779 Y34.5269
G01 X51.3619 Y34.5552
G01 X51.3433 Y34.5846
G01 X51.3240 Y34.6121
G01 X51.3040 Y34.6377
G01 X51.2805 Y34.6650
G01 X51.2581 Y34.6885
G01 X48.4621 Y37.4846
G01 X48.4368 Y37.5086
G01 X48.4113 Y37.5305
G01 X48.3860 Y37.5503
G01 X48.3593 Y37.5691
G01 X48.3309 Y37.5872
G01 X48.2995 Y37.6050
G01 X48.2694 Y37.6200
G01 X48.2392 Y37.6334
G01 X48.2095 Y37.6448
G01 X48.1776 Y37.6554
G01 X48.1428 Y37.6651
G01 X48.1113 Y37.6721
G01 X48.0793 Y37.6777
G01 X48.0456 Y37.6819
G01 X48.0099 Y37.6845
G01 X47.9775 Y37.6853
G01 X44.8535 Y37.6853
G01 X42.9530 Y39.5858
G01 X42.9529 Y43.3248
G01 X42.9645 Y43.3370
G01 X42.9946 Y43.3720
G01 X43.0220 Y43.4072
G01 X43.0480 Y43.4441
G01 X43.0740 Y43.4851
G01 X43.0967 Y43.5252
G01 X43.1174 Y43.5665
G01 X43.1358 Y43.6081
G01 X43.1525 Y43.6517
G01 X43.1669 Y43.6955
G01 X43.1786 Y43.7375
G01 X43.1892 Y43.7849
G01 X43.1970 Y43.8304
G01 X43.2024 Y43.8740
G01 X43.2058 Y43.9197
G01 X43.2070 Y43.9670
G01 X43.2070 Y45.7450
G01 X43.2060 Y45.7899
G01 X43.2026 Y45.8359
G01 X43.1967 Y45.8841
G01 X43.1890 Y45.9283
G01 X43.1786 Y45.9745
G01 X43.1662 Y46.0189
G01 X43.1517 Y46.0626
G01 X43.1358 Y46.1039
G01 X43.1164 Y46.1476
G01 X43.0967 Y46.1868
G01 X43.0740 Y46.2269
G01 X43.0494 Y46.2659
G01 X43.0229 Y46.3036
G01 X42.9930 Y46.3419
G01 X42.9628 Y46.3768
G01 X42.9310 Y46.4101
G01 X42.8976 Y46.4419
G01 X42.8643 Y46.4706
G01 X42.8274 Y46.4994
G01 X42.7905 Y46.5254
G01 X42.7514 Y46.5503
G01 X42.7115 Y46.5729
G01 X42.6702 Y46.5938
G01 X42.6282 Y46.6125
G01 X42.5852 Y46.6291
G01 X42.5415 Y46.6436
G01 X42.4947 Y46.6566
G01 X42.4509 Y46.6664
G01 X42.4042 Y46.6744
G01 X42.3606 Y46.6798
G01 X42.3125 Y46.6834
G01 X42.2676 Y46.6844
G01 X42.2203 Y46.6832
G01 X42.1743 Y46.6798
G01 X42.1285 Y46.6741
G01 X42.0843 Y46.6664
G01 X42.0381 Y46.6560
G01 X41.9937 Y46.6436
G01 X41.9500 Y46.6291
G01 X41.9087 Y46.6132
G01 X41.8650 Y46.5938
G01 X41.8258 Y46.5741
G01 X41.7857 Y46.5514
G01 X41.7467 Y46.5268
G01 X41.7078 Y46.4994
G01 X41.6726 Y46.4720
G01 X41.6376 Y46.4419
G01 X41.6025 Y46.4084
G01 X41.5707 Y46.3750
G01 X41.5406 Y46.3400
G01 X41.5132 Y46.3048
G01 X41.4858 Y46.2659
G01 X41.4623 Y46.2288
G01 X41.4385 Y46.1868
G01 X41.4188 Y46.1476
G01 X41.3994 Y46.1039
G01 X41.3827 Y46.0603
G01 X41.3683 Y46.0165
G01 X41.3560 Y45.9721
G01 X41.3462 Y45.9283
G01 X41.3385 Y45.8841
G01 X41.3328 Y45.8380
G01 X41.3294 Y45.7923
G01 X41.3282 Y45.7450
G01 X41.3282 Y43.9670
G01 X41.3294 Y43.9197
G01 X41.3328 Y43.8737
G01 X41.3385 Y43.8279
G01 X41.3460 Y43.7849
G01 X41.3566 Y43.7375
G01 X41.3690 Y43.6931
G01 X41.3835 Y43.6494
G01 X41.3994 Y43.6081
G01 X41.4178 Y43.5665
G01 X41.4385 Y43.5252
G01 X41.4612 Y43.4851
G01 X41.4872 Y43.4441
G01 X41.5132 Y43.4072
G01 X41.5406 Y43.3720
G01 X41.5707 Y43.3370
G01 X41.5823 Y43.3247
G01 X41.5824 Y39.3019
G01 X41.5833 Y39.2670
G01 X41.5858 Y39.2335
G01 X41.5896 Y39.2025
G01 X41.5958 Y39.1670
G01 X41.6032 Y39.1342
G01 X41.6116 Y39.1041
G01 X41.6229 Y39.0699
G01 X41.6343 Y39.0402
G01 X41.6487 Y39.0079
G01 X41.6627 Y38.9799
G01 X41.6793 Y38.9506
G01 X41.6986 Y38.9201
G01 X41.7174 Y38.8934
G01 X41.7372 Y38.8681
G01 X41.7607 Y38.8408
G01 X41.7831 Y38.8173
G01 X43.8843 Y36.7161
G01 X43.8843 Y35.2839
G01 X35.0850 Y26.4846
G01 X35.0626 Y26.4611
G01 X35.0404 Y26.4355
G01 X35.0193 Y26.4085
G01 X34.9991 Y26.3797
G01 X34.9812 Y26.3513
G01 X34.9646 Y26.3220
G01 X34.9506 Y26.2941
G01 X34.9362 Y26.2617
G01 X34.9248 Y26.2320
G01 X34.9142 Y26.2001
G01 X34.9051 Y26.1677
G01 X34.8972 Y26.1325
G01 X34.8915 Y26.0993
G01 X34.8877 Y26.0681
G01 X34.8852 Y26.0349
G01 X34.8843 Y26.0000
G01 X34.8843 Y10.2839
G01 X30.2857 Y5.6853
G01 X12.8535 Y5.6853
G01 X11.0542 Y7.4846
G01 X11.0307 Y7.5070
G01 X11.0034 Y7.5305
G01 X10.9781 Y7.5503
G01 X10.9514 Y7.5691
G01 X10.9228 Y7.5873
G01 X10.8916 Y7.6050
G01 X10.8615 Y7.6200
G01 X10.8313 Y7.6334
G01 X10.8016 Y7.6448
G01 X10.7697 Y7.6554
G01 X10.7349 Y7.6651
G01 X10.7034 Y7.6721
G01 X10.6714 Y7.6777
G01 X10.6380 Y7.6819
G01 X10.6045 Y7.6844
G01 X10.5708 Y7.6853
G01 X9.4760 Y7.6853
G01 X9.4530 Y7.7146
G01 X9.4278 Y7.7439
G01 X9.3995 Y7.7737
G01 X9.3697 Y7.8021
G01 X9.3386 Y7.8290
G01 X9.3055 Y7.8550
G01 X9.2727 Y7.8781
G01 X9.2378 Y7.9003
G01 X9.2022 Y7.9205
G01 X9.1654 Y7.9391
G01 X9.1262 Y7.9565
G01 X9.0896 Y7.9706
G01 X9.0506 Y7.9835
G01 X9.0110 Y7.9946
G01 X8.9697 Y8.0039
G01 X8.9303 Y8.0107
G01 X8.8892 Y8.0159
G01 X8.8485 Y8.0189
G01 X8.8062 Y8.0200
G01 X7.2314 Y8.0200
G01 X7.1891 Y8.0189
G01 X7.1481 Y8.0158
G01 X7.1073 Y8.0107
G01 X7.0679 Y8.0039
G01 X7.0266 Y7.9946
G01 X6.9870 Y7.9835
G01 X6.9480 Y7.9706
G01 X6.9114 Y7.9565
G01 X6.8722 Y7.9391
G01 X6.8354 Y7.9205
G01 X6.7996 Y7.9002
G01 X6.7649 Y7.8781
G01 X6.7321 Y7.8550
G01 X6.6990 Y7.8290
G01 X6.6679 Y7.8021
G01 X6.6390 Y7.7746
G01 X6.6115 Y7.7457
G01 X6.5846 Y7.7146
G01 X6.5586 Y7.6815
G01 X6.5355 Y7.6487
G01 X6.5122 Y7.6119
G01 X6.4920 Y7.5760
G01 X6.4735 Y7.5393
G01 X6.4571 Y7.5022
G01 X6.4422 Y7.4633
G01 X6.4293 Y7.4242
G01 X6.4184 Y7.3846
G01 X6.4097 Y7.3457
G01 X6.4025 Y7.3039
G01 X6.3977 Y7.2652
G01 X6.3946 Y7.2221
G01 X6.3936 Y7.1822
G01 X6.3946 Y7.1423
G00 Z15.0000
G00 X6.3946 Y4.6531
G01 F650.00
G01 Z-0.1100
G01 F650.00
G01 X6.3978 Y4.6097
G01 X6.4029 Y4.5689
G01 X6.4097 Y4.5295
G01 X6.4184 Y4.4906
G01 X6.4293 Y4.4510
G01 X6.4430 Y4.4096
G01 X6.4571 Y4.3730
G01 X6.4745 Y4.3338
G01 X6.4920 Y4.2992
G01 X6.5122 Y4.2633
G01 X6.5355 Y4.2265
G01 X6.5586 Y4.1937
G01 X6.5846 Y4.1606
G01 X6.6115 Y4.1295
G01 X6.6390 Y4.1006
G01 X6.6679 Y4.0731
G01 X6.6990 Y4.0462
G01 X6.7333 Y4.0194
G01 X6.7670 Y3.9957
G01 X6.7998 Y3.9749
G01 X6.8354 Y3.9547
G01 X6.8721 Y3.9362
G01 X6.9119 Y3.9185
G01 X6.9503 Y3.9038
G01 X6.9894 Y3.8909
G01 X7.0290 Y3.8800
G01 X7.0679 Y3.8713
G01 X7.1073 Y3.8645
G01 X7.1484 Y3.8593
G01 X7.1891 Y3.8563
G01 X7.2314 Y3.8552
G01 X8.8062 Y3.8552
G01 X8.8485 Y3.8563
G01 X8.8895 Y3.8594
G01 X8.9279 Y3.8641
G01 X8.9697 Y3.8713
G01 X9.0110 Y3.8806
G01 X9.0506 Y3.8917
G01 X9.0873 Y3.9038
G01 X9.1279 Y3.9195
G01 X9.1654 Y3.9361
G01 X9.2000 Y3.9536
G01 X9.2380 Y3.9750
G01 X9.2706 Y3.9957
G01 X9.2875 Y4.0075
G01 X9.5929 Y4.0075
G01 X12.0850 Y1.5154
G01 X12.1085 Y1.4930
G01 X12.1358 Y1.4695
G01 X12.1611 Y1.4497
G01 X12.1878 Y1.4309
G01 X12.2183 Y1.4116
G01 X12.2476 Y1.3950
G01 X12.2756 Y1.3810
G01 X12.3079 Y1.3666
G01 X12.3376 Y1.3552
G01 X12.3718 Y1.3439
G01 X12.4043 Y1.3349
G01 X12.4347 Y1.3281
G01 X12.4703 Y1.3219
G01 X12.5015 Y1.3181
G01 X12.5347 Y1.3156
G01 X12.5696 Y1.3147
G01 X31.5696 Y1.3147
G01 X31.6020 Y1.3155
G01 X31.6356 Y1.3179
G01 X31.6714 Y1.3223
G01 X31.7034 Y1.3279
G01 X31.7349 Y1.3349
G01 X31.7697 Y1.3446
G01 X31.8016 Y1.3552
G01 X31.8307 Y1.3664
G01 X31.8637 Y1.3810
G01 X31.8937 Y1.3962
G01 X31.9230 Y1.4128
G01 X31.9514 Y1.4309
G01 X31.9768 Y1.4488
G01 X32.0053 Y1.4710
G01 X32.0307 Y1.4930
G01 X32.0542 Y1.5154
G01 X38.5542 Y8.0154
G01 X38.5782 Y8.0407
G01 X38.6001 Y8.0662
G01 X38.6199 Y8.0915
G01 X38.6387 Y8.1182
G01 X38.6569 Y8.1468
G01 X38.6746 Y8.1780
G01 X38.6886 Y8.2060
G01 X38.7023 Y8.2366
G01 X38.7153 Y8.2703
G01 X38.7257 Y8.3022
G01 X38.7347 Y8.3347
G01 X38.7415 Y8.3651
G01 X38.7477 Y8.4007
G01 X38.7515 Y8.4319
G01 X38.7540 Y8.4651
G01 X38.7549 Y8.5000
G01 X38.7549 Y19.0000
G01 X38.7540 Y19.0349
G01 X38.7515 Y19.0684
G01 X38.7473 Y19.1018
G01 X38.7417 Y19.1338
G01 X38.7347 Y19.1653
G01 X38.7257 Y19.1978
G01 X38.7153 Y19.2297
G01 X38.7075 Y19.2500
G01 X38.7153 Y19.2703
G01 X38.7257 Y19.3022
G01 X38.7347 Y19.3347
G01 X38.7417 Y19.3662
G01 X38.7473 Y19.3982
G01 X38.7515 Y19.4319
G01 X38.7540 Y19.4651
G01 X38.7549 Y19.5000
G01 X38.7549 Y24.9275
G01 X47.0088 Y33.1810
G01 X47.3468 Y33.1810
G01 X47.3538 Y33.1815
G01 X47.3606 Y33.1829
G01 X47.3671 Y33.1853
G01 X47.3715 Y33.1875
G01 X47.3776 Y33.1916
G01 X47.3822 Y33.1956
G01 X47.9044 Y33.7179
G01 X47.9098 Y33.7250
G01 X47.9142 Y33.7336
G01 X47.9167 Y33.7425
G01 X47.9176 Y33.7518
G01 X47.9176 Y34.4882
G01 X47.9167 Y34.4975
G01 X47.9150 Y34.5042
G01 X47.9122 Y34.5107
G01 X47.9085 Y34.5170
G01 X47.9030 Y34.5236
G01 X47.3822 Y35.0444
G01 X47.3776 Y35.0484
G01 X47.3736 Y35.0512
G01 X47.3650 Y35.0556
G01 X47.3561 Y35.0581
G01 X47.3468 Y35.0590
G01 X46.6104 Y35.0590
G01 X46.6011 Y35.0581
G01 X46.5922 Y35.0556
G01 X46.5857 Y35.0525
G01 X46.5780 Y35.0471
G01 X46.0542 Y34.5236
G01 X46.0502 Y34.5190
G01 X46.0474 Y34.5150
G01 X46.0439 Y34.5085
G01 X46.0415 Y34.5020
G01 X46.0401 Y34.4952
G01 X46.0396 Y34.4882
G01 X46.0396 Y34.1502
G01 X37.5850 Y25.6960
G01 X37.5618 Y25.6716
G01 X37.5406 Y25.6471
G01 X37.5191 Y25.6196
G01 X37.4998 Y25.5922
G01 X37.4824 Y25.5648
G01 X37.4652 Y25.5345
G01 X37.4496 Y25.5033
G01 X37.4365 Y25.4737
G01 X37.4248 Y25.4434
G01 X37.4138 Y25.4104
G01 X37.4048 Y25.3779
G01 X37.3975 Y25.3451
G01 X37.3915 Y25.3107
G01 X37.3876 Y25.2786
G01 X37.3852 Y25.2463
G01 X37.3843 Y25.2114
G01 X37.3843 Y19.5000
G01 X37.3852 Y19.4651
G01 X37.3877 Y19.4316
G01 X37.3919 Y19.3982
G01 X37.3975 Y19.3662
G01 X37.4045 Y19.3347
G01 X37.4135 Y19.3022
G01 X37.4239 Y19.2703
G01 X37.4317 Y19.2500
G01 X37.4239 Y19.2297
G01 X37.4135 Y19.1978
G01 X37.4045 Y19.1653
G01 X37.3975 Y19.1338
G01 X37.3919 Y19.1018
G01 X37.3877 Y19.0681
G01 X37.3852 Y19.0349
G01 X37.3843 Y19.0000
G01 X37.3843 Y8.7839
G01 X31.2857 Y2.6853
G01 X12.8535 Y2.6853
G01 X10.3605 Y5.1782
G01 X10.3361 Y5.2014
G01 X10.3123 Y5.2220
G01 X10.2860 Y5.2425
G01 X10.2586 Y5.2619
G01 X10.2292 Y5.2806
G01 X10.1988 Y5.2977
G01 X10.1687 Y5.3128
G01 X10.1385 Y5.3262
G01 X10.1089 Y5.3376
G01 X10.0770 Y5.3482
G01 X10.0422 Y5.3579
G01 X10.0093 Y5.3652
G01 X9.9762 Y5.3709
G01 X9.9453 Y5.3747
G01 X9.9093 Y5.3773
G01 X9.8769 Y5.3781
G01 X9.2879 Y5.3782
G01 X9.2706 Y5.3903
G01 X9.2378 Y5.4111
G01 X9.2000 Y5.4324
G01 X9.1654 Y5.4499
G01 X9.1279 Y5.4665
G01 X9.0873 Y5.4822
G01 X9.0482 Y5.4951
G01 X9.0110 Y5.5054
G01 X8.9697 Y5.5147
G01 X8.9279 Y5.5219
G01 X8.8892 Y5.5267
G01 X8.8485 Y5.5297
G01 X8.8062 Y5.5308
G01 X7.2314 Y5.5308
G01 X7.1891 Y5.5297
G01 X7.1481 Y5.5266
G01 X7.1073 Y5.5215
G01 X7.0679 Y5.5147
G01 X7.0290 Y5.5060
G01 X6.9894 Y5.4951
G01 X6.9503 Y5.4822
G01 X6.9119 Y5.4675
G01 X6.8721 Y5.4498
G01 X6.8354 Y5.4313
G01 X6.7996 Y5.4110
G01 X6.7649 Y5.3889
G01 X6.7321 Y5.3658
G01 X6.7009 Y5.3414
G01 X6.6697 Y5.3146
G01 X6.6390 Y5.2854
G01 X6.6115 Y5.2565
G01 X6.5830 Y5.2235
G01 X6.5586 Y5.1923
G01 X6.5355 Y5.1595
G01 X6.5133 Y5.1246
G01 X6.4931 Y5.0890
G01 X6.4745 Y5.0522
G01 X6.4571 Y5.0130
G01 X6.4430 Y4.9764
G01 X6.4301 Y4.9374
G01 X6.4184 Y4.8954
G01 X6.4097 Y4.8565
G01 X6.4025 Y4.8147
G01 X6.3977 Y4.7760
G01 X6.3946 Y4.7329
G01 X6.3936 Y4.6930
G01 X6.3946 Y4.6531
G00 Z15.0000
G00 X6.3946 Y2.1639
G01 F650.00
G01 Z-0.1100
G01 F650.00
G01 X6.3978 Y2.1205
G01 X6.4029 Y2.0797
G01 X6.4097 Y2.0403
G01 X6.4190 Y1.9990
G01 X6.4301 Y1.9594
G01 X6.4422 Y1.9227
G01 X6.4579 Y1.8821
G01 X6.4745 Y1.8446
G01 X6.4920 Y1.8100
G01 X6.5134 Y1.7720
G01 X6.5355 Y1.7373
G01 X6.5586 Y1.7045
G01 X6.5830 Y1.6733
G01 X6.6098 Y1.6421
G01 X6.6390 Y1.6114
G01 X6.6697 Y1.5822
G01 X6.6992 Y1.5568
G01 X6.7321 Y1.5310
G01 X6.7649 Y1.5079
G01 X6.7996 Y1.4858
G01 X6.8376 Y1.4644
G01 X6.8722 Y1.4469
G01 X6.9097 Y1.4303
G01 X6.9503 Y1.4146
G01 X6.9894 Y1.4017
G01 X7.0266 Y1.3914
G01 X7.0679 Y1.3821
G01 X7.1073 Y1.3753
G01 X7.1481 Y1.3702
G01 X7.1915 Y1.3670
G01 X7.2314 Y1.3660
G01 X8.8074 Y1.3660
G01 X8.8485 Y1.3671
G01 X8.8895 Y1.3702
G01 X8.9303 Y1.3753
G01 X8.9697 Y1.3821
G01 X9.0086 Y1.3908
G01 X9.0482 Y1.4017
G01 X9.0873 Y1.4146
G01 X9.1262 Y1.4295
G01 X9.1654 Y1.4469
G01 X9.2000 Y1.4644
G01 X9.2359 Y1.4846
G01 X9.2706 Y1.5065
G01 X9.3055 Y1.5310
G01 X9.3367 Y1.5554
G01 X9.3679 Y1.5822
G01 X9.3986 Y1.6114
G01 X9.4261 Y1.6403
G01 X9.4532 Y1.6716
G01 X9.4790 Y1.7045
G01 X9.5035 Y1.7394
G01 X9.5243 Y1.7722
G01 X9.5456 Y1.8100
G01 X9.5631 Y1.8446
G01 X9.5805 Y1.8838
G01 X9.5954 Y1.9227
G01 X9.6083 Y1.9618
G01 X9.6192 Y2.0014
G01 X9.6279 Y2.0403
G01 X9.6347 Y2.0797
G01 X9.6399 Y2.1208
G01 X9.6430 Y2.1639
G01 X9.6440 Y2.2050
G01 X9.6429 Y2.2461
G01 X9.6401 Y2.2847
G01 X9.6347 Y2.3279
G01 X9.6279 Y2.3673
G01 X9.6192 Y2.4062
G01 X9.6083 Y2.4458
G01 X9.5954 Y2.4849
G01 X9.5797 Y2.5255
G01 X9.5631 Y2.5630
G01 X9.5456 Y2.5976
G01 X9.5242 Y2.6356
G01 X9.5021 Y2.6703
G01 X9.4798 Y2.7019
G01 X9.4530 Y2.7362
G01 X9.4261 Y2.7673
G01 X9.3986 Y2.7962
G01 X9.3679 Y2.8254
G01 X9.3384 Y2.8508
G01 X9.3055 Y2.8766
G01 X9.2727 Y2.8997
G01 X9.2380 Y2.9218
G01 X9.2000 Y2.9432
G01 X9.1654 Y2.9607
G01 X9.1279 Y2.9773
G01 X9.0873 Y2.9930
G01 X9.0482 Y3.0059
G01 X9.0110 Y3.0162
G01 X8.9697 Y3.0255
G01 X8.9303 Y3.0323
G01 X8.8895 Y3.0374
G01 X8.8461 Y3.0406
G01 X8.8062 Y3.0416
G01 X7.2302 Y3.0416
G01 X7.1891 Y3.0405
G01 X7.1481 Y3.0374
G01 X7.1073 Y3.0323
G01 X7.0679 Y3.0255
G01 X7.0266 Y3.0162
G01 X6.9870 Y3.0051
G01 X6.9480 Y2.9922
G01 X6.9097 Y2.9773
G01 X6.8722 Y2.9607
G01 X6.8354 Y2.9421
G01 X6.7996 Y2.9218
G01 X6.7649 Y2.8997
G01 X6.7314 Y2.8760
G01 X6.6990 Y2.8506
G01 X6.6697 Y2.8254
G01 X6.6390 Y2.7962
G01 X6.6115 Y2.7673
G01 X6.5844 Y2.7360
G01 X6.5586 Y2.7031
G01 X6.5355 Y2.6703
G01 X6.5133 Y2.6354
G01 X6.4931 Y2.5998
G01 X6.4745 Y2.5630
G01 X6.4571 Y2.5238
G01 X6.4430 Y2.4872
G01 X6.4301 Y2.4482
G01 X6.4190 Y2.4086
G01 X6.4097 Y2.3673
G01 X6.4029 Y2.3279
G01 X6.3977 Y2.2868
G01 X6.3947 Y2.2461
G01 X6.3936 Y2.2038
G01 X6.3946 Y2.1639
G00 Z15.0000
G00 X10.8382 Y21.2894
G01 F650.00
G01 Z-0.1100
G01 F650.00
G01 X10.8413 Y21.2472
G01 X10.8462 Y21.2076
G01 X10.8531 Y21.1683
G01 X10.8619 Y21.1294
G01 X10.8726 Y21.0910
G01 X10.8851 Y21.0532
G01 X10.8995 Y21.0160
G01 X10.9157 Y20.9797
G01 X10.9337 Y20.9440
G01 X10.9534 Y20.9093
G01 X10.9748 Y20.8757
G01 X10.9972 Y20.8438
G01 X11.0224 Y20.8117
G01 X11.0485 Y20.7815
G01 X11.0752 Y20.7536
G01 X11.1031 Y20.7269
G01 X11.1335 Y20.7006
G01 X11.1654 Y20.6757
G01 X11.1973 Y20.6532
G01 X11.2311 Y20.6317
G01 X11.2656 Y20.6121
G01 X11.3013 Y20.5941
G01 X11.3376 Y20.5779
G01 X11.3748 Y20.5635
G01 X11.4126 Y20.5510
G01 X11.4510 Y20.5403
G01 X11.4899 Y20.5315
G01 X11.5316 Y20.5242
G01 X11.5690 Y20.5196
G01 X11.6110 Y20.5166
G01 X11.6496 Y20.5156
G01 X11.6907 Y20.5167
G01 X11.7304 Y20.5197
G01 X11.7700 Y20.5246
G01 X11.8081 Y20.5312
G01 X11.8482 Y20.5403
G01 X11.8866 Y20.5510
G01 X11.9221 Y20.5627
G01 X11.9616 Y20.5779
G01 X11.9979 Y20.5941
G01 X12.0336 Y20.6121
G01 X12.0683 Y20.6318
G01 X12.1019 Y20.6532
G01 X12.1337 Y20.6756
G01 X12.1659 Y20.7008
G01 X12.1961 Y20.7269
G01 X12.2240 Y20.7536
G01 X12.2507 Y20.7815
G01 X12.2770 Y20.8119
G01 X12.3020 Y20.8438
G01 X12.3257 Y20.8777
G01 X12.3459 Y20.9095
G01 X12.3666 Y20.9461
G01 X12.3835 Y20.9797
G01 X12.4004 Y21.0177
G01 X12.4141 Y21.0532
G01 X12.4266 Y21.0910
G01 X12.4373 Y21.1294
G01 X12.4464 Y21.1695
G01 X12.4530 Y21.2076
G01 X12.4579 Y21.2472
G01 X12.4609 Y21.2869
G01 X12.4620 Y21.3280
G01 X12.4620 Y22.8520
G01 X12.4609 Y22.8931
G01 X12.4579 Y22.9328
G01 X12.4530 Y22.9724
G01 X12.4466 Y23.0093
G01 X12.4373 Y23.0506
G01 X12.4266 Y23.0890
G01 X12.4141 Y23.1268
G01 X12.4006 Y23.1617
G01 X12.3845 Y23.1982
G01 X12.3655 Y23.2360
G01 X12.3470 Y23.2686
G01 X12.3349 Y23.2878
G01 X12.3349 Y29.7161
G01 X13.0542 Y30.4354
G01 X13.0782 Y30.4607
G01 X13.1001 Y30.4862
G01 X13.1199 Y30.5115
G01 X13.1387 Y30.5382
G01 X13.1569 Y30.5668
G01 X13.1746 Y30.5980
G01 X13.1886 Y30.6260
G01 X13.2030 Y30.6583
G01 X13.2144 Y30.6880
G01 X13.2250 Y30.7199
G01 X13.2347 Y30.7547
G01 X13.2417 Y30.7862
G01 X13.2473 Y30.8182
G01 X13.2517 Y30.8540
G01 X13.2541 Y30.8876
G01 X13.2549 Y30.9200
G01 X13.2549 Y41.0181
G01 X17.5254 Y45.2886
G01 X17.7221 Y45.2887
G01 X17.7290 Y45.2895
G01 X17.7357 Y45.2912
G01 X17.7423 Y45.2940
G01 X17.7485 Y45.2977
G01 X17.7551 Y45.3032
G01 X18.2164 Y45.7645
G01 X18.2204 Y45.7691
G01 X18.2245 Y45.7752
G01 X18.2284 Y45.7839
G01 X18.2301 Y45.7906
G01 X18.2310 Y45.7998
G01 X18.2310 Y46.4522
G01 X18.2301 Y46.4614
G01 X18.2276 Y46.4703
G01 X18.2232 Y46.4789
G01 X18.2204 Y46.4829
G01 X18.2164 Y46.4875
G01 X17.7551 Y46.9488
G01 X17.7505 Y46.9528
G01 X17.7444 Y46.9569
G01 X17.7401 Y46.9591
G01 X17.7335 Y46.9615
G01 X17.7267 Y46.9629
G01 X17.7198 Y46.9634
G01 X17.0674 Y46.9634
G01 X17.0582 Y46.9625
G01 X17.0493 Y46.9600
G01 X17.0407 Y46.9556
G01 X17.0336 Y46.9502
G01 X16.5708 Y46.4875
G01 X16.5653 Y46.4809
G01 X16.5616 Y46.4747
G01 X16.5588 Y46.4681
G01 X16.5571 Y46.4614
G01 X16.5563 Y46.4545
G01 X16.5562 Y46.2578
G01 X12.0842 Y41.7857
G01 X12.0610 Y41.7613
G01 X12.0404 Y41.7375
G01 X12.0199 Y41.7112
G01 X11.9991 Y41.6817
G01 X11.9812 Y41.6533
G01 X11.9646 Y41.6240
G01 X11.9506 Y41.5961
G01 X11.9362 Y41.5637
G01 X11.9239 Y41.5317
G01 X11.9135 Y41.4998
G01 X11.9051 Y41.4697
G01 X11.8975 Y41.4357
G01 X11.8915 Y41.4013
G01 X11.8877 Y41.3701
G01 X11.8852 Y41.3369
G01 X11.8843 Y41.3020
G01 X11.8843 Y31.2039
G01 X11.1650 Y30.4846
G01 X11.1410 Y30.4593
G01 X11.1191 Y30.4338
G01 X11.0993 Y30.4085
G01 X11.0805 Y30.3818
G01 X11.0623 Y30.3532
G01 X11.0446 Y30.3220
G01 X11.0306 Y30.2940
G01 X11.0162 Y30.2617
G01 X11.0039 Y30.2297
G01 X10.9935 Y30.1978
G01 X10.9851 Y30.1677
G01 X10.9772 Y30.1325
G01 X10.9715 Y30.0993
G01 X10.9677 Y30.0681
G01 X10.9652 Y30.0349
G01 X10.9643 Y30.0000
G01 X10.9643 Y23.2878
G01 X10.9522 Y23.2686
G01 X10.9337 Y23.2360
G01 X10.9147 Y23.1982
G01 X10.8986 Y23.1617
G01 X10.8843 Y23.1245
G01 X10.8726 Y23.0890
G01 X10.8613 Y23.0482
G01 X10.8526 Y23.0093
G01 X10.8458 Y22.9700
G01 X10.8412 Y22.9326
G01 X10.8383 Y22.8931
G01 X10.8372 Y22.8520
G01 X10.8372 Y21.3280
G01 X10.8382 Y21.2894
G00 Z15.0000
G00 X15.9182 Y21.2894
G01 F650.00
G01 Z-0.1100
G01 F650.00
G01 X15.9210 Y21.2496
G01 X15.9262 Y21.2076
G01 X15.9328 Y21.1695
G01 X15.9413 Y21.1318
G01 X15.9526 Y21.0910
G01 X15.9651 Y21.0532
G01 X15.9786 Y21.0183
G01 X15.9947 Y20.9818
G01 X16.0137 Y20.9440
G01 X16.0322 Y20.9114
